; generated by PrusaSlicer 2.8.1+win64 on 2024-12-07 at 09:59:51 UTC


;
;
; 

; external perimeters extrusion width = 0.45mm
; perimeters extrusion width = 0.45mm
; infill extrusion width = 0.45mm
; solid infill extrusion width = 0.45mm
; top infill extrusion width = 0.40mm
; support material extrusion width = 0.33mm
; first layer extrusion width = 0.42mm

M73 P0 R30
M73 Q0 S30
M201 X1000 Y1000 Z200 E5000 ; sets maximum accelerations, mm/sec^2
M203 X200 Y200 Z12 E120 ; sets maximum feedrates, mm / sec
M204 S1250 T1250 ; sets acceleration (S) and retract acceleration (R), mm/sec^2
M205 X8.00 Y8.00 Z0.40 E4.50 ; sets the jerk limits, mm/sec
M205 S0 T0 ; sets the minimum extruding and travel feed rate, mm/sec

; printing object 4xSliderhalter.stl id:0 copy 0
; stop printing object 4xSliderhalter.stl id:0 copy 0

;TYPE:Custom
M862.3 P "MK3S" ; printer model check
M862.1 P0.4 ; nozzle diameter check
M115 U3.14.0 ; tell printer latest fw version
G90 ; use absolute coordinates
M83 ; extruder relative mode
M104 S235 ; set extruder temp
M140 S80 ; set bed temp
M190 S80 ; wait for bed temp
M109 S235 ; wait for extruder temp
G28 W ; home all without mesh bed level
G80 X112.062 Y96.02 W25.8757 H20.0986 ; mesh bed levelling

G1 Z0.2 F720
G1 Y-3 F1000 ; go outside print area
G92 E0
G1 X60 E9 F1000 ; intro line
G1 X100 E12.5 F1000 ; intro line

G92 E0
M221 S100

; Don't change E values below. Excessive value can damage the printer.
M907 E430 ; set extruder motor current
G21 ; set units to millimeters
G90 ; use absolute coordinates
M83 ; use relative distances for extrusion

M900 K0.08 ; Filament gcode LA 1.5
M900 K45 ; Filament gcode LA 1.0




M107
;LAYER_CHANGE
;Z:0.3
;HEIGHT:0.3
G1 E-1 F2100
G1 Z.5 F720
G1 X115.412 Y96.689 F10800
G1 Z.3 F720
G1 E1 F2100
M204 S800
;TYPE:Skirt/Brim
;WIDTH:0.42
G1 F1200
G1 X116.912 Y96.198 E.07001
G1 X133.088 Y96.198 E.71748
G1 X134.442 Y96.59 E.06252
G1 X135.447 Y97.807 E.07001
G1 X137.585 Y103.265 E.26
G1 X137.76 Y104.189 E.04171
G1 X137.76 Y113.407 E.40886
G1 X137.368 Y114.761 E.06252
G1 X136.313 Y115.696 E.06253
G1 X135.227 Y115.941 E.04938
G1 X114.773 Y115.941 E.90723
G1 X113.42 Y115.549 E.06248
G1 X112.485 Y114.494 E.06253
G1 X112.24 Y113.407 E.04942
G1 X112.24 Y104.189 E.40886
G1 X112.415 Y103.265 E.04171
G1 X114.553 Y97.807 E.26
G1 X115.376 Y96.737 E.05987
M204 S1000
G1 X115.376 Y96.737 F10800
G1 X115.663 Y96.969
M204 S800
G1 F1200
G1 X115.702 Y96.92 E.00278
G1 X116.912 Y96.553 E.05608
G1 X133.088 Y96.553 E.71748
G1 X134.333 Y96.944 E.05788
G1 X135.116 Y97.937 E.05609
G1 X137.254 Y103.395 E.26
G1 X137.404 Y104.189 E.03584
G1 X137.404 Y113.407 E.40886
G1 X137.014 Y114.652 E.05787
G1 X135.981 Y115.45 E.0579
G1 X135.227 Y115.585 E.03398
G1 X114.773 Y115.585 E.90723
G1 X113.529 Y115.194 E.05784
G1 X112.731 Y114.162 E.05786
G1 X112.596 Y113.407 E.03402
G1 X112.596 Y104.189 E.40886
G1 X112.746 Y103.395 E.03584
G1 X114.884 Y97.937 E.26
G1 X115.626 Y97.015 E.05249
M204 S1000
;WIPE_START
G1 F8640
G1 X115.663 Y96.969 E-.01363
G1 X115.702 Y96.92 E-.01446
G1 X116.912 Y96.553 E-.29196
G1 X119.857 Y96.553 E-.67995
;WIPE_END
G1 Z.5 F720
; printing object 4xSliderhalter.stl id:0 copy 0
G1 X119.648 Y107.805 F10800
G1 Z.3 F720
G1 E1 F2100
M204 S800
;TYPE:Support material interface
;WIDTH:0.33
G1 F1200
G1 X119.542 Y107.805 E.00351
G1 X119.542 Y108.639 E.02763
G1 X119.807 Y108.639 E.00878
G1 X119.807 Y107.805 E.02763
G1 X120.16 Y107.805 E.01169
G1 X120.327 Y107.805 E.00553
G1 X120.327 Y108.639 E.02763
G1 X120.846 Y108.639 E.01719
G1 X120.846 Y107.805 E.02763
G1 X121.365 Y107.805 E.01719
G1 X121.365 Y108.639 E.02763
G1 X121.884 Y108.639 E.01719
G1 X121.884 Y107.805 E.02763
G1 X122.404 Y107.805 E.01723
G1 X122.404 Y108.639 E.02763
G1 X122.923 Y108.639 E.01719
G1 X122.923 Y107.805 E.02763
G1 X123.181 Y107.805 E.00855
G1 X123.181 Y108.639 E.02763
G1 X123.083 Y108.639 E.00325
M204 S1000
;WIPE_START
G1 F8640
G1 X123.181 Y108.639 E-.02263
G1 X123.181 Y107.805 E-.19257
G1 X122.923 Y107.805 E-.05957
G1 X122.923 Y108.639 E-.19257
G1 X122.404 Y108.639 E-.11984
G1 X122.404 Y107.805 E-.19257
G1 X121.884 Y107.805 E-.12007
G1 X121.884 Y108.239 E-.10018
;WIPE_END
G1 Z.5 F720
G1 X121.365 Y106.819 F10800
G1 Z.3 F720
G1 E1 F2100
M204 S800
G1 F1200
G1 X120.846 Y106.942 E.01767
G1 X120.846 Y106.819 E.00407
G1 X120.327 Y106.819 E.01719
G1 X120.327 Y106.891 E.00239
G1 X120.11 Y106.819 E.00757
G1 X120.167 Y106.819 E.00189
M204 S1000
G1 X120.167 Y106.819 F10800
G1 X119.942 Y107.15
M204 S800
;TYPE:Support material
;WIDTH:0.42
G1 F1200
G1 X120.767 Y107.315 E.03732
G1 X121.618 Y107.123 E.03869
G1 X121.72 Y107.435 E.01456
G1 X119.781 Y107.435 E.086
G1 X119.893 Y107.128 E.01449
M204 S1000
;WIPE_START
G1 F8640
G1 X119.781 Y107.435 E-.07546
G1 X121.72 Y107.435 E-.44772
G1 X121.618 Y107.123 E-.07579
G1 X120.767 Y107.315 E-.20144
G1 X119.942 Y107.15 E-.19427
;WIPE_END
G1 E-.00532 F2100
G1 Z.5 F720
G1 X119.543 Y105 F10800
G1 Z.3 F720
G1 E1 F2100
M204 S800
;TYPE:Support material interface
;WIDTH:0.33
G1 F1200
G1 X119.807 Y105 E.00875
G1 X119.807 Y103.841 E.0384
G1 X119.974 Y103.726 E.00672
G1 X119.974 Y103.274 E.01497
G1 X119.838 Y103.181 E.00546
G1 X120.327 Y103.181 E.0162
G1 X120.327 Y105 E.06026
G1 X120.846 Y105 E.01719
G1 X120.846 Y103.181 E.06026
M73 Q1 S30
G1 X121.365 Y103.181 E.01719
G1 X121.365 Y105 E.06026
G1 X121.884 Y105 E.01719
G1 X121.884 Y104.059 E.03117
M73 P1 R30
G1 X122.22 Y104.512 E.01869
G1 X122.376 Y105 E.01697
G1 X122.044 Y105 E.011
M204 S1000
G1 X122.616 Y105.37 F10800
M204 S800
;TYPE:Support material
;WIDTH:0.42
G1 F1200
G1 X122.499 Y105.913 E.02464
G1 X122.183 Y106.45 E.02764
G1 X119.912 Y106.45 E.10073
G1 X119.912 Y105.37 E.0479
G1 X122.562 Y105.37 E.11754
M204 S1000
G1 X122.562 Y105.37 F10800
G1 X122.234 Y106.099
M204 S800
G1 F1200
G1 X122.234 Y105.69 E.01814
G1 X121.839 Y105.69 E.01752
G1 X121.839 Y106.13 E.01952
G1 X121.444 Y106.13 E.01752
G1 X121.444 Y105.69 E.01952
G1 X121.049 Y105.69 E.01752
G1 X121.049 Y106.13 E.01952
G1 X120.654 Y106.13 E.01752
G1 X120.654 Y105.69 E.01952
G1 X120.258 Y105.69 E.01756
G1 X120.258 Y106.29 E.02661
M204 S1000
;WIPE_START
G1 F8640
G1 X120.258 Y105.69 E-.13854
G1 X120.654 Y105.69 E-.09144
G1 X120.654 Y106.13 E-.1016
G1 X121.049 Y106.13 E-.09121
G1 X121.049 Y105.69 E-.1016
G1 X121.444 Y105.69 E-.09121
G1 X121.444 Y106.13 E-.1016
G1 X121.839 Y106.13 E-.09121
G1 X121.839 Y105.69 E-.1016
G1 X122.229 Y105.69 E-.08999
;WIPE_END
G1 Z.5 F720
G1 X119.679 Y103.935 F10800
G1 Z.3 F720
G1 E1 F2100
M204 S800
;TYPE:Support material interface
;WIDTH:0.33
G1 F1200
G1 X119.288 Y104.382 E.01967
G1 X119.288 Y106.114 E.05738
G1 X119.178 Y105.952 E.00649
G1 X118.769 Y106.077 E.01417
G1 X118.769 Y104.422 E.05483
G1 X118.57 Y104.359 E.00692
G1 X118.57 Y104.154 E.00679
G1 X118.57 Y102.641 E.05012
G1 X118.769 Y102.578 E.00692
G1 X118.769 Y100.922 E.05486
G1 X118.57 Y100.859 E.00692
G1 X118.57 Y99.822 E.03436
G1 X118.769 Y99.542 E.01138
G1 X119.288 Y99.542 E.01719
G1 X118.906 Y99.57 E.01269
M204 S1000
G1 X118.906 Y99.57 F10800
G1 X118.609 Y99.542
M204 S800
G1 F1200
G1 X118.25 Y99.542 E.01189
G1 X118.25 Y106.819 E.24108
G1 X117.73 Y106.819 E.01723
G1 X117.73 Y99.542 E.24108
M204 S1000
;WIPE_START
G1 F8640
G1 X117.73 Y103.873 E-1
;WIPE_END
G1 Z.5 F720
G1 X118.921 Y100.97 F10800
G1 Z.3 F720
G1 E1 F2100
M204 S800
G1 F1200
G1 X119.17 Y101.049 E.00865
G1 X119.288 Y100.882 E.00677
G1 X119.288 Y102.618 E.05751
G1 X119.17 Y102.451 E.00677
G1 X118.921 Y102.53 E.00865
M204 S1000
;WIPE_START
G1 F8640
G1 X119.17 Y102.451 E-.06032
G1 X119.288 Y102.618 E-.04722
G1 X119.288 Y100.882 E-.40085
G1 X119.17 Y101.049 E-.04722
G1 X118.921 Y100.97 E-.06032
;WIPE_END
G1 E-.38407 F2100
G1 Z.5 F720
G1 X119.542 Y101.399 F10800
G1 Z.3 F720
G1 E1 F2100
M204 S800
G1 F1200
G1 X119.807 Y101.361 E.00887
G1 X119.807 Y100.34 E.03383
G1 X120.049 Y100.17 E.0098
G1 X119.807 Y99.542 E.0223
G1 X120.327 Y99.542 E.01723
G1 X120.327 Y101.361 E.06026
G1 X120.846 Y101.361 E.01719
G1 X120.846 Y99.542 E.06026
G1 X121.365 Y99.542 E.01719
G1 X121.365 Y101.361 E.06026
G1 X121.884 Y101.361 E.01719
G1 X121.884 Y100.49 E.02886
G1 X121.621 Y100.292 E.01091
M204 S1000
G1 X121.621 Y100.292 F10800
G1 X121.538 Y99.896
M204 S800
G1 F1200
G1 X121.638 Y99.57 E.0113
G1 X123.181 Y99.542 E.05113
G1 X123.083 Y99.57 E.00338
M204 S1000
G1 X123.083 Y99.57 F10800
G1 X123.598 Y99.52
M204 S800
;TYPE:Support material
;WIDTH:0.42
G1 F1200
G1 X123.55 Y99.172 E.01558
G1 X117.353 Y99.172 E.27487
G1 X117.353 Y107.189 E.35559
G1 X118.52 Y107.189 E.05176
G1 X118.52 Y107.349 E.0071
G1 X118.801 Y107.63 E.01763
G1 X119.172 Y107.63 E.01646
G1 X119.172 Y109.008 E.06112
G1 X123.55 Y109.008 E.19419
G1 X123.55 Y107.63 E.06112
G1 X126.45 Y107.63 E.12863
G1 X126.45 Y109.008 E.06112
G1 X130.828 Y109.008 E.19419
G1 X130.828 Y107.63 E.06112
G1 X131.199 Y107.63 E.01646
G1 X131.48 Y107.349 E.01763
G1 X131.48 Y107.189 E.0071
G1 X132.647 Y107.189 E.05176
G1 X132.647 Y99.172 E.35559
G1 X126.45 Y99.172 E.27487
G1 X126.402 Y99.52 E.01558
G1 X126.096 Y98.731 E.03754
G1 X133.088 Y98.731 E.31013
G1 X133.088 Y103.212 E.19875
G1 X134.12 Y104.189 E.06303
G1 X135.227 Y104.189 E.0491
G1 X135.227 Y113.407 E.40886
G1 X114.773 Y113.407 E.90723
G1 X114.773 Y104.189 E.40886
G1 X115.877 Y104.189 E.04897
G1 X116.912 Y103.21 E.06319
G1 X116.912 Y98.731 E.19867
G1 X123.904 Y98.731 E.31013
G1 X123.618 Y99.47 E.03515
M204 S1000
;WIPE_START
G1 F8640
G1 X123.904 Y98.731 E-.18297
G1 X120.366 Y98.731 E-.81703
;WIPE_END
G1 Z.5 F720
G1 X134.878 Y113.247 F10800
G1 Z.3 F720
G1 E1 F2100
M204 S800
G1 F1200
G1 X134.878 Y104.509 E.38757
G1 X134.483 Y104.509 E.01752
G1 X134.483 Y113.087 E.38048
G1 X134.088 Y113.087 E.01752
G1 X134.088 Y104.509 E.38048
G1 X133.993 Y104.509 E.00421
G1 X133.693 Y104.225 E.01832
G1 X133.693 Y113.087 E.39307
G1 X133.298 Y113.087 E.01752
G1 X133.298 Y103.851 E.40966
G1 X132.967 Y103.538 E.02021
G1 X132.903 Y113.087 E.42355
G1 X132.508 Y113.087 E.01752
G1 X132.508 Y107.509 E.24741
G1 X132.112 Y107.509 E.01756
G1 X132.112 Y113.087 E.24741
G1 X131.717 Y113.087 E.01752
G1 X131.717 Y107.564 E.24497
G1 X131.322 Y107.95 E.0245
G1 X131.322 Y113.087 E.22785
G1 X130.927 Y113.087 E.01752
G1 X130.927 Y109.328 E.16673
G1 X130.532 Y109.328 E.01752
G1 X130.532 Y113.087 E.16673
G1 X130.137 Y113.087 E.01752
G1 X130.137 Y109.328 E.16673
G1 X129.742 Y109.328 E.01752
G1 X129.742 Y113.087 E.16673
G1 X129.346 Y113.087 E.01756
G1 X129.346 Y109.328 E.16673
G1 X128.951 Y109.328 E.01752
G1 X128.951 Y113.087 E.16673
G1 X128.556 Y113.087 E.01752
G1 X128.556 Y109.328 E.16673
G1 X128.161 Y109.328 E.01752
G1 X128.161 Y113.087 E.16673
G1 X127.766 Y113.087 E.01752
G1 X127.766 Y109.328 E.16673
G1 X127.371 Y109.328 E.01752
G1 X127.371 Y113.087 E.16673
G1 X126.976 Y113.087 E.01752
G1 X126.976 Y109.328 E.16673
G1 X126.581 Y109.328 E.01752
G1 X126.581 Y113.087 E.16673
G1 X126.185 Y113.087 E.01756
M73 Q2 S30
G1 X126.129 Y107.95 E.22786
G1 X125.79 Y107.95 E.01504
M73 P2 R30
G1 X125.79 Y113.087 E.22785
G1 X125.395 Y113.087 E.01752
G1 X125.395 Y107.95 E.22785
G1 X125 Y107.95 E.01752
G1 X125 Y113.087 E.22785
G1 X124.605 Y113.087 E.01752
G1 X124.605 Y107.95 E.22785
G1 X124.21 Y107.95 E.01752
G1 X124.21 Y113.087 E.22785
G1 X123.815 Y113.087 E.01752
G1 X123.815 Y109.328 E.16673
G1 X123.419 Y109.328 E.01756
G1 X123.419 Y113.087 E.16673
G1 X123.024 Y113.087 E.01752
G1 X123.024 Y109.328 E.16673
G1 X122.629 Y109.328 E.01752
G1 X122.629 Y113.087 E.16673
G1 X122.234 Y113.087 E.01752
G1 X122.234 Y109.328 E.16673
G1 X121.839 Y109.328 E.01752
G1 X121.839 Y113.087 E.16673
G1 X121.444 Y113.087 E.01752
G1 X121.444 Y109.328 E.16673
G1 X121.049 Y109.328 E.01752
G1 X121.049 Y113.087 E.16673
G1 X120.654 Y113.087 E.01752
G1 X120.654 Y109.328 E.16673
G1 X120.258 Y109.328 E.01756
G1 X120.258 Y113.087 E.16673
G1 X119.863 Y113.087 E.01752
G1 X119.863 Y109.328 E.16673
G1 X119.468 Y109.328 E.01752
G1 X119.468 Y113.087 E.16673
G1 X119.073 Y113.087 E.01752
G1 X119.073 Y109.328 E.16673
G1 X118.852 Y109.328 E.0098
G1 X118.852 Y107.95 E.06112
G1 X118.678 Y107.95 E.00772
G1 X118.678 Y113.087 E.22785
G1 X118.283 Y113.087 E.01752
G1 X118.283 Y107.564 E.24497
G1 X117.888 Y107.509 E.01769
G1 X117.888 Y113.087 E.24741
G1 X117.492 Y113.087 E.01756
G1 X117.492 Y107.509 E.24741
G1 X117.097 Y107.509 E.01752
G1 X117.097 Y113.087 E.24741
G1 X116.702 Y113.087 E.01752
G1 X116.702 Y103.849 E.40975
G1 X116.307 Y104.223 E.02413
G1 X116.307 Y113.087 E.39316
G1 X115.912 Y113.087 E.01752
G1 X115.912 Y104.509 E.38048
G1 X115.517 Y104.509 E.01752
G1 X115.517 Y113.087 E.38048
G1 X115.122 Y113.087 E.01752
G1 X115.122 Y104.349 E.38757
M204 S1000
;WIPE_START
G1 F8640
M73 P2 R29
G1 X115.122 Y108.68 E-1
;WIPE_END
G1 Z.5 F720
G1 X121.838 Y103.554 F10800
G1 Z.3 F720
G1 E1 F2100
M204 S800
G1 F1200
G1 X121.838 Y103.446 E.00479
G1 X121.838 Y103.501 E.00244
M204 S1000
G1 X121.838 Y103.501 F10800
G1 X122.62 Y101.75
M204 S800
G1 F1200
G1 X122.531 Y102.321 E.02563
G1 X122.289 Y102.811 E.02424
G1 X119.912 Y102.811 E.10543
G1 X119.912 Y101.731 E.0479
G1 X122.585 Y101.731 E.11856
M204 S1000
G1 X122.585 Y101.731 F10800
G1 X122.234 Y102.599
M204 S800
G1 F1200
G1 X122.234 Y102.051 E.02431
G1 X121.839 Y102.051 E.01752
G1 X121.839 Y102.491 E.01952
G1 X121.444 Y102.491 E.01752
G1 X121.444 Y102.051 E.01952
G1 X121.049 Y102.051 E.01752
G1 X121.049 Y102.491 E.01952
G1 X120.654 Y102.491 E.01752
G1 X120.654 Y102.051 E.01952
G1 X120.258 Y102.051 E.01756
G1 X120.258 Y102.651 E.02661
M204 S1000
;WIPE_START
G1 F8640
G1 X120.258 Y102.051 E-.13854
G1 X120.654 Y102.051 E-.09144
G1 X120.654 Y102.491 E-.1016
G1 X121.049 Y102.491 E-.09121
G1 X121.049 Y102.051 E-.1016
G1 X121.444 Y102.051 E-.09121
G1 X121.444 Y102.491 E-.1016
G1 X121.839 Y102.491 E-.09121
G1 X121.839 Y102.051 E-.1016
G1 X122.229 Y102.051 E-.08999
;WIPE_END
G1 Z.5 F720
G1 X122.044 Y101.361 F10800
G1 Z.3 F720
G1 E1 F2100
M204 S800
;TYPE:Support material interface
;WIDTH:0.33
G1 F1200
G1 X122.4 Y101.361 E.01179
G1 X122.265 Y100.989 E.01311
G1 X121.997 Y100.603 E.01557
M204 S1000
;WIPE_START
G1 F8640
G1 X122.265 Y100.989 E-.1085
G1 X122.4 Y101.361 E-.09138
G1 X122.044 Y101.361 E-.0822
;WIPE_END
G1 E-.71792 F2100
G1 Z.5 F720
G1 X126.917 Y99.542 F10800
G1 Z.3 F720
G1 E1 F2100
M204 S800
G1 F1200
G1 X126.819 Y99.57 E.00338
G1 X128.635 Y99.542 E.06017
G1 X128.635 Y101.361 E.06026
G1 X129.154 Y101.361 E.01719
G1 X129.154 Y99.542 E.06026
G1 X129.673 Y99.542 E.01719
G1 X129.673 Y101.361 E.06026
G1 X130.193 Y101.361 E.01723
G1 X130.193 Y100.34 E.03383
G1 X129.951 Y100.17 E.0098
G1 X130.141 Y99.57 E.02085
G1 X130.712 Y99.542 E.01894
G1 X130.352 Y99.57 E.01196
M204 S1000
G1 X130.352 Y99.57 F10800
G1 X130.321 Y100.436
M204 S800
G1 F1200
G1 X130.712 Y100.882 E.01965
G1 X130.712 Y102.618 E.05751
G1 X130.458 Y102.94 E.01359
G1 X130.458 Y102.101 E.0278
M204 S1000
G1 X130.458 Y102.101 F10800
G1 X130.088 Y102.811
M204 S800
;TYPE:Support material
;WIDTH:0.42
G1 F1200
G1 X127.711 Y102.811 E.10543
G1 X127.469 Y102.321 E.02424
G1 X127.381 Y101.731 E.02646
G1 X130.088 Y101.731 E.12007
G1 X130.088 Y102.758 E.04555
M204 S1000
G1 X130.088 Y102.758 F10800
G1 X129.742 Y102.651
M204 S800
G1 F1200
G1 X129.742 Y102.051 E.02661
G1 X129.346 Y102.051 E.01756
G1 X129.346 Y102.491 E.01952
G1 X128.951 Y102.491 E.01752
G1 X128.951 Y102.051 E.01952
G1 X128.556 Y102.051 E.01752
G1 X128.556 Y102.491 E.01952
G1 X128.161 Y102.491 E.01752
G1 X128.161 Y102.051 E.01952
G1 X127.766 Y102.051 E.01752
G1 X127.766 Y102.599 E.02431
M204 S1000
G1 X127.766 Y102.599 F10800
G1 X128.195 Y103.468
M204 S800
G1 F1200
G1 X128.162 Y103.554 E.00409
G1 X128.162 Y103.46 E.00417
M204 S1000
G1 X128.162 Y103.46 F10800
G1 X128.565 Y103.478
M204 S800
;TYPE:Support material interface
;WIDTH:0.33
G1 F1200
G1 X128.565 Y103.267 E.00699
G1 X128.432 Y103.181 E.00525
G1 X128.635 Y103.181 E.00673
G1 X128.635 Y105 E.06026
G1 X129.154 Y105 E.01719
G1 X129.154 Y103.181 E.06026
G1 X129.673 Y103.181 E.01719
G1 X129.673 Y105 E.06026
G1 X130.193 Y105 E.01723
G1 X130.193 Y103.841 E.0384
G1 X130.026 Y103.726 E.00672
G1 X130.026 Y103.274 E.01497
G1 X130.162 Y103.181 E.00546
M204 S1000
G1 X130.162 Y103.181 F10800
G1 X130.321 Y103.936
M204 S800
