; generated by PrusaSlicer 2.8.1+win64 on 2024-12-06 at 13:04:48 UTC


;
;
; 

; external perimeters extrusion width = 0.45mm
; perimeters extrusion width = 0.45mm
; infill extrusion width = 0.45mm
; solid infill extrusion width = 0.45mm
; top infill extrusion width = 0.40mm
; first layer extrusion width = 0.42mm

; external perimeters extrusion width = 0.45mm
; perimeters extrusion width = 0.45mm
; infill extrusion width = 0.45mm
; solid infill extrusion width = 0.45mm
; top infill extrusion width = 0.40mm
; first layer extrusion width = 0.42mm

; external perimeters extrusion width = 0.45mm
; perimeters extrusion width = 0.45mm
; infill extrusion width = 0.45mm
; solid infill extrusion width = 0.45mm
; top infill extrusion width = 0.40mm
; first layer extrusion width = 0.42mm

; external perimeters extrusion width = 0.45mm
; perimeters extrusion width = 0.45mm
; infill extrusion width = 0.45mm
; solid infill extrusion width = 0.45mm
; top infill extrusion width = 0.40mm
; first layer extrusion width = 0.42mm

M73 P0 R5
M73 Q0 S5
M201 X1000 Y1000 Z200 E5000 ; sets maximum accelerations, mm/sec^2
M203 X200 Y200 Z12 E120 ; sets maximum feedrates, mm / sec
M204 S1250 T1250 ; sets acceleration (S) and retract acceleration (R), mm/sec^2
M205 X8.00 Y8.00 Z0.40 E4.50 ; sets the jerk limits, mm/sec
M205 S0 T0 ; sets the minimum extruding and travel feed rate, mm/sec

; printing object 4xBremsbelag.stl id:3 copy 0
; stop printing object 4xBremsbelag.stl id:3 copy 0
; printing object 4xBremsbelag.stl id:0 copy 0
; stop printing object 4xBremsbelag.stl id:0 copy 0
; printing object 4xBremsbelag.stl id:1 copy 0
; stop printing object 4xBremsbelag.stl id:1 copy 0
; printing object 4xBremsbelag.stl id:2 copy 0
; stop printing object 4xBremsbelag.stl id:2 copy 0

;TYPE:Custom
M862.3 P "MK3S" ; printer model check
M862.1 P0.4 ; nozzle diameter check
M115 U3.14.0 ; tell printer latest fw version
G90 ; use absolute coordinates
M83 ; extruder relative mode
M104 S235 ; set extruder temp
M140 S80 ; set bed temp
M190 S80 ; wait for bed temp
M109 S235 ; wait for extruder temp
G28 W ; home all without mesh bed level
G80 X112.246 Y93.1059 W25.6169 H31.4008 ; mesh bed levelling

G1 Z0.2 F720
G1 Y-3 F1000 ; go outside print area
G92 E0
G1 X60 E9 F1000 ; intro line
G1 X100 E12.5 F1000 ; intro line
M73 P1 R5
M73 Q1 S5

G92 E0
M221 S95

; Don't change E values below. Excessive value can damage the printer.
M907 E430 ; set extruder motor current
G21 ; set units to millimeters
G90 ; use absolute coordinates
M83 ; use relative distances for extrusion

M900 K0.08 ; Filament gcode LA 1.5
M900 K45 ; Filament gcode LA 1.0




M107
;LAYER_CHANGE
;Z:0.2
;HEIGHT:0.2
G1 E-1 F2100
M73 P2 R4
M73 Q2 S4
G1 Z.4 F720
G1 X112.882 Y94.483 F10800
G1 Z.2 F720
G1 E1 F2100
M204 S800
;TYPE:Skirt/Brim
;WIDTH:0.42
G1 F1200
G1 X113.945 Y93.543 E.04449
G1 X115.047 Y93.294 E.03542
G1 X135.047 Y93.294 E.62709
G1 X136.41 Y93.687 E.04448
G1 X137.356 Y94.743 E.04445
G1 X137.612 Y95.85 E.03563
G1 X137.647 Y121.763 E.81248
G1 X137.249 Y123.125 E.04449
M73 P3 R4
M73 Q3 S4
G1 X136.189 Y124.067 E.04446
G1 X135.081 Y124.318 E.03562
G1 X115.081 Y124.318 E.62709
G1 X113.718 Y123.926 E.04447
G1 X112.771 Y122.869 E.0445
G1 X112.516 Y121.767 E.03547
G1 X112.434 Y107 E.46302
G1 X112.481 Y95.843 E.34982
M73 Q4 S4
G1 X112.865 Y94.54 E.04259
M73 P4 R4
M204 S1000
G1 X112.865 Y94.54 F10800
G1 X113.238 Y94.66
M204 S800
G1 F1200
G1 X113.257 Y94.6 E.00197
G1 X114.295 Y93.805 E.04099
G1 X115.047 Y93.672 E.02394
G1 X135.047 Y93.672 E.62709
G1 X136.295 Y94.062 E.041
G1 X137.097 Y95.095 E.041
G1 X137.235 Y95.851 E.0241
G1 X137.27 Y121.761 E.81239
G1 X136.874 Y123.008 E.04102
M73 Q5 S4
G1 X135.838 Y123.806 E.041
G1 X135.081 Y123.941 E.02411
M73 P5 R4
G1 X115.081 Y123.941 E.62709
G1 X113.833 Y123.55 E.04101
G1 X113.031 Y122.517 E.041
G1 X112.893 Y121.765 E.02397
G1 X112.811 Y107 E.46295
G1 X112.858 Y95.846 E.34973
G1 X113.22 Y94.717 E.03717
M204 S1000
;WIPE_START
G1 F8640
G1 X113.238 Y94.66 E-.0138
G1 X113.257 Y94.6 E-.01453
G1 X114.295 Y93.805 E-.3019
G1 X115.047 Y93.672 E-.17633
G1 X117.184 Y93.672 E-.49344
;WIPE_END
G1 Z.4 F720
M73 Q6 S4
; printing object 4xBremsbelag.stl id:0 copy 0
G1 X133.917 Y120.588 F10800
G1 Z.2 F720
M73 P6 R4
G1 E1 F2100
M204 S800
;TYPE:Perimeter
;WIDTH:0.419999
G1 F1200
G1 X116.245 Y120.588 E.55409
G1 X116.245 Y118.917 E.05239
G1 X133.917 Y118.917 E.55409
G1 X133.917 Y119.753 E.02621
G1 X133.917 Y120.528 E.0243
M204 S1000
G1 X133.917 Y120.528 F10800
G1 X134.294 Y120.965
M204 S800
G1 F1200
G1 X115.868 Y120.965 E.57773
G1 X115.868 Y118.54 E.07603
M73 P7 R4
M73 Q7 S4
G1 X134.294 Y118.54 E.57773
G1 X134.294 Y119.753 E.03803
G1 X134.294 Y120.905 E.03612
M204 S1000
G1 X134.294 Y120.905 F10800
G1 X134.671 Y121.343
M204 S800
;TYPE:External perimeter
G1 F1200
G1 X115.491 Y121.343 E.60137
G1 X115.491 Y118.163 E.09971
G1 X134.671 Y118.163 E.60137
G1 X134.671 Y119.753 E.04985
M73 P8 R4
M73 Q8 S4
G1 X134.671 Y121.283 E.04797
M204 S1000
;WIPE_START
G1 F8640
G1 X134.671 Y121.343 E-.01385
G1 X130.4 Y121.343 E-.98615
;WIPE_END
G1 Z.4 F720
G1 X133.747 Y119.852 F10800
G1 Z.2 F720
G1 E1 F2100
M204 S800
;TYPE:Solid infill
;WIDTH:0.421526
G1 F1200
G1 X133.152 Y119.256 E.02651
G1 X132.616 Y119.256 E.01687
G1 X133.578 Y120.218 E.04283
G1 X133.578 Y120.249 E.00098
G1 X133.074 Y120.249 E.01587
G1 X132.081 Y119.256 E.04421
G1 X131.545 Y119.256 E.01687
G1 X132.538 Y120.249 E.04421
G1 X132.003 Y120.249 E.01684
G1 X131.01 Y119.256 E.04421
G1 X130.474 Y119.256 E.01687
G1 X131.467 Y120.249 E.04421
G1 X130.932 Y120.249 E.01684
G1 X129.939 Y119.256 E.04421
G1 X129.404 Y119.256 E.01684
G1 X130.397 Y120.249 E.04421
G1 X129.861 Y120.249 E.01687
G1 X128.868 Y119.256 E.04421
G1 X128.333 Y119.256 E.01684
G1 X129.326 Y120.249 E.04421
G1 X128.79 Y120.249 E.01687
G1 X127.797 Y119.256 E.04421
G1 X127.262 Y119.256 E.01684
G1 X128.255 Y120.249 E.04421
G1 X127.719 Y120.249 E.01687
G1 X126.726 Y119.256 E.04421
G1 X126.191 Y119.256 E.01684
G1 X127.184 Y120.249 E.04421
G1 X126.649 Y120.249 E.01684
G1 X125.656 Y119.256 E.04421
G1 X125.12 Y119.256 E.01687
G1 X126.113 Y120.249 E.04421
G1 X125.578 Y120.249 E.01684
G1 X124.585 Y119.256 E.04421
G1 X124.049 Y119.256 E.01687
M73 Q9 S4
G1 X125.042 Y120.249 E.04421
G1 X124.507 Y120.249 E.01684
G1 X123.514 Y119.256 E.04421
G1 X122.978 Y119.256 E.01687
G1 X123.971 Y120.249 E.04421
G1 X123.436 Y120.249 E.01684
M73 P9 R4
G1 X122.443 Y119.256 E.04421
G1 X121.908 Y119.256 E.01684
G1 X122.901 Y120.249 E.04421
G1 X122.365 Y120.249 E.01687
G1 X121.372 Y119.256 E.04421
G1 X120.837 Y119.256 E.01684
G1 X121.83 Y120.249 E.04421
G1 X121.294 Y120.249 E.01687
G1 X120.301 Y119.256 E.04421
G1 X119.766 Y119.256 E.01684
G1 X120.759 Y120.249 E.04421
G1 X120.223 Y120.249 E.01687
G1 X119.23 Y119.256 E.04421
G1 X118.695 Y119.256 E.01684
G1 X119.688 Y120.249 E.04421
G1 X119.153 Y120.249 E.01684
G1 X118.16 Y119.256 E.04421
G1 X117.624 Y119.256 E.01687
G1 X118.617 Y120.249 E.04421
G1 X118.082 Y120.249 E.01684
G1 X117.089 Y119.256 E.04421
G1 X116.585 Y119.256 E.01587
G1 X116.585 Y119.288 E.00101
G1 X117.546 Y120.249 E.04278
G1 X117.011 Y120.249 E.01684
G1 X116.415 Y119.653 E.02653
M204 S1000
;WIPE_START
G1 F8640
G1 X117.011 Y120.249 E-.19462
G1 X117.546 Y120.249 E-.12353
G1 X116.585 Y119.288 E-.31381
G1 X116.585 Y119.256 E-.00739
G1 X117.089 Y119.256 E-.11637
G1 X117.837 Y120.004 E-.24428
;WIPE_END
G1 Z.4 F720
; stop printing object 4xBremsbelag.stl id:0 copy 0
; printing object 4xBremsbelag.stl id:2 copy 0
G1 X133.944 Y113.848 F10800
G1 Z.2 F720
G1 E1 F2100
M204 S800
;TYPE:Perimeter
;WIDTH:0.419999
G1 F1200
G1 X116.273 Y113.848 E.55406
G1 X116.273 Y112.177 E.05239
M73 Q10 S4
G1 X133.944 Y112.177 E.55406
M73 P10 R4
G1 X133.944 Y113.012 E.02618
G1 X133.944 Y113.788 E.02433
M204 S1000
G1 X133.944 Y113.788 F10800
G1 X134.322 Y114.225
M204 S800
G1 F1200
G1 X115.896 Y114.225 E.57773
G1 X115.896 Y111.799 E.07607
G1 X134.322 Y111.799 E.57773
G1 X134.322 Y113.012 E.03803
M73 P11 R4
M73 Q11 S4
G1 X134.322 Y114.165 E.03615
M204 S1000
G1 X134.322 Y114.165 F10800
G1 X134.699 Y114.602
M204 S800
;TYPE:External perimeter
G1 F1200
G1 X115.519 Y114.602 E.60137
G1 X115.519 Y111.422 E.09971
G1 X134.699 Y111.422 E.60137
G1 X134.699 Y113.012 E.04985
G1 X134.699 Y114.542 E.04797
M204 S1000
;WIPE_START
G1 F8640
G1 X134.699 Y114.602 E-.01385
G1 X130.428 Y114.602 E-.98615
;WIPE_END
G1 Z.4 F720
G1 X133.775 Y113.112 F10800
G1 Z.2 F720
G1 E1 F2100
M73 Q12 S4
M204 S800
;TYPE:Solid infill
;WIDTH:0.421526
G1 F1200
G1 X133.179 Y112.516 E.02653
G1 X132.644 Y112.516 E.01684
G1 X133.605 Y113.478 E.04281
G1 X133.605 Y113.509 E.00098
G1 X133.101 Y113.509 E.01587
G1 X132.108 Y112.516 E.04421
G1 X131.573 Y112.516 E.01684
M73 P12 R4
G1 X132.566 Y113.509 E.04421
G1 X132.03 Y113.509 E.01687
G1 X131.037 Y112.516 E.04421
G1 X130.502 Y112.516 E.01684
G1 X131.495 Y113.509 E.04421
G1 X130.959 Y113.509 E.01687
G1 X129.966 Y112.516 E.04421
G1 X129.431 Y112.516 E.01684
G1 X130.424 Y113.509 E.04421
G1 X129.888 Y113.509 E.01687
G1 X128.896 Y112.516 E.04419
G1 X128.36 Y112.516 E.01687
G1 X129.353 Y113.509 E.04421
G1 X128.818 Y113.509 E.01684
G1 X127.825 Y112.516 E.04421
G1 X127.289 Y112.516 E.01687
G1 X128.282 Y113.509 E.04421
G1 X127.747 Y113.509 E.01684
G1 X126.754 Y112.516 E.04421
G1 X126.218 Y112.516 E.01687
G1 X127.211 Y113.509 E.04421
G1 X126.676 Y113.509 E.01684
G1 X125.683 Y112.516 E.04421
G1 X125.148 Y112.516 E.01684
G1 X126.14 Y113.509 E.04419
G1 X125.605 Y113.509 E.01684
G1 X124.612 Y112.516 E.04421
G1 X124.077 Y112.516 E.01684
G1 X125.07 Y113.509 E.04421
G1 X124.534 Y113.509 E.01687
G1 X123.541 Y112.516 E.04421
G1 X123.006 Y112.516 E.01684
G1 X123.999 Y113.509 E.04421
G1 X123.463 Y113.509 E.01687
G1 X122.47 Y112.516 E.04421
G1 X121.935 Y112.516 E.01684
G1 X122.928 Y113.509 E.04421
G1 X122.392 Y113.509 E.01687
G1 X121.4 Y112.516 E.04419
G1 X120.864 Y112.516 E.01687
G1 X121.857 Y113.509 E.04421
G1 X121.322 Y113.509 E.01684
G1 X120.329 Y112.516 E.04421
G1 X119.793 Y112.516 E.01687
G1 X120.786 Y113.509 E.04421
G1 X120.251 Y113.509 E.01684
G1 X119.258 Y112.516 E.04421
G1 X118.722 Y112.516 E.01687
G1 X119.715 Y113.509 E.04421
G1 X119.18 Y113.509 E.01684
M73 Q13 S4
G1 X118.187 Y112.516 E.04421
G1 X117.652 Y112.516 E.01684
G1 X118.644 Y113.509 E.04419
G1 X118.109 Y113.509 E.01684
G1 X117.116 Y112.516 E.04421
M73 P13 R4
G1 X116.612 Y112.516 E.01587
G1 X116.612 Y112.547 E.00098
G1 X117.574 Y113.509 E.04283
G1 X117.038 Y113.509 E.01687
G1 X116.442 Y112.913 E.02653
M204 S1000
;WIPE_START
G1 F8640
G1 X117.038 Y113.509 E-.19462
G1 X117.574 Y113.509 E-.12376
G1 X116.612 Y112.547 E-.31414
G1 X116.612 Y112.516 E-.00716
G1 X117.116 Y112.516 E-.11637
G1 X117.863 Y113.263 E-.24395
;WIPE_END
G1 Z.4 F720
; stop printing object 4xBremsbelag.stl id:2 copy 0
; printing object 4xBremsbelag.stl id:3 copy 0
G1 X133.836 Y105.836 F10800
G1 Z.2 F720
G1 E1 F2100
M204 S800
;TYPE:Perimeter
;WIDTH:0.419999
G1 F1200
G1 X116.164 Y105.836 E.55409
G1 X116.164 Y104.164 E.05242
G1 X133.836 Y104.164 E.55409
G1 X133.836 Y105 E.02621
M73 Q14 S4
G1 X133.836 Y105.776 E.02433
M204 S1000
G1 X133.836 Y105.776 F10800
G1 X134.213 Y106.213
M204 S800
G1 F1200
G1 X115.787 Y106.213 E.57773
G1 X115.787 Y103.787 E.07607
M73 P14 R4
G1 X134.213 Y103.787 E.57773
G1 X134.213 Y105 E.03803
G1 X134.213 Y106.153 E.03615
M204 S1000
G1 X134.59 Y106.59 F10800
M204 S800
;TYPE:External perimeter
G1 F1200
G1 X115.41 Y106.59 E.60137
G1 X115.41 Y103.41 E.09971
M73 Q15 S4
G1 X134.59 Y103.41 E.60137
M73 P15 R4
G1 X134.59 Y105 E.04985
G1 X134.59 Y106.53 E.04797
M204 S1000
;WIPE_START
G1 F8640
G1 X134.59 Y106.59 E-.01385
G1 X130.319 Y106.59 E-.98615
;WIPE_END
G1 Z.4 F720
G1 X133.666 Y105.099 F10800
G1 Z.2 F720
G1 E1 F2100
M204 S800
;TYPE:Solid infill
;WIDTH:0.421526
G1 F1200
G1 X133.07 Y104.504 E.02651
G1 X132.535 Y104.504 E.01684
G1 X133.496 Y105.465 E.04278
G1 X133.496 Y105.496 E.00098
G1 X132.992 Y105.496 E.01587
G1 X131.999 Y104.504 E.04419
G1 X131.464 Y104.504 E.01684
G1 X132.457 Y105.496 E.04419
G1 X131.922 Y105.496 E.01684
G1 X130.929 Y104.504 E.04419
G1 X130.393 Y104.504 E.01687
G1 X131.386 Y105.496 E.04419
G1 X130.851 Y105.496 E.01684
G1 X129.858 Y104.504 E.04419
G1 X129.322 Y104.504 E.01687
G1 X130.315 Y105.496 E.04419
G1 X129.78 Y105.496 E.01684
G1 X128.787 Y104.504 E.04419
G1 X128.251 Y104.504 E.01687
G1 X129.244 Y105.496 E.04419
G1 X128.709 Y105.496 E.01684
G1 X127.716 Y104.504 E.04419
G1 X127.181 Y104.504 E.01684
M73 Q16 S4
G1 X128.174 Y105.496 E.04419
G1 X127.638 Y105.496 E.01687
G1 X126.645 Y104.504 E.04419
G1 X126.11 Y104.504 E.01684
G1 X127.103 Y105.496 E.04419
M73 P16 R4
G1 X126.567 Y105.496 E.01687
G1 X125.574 Y104.504 E.04419
G1 X125.039 Y104.504 E.01684
G1 X126.032 Y105.496 E.04419
G1 X125.496 Y105.496 E.01687
G1 X124.503 Y104.504 E.04419
G1 X123.968 Y104.504 E.01684
G1 X124.961 Y105.496 E.04419
G1 X124.426 Y105.496 E.01684
G1 X123.433 Y104.504 E.04419
G1 X122.897 Y104.504 E.01687
G1 X123.89 Y105.496 E.04419
G1 X123.355 Y105.496 E.01684
G1 X122.362 Y104.504 E.04419
G1 X121.826 Y104.504 E.01687
G1 X122.819 Y105.496 E.04419
G1 X122.284 Y105.496 E.01684
G1 X121.291 Y104.504 E.04419
G1 X120.755 Y104.504 E.01687
G1 X121.748 Y105.496 E.04419
G1 X121.213 Y105.496 E.01684
G1 X120.22 Y104.504 E.04419
G1 X119.685 Y104.504 E.01684
G1 X120.678 Y105.496 E.04419
G1 X120.142 Y105.496 E.01687
G1 X119.149 Y104.504 E.04419
G1 X118.614 Y104.504 E.01684
G1 X119.607 Y105.496 E.04419
G1 X119.071 Y105.496 E.01687
G1 X118.078 Y104.504 E.04419
G1 X117.543 Y104.504 E.01684
G1 X118.536 Y105.496 E.04419
G1 X118 Y105.496 E.01687
G1 X117.007 Y104.504 E.04419
G1 X116.504 Y104.504 E.01584
G1 X116.504 Y104.535 E.00098
G1 X117.465 Y105.496 E.04278
G1 X116.93 Y105.496 E.01684
G1 X116.334 Y104.901 E.02651
M204 S1000
;WIPE_START
G1 F8640
G1 X116.93 Y105.496 E-.19446
G1 X117.465 Y105.496 E-.12353
G1 X116.504 Y104.535 E-.31381
G1 X116.504 Y104.504 E-.00716
G1 X117.007 Y104.504 E-.11614
G1 X117.758 Y105.254 E-.2449
;WIPE_END
G1 Z.4 F720
; stop printing object 4xBremsbelag.stl id:3 copy 0
; printing object 4xBremsbelag.stl id:1 copy 0
G1 X133.882 Y98.696 F10800
G1 Z.2 F720
G1 E1 F2100
M204 S800
;TYPE:Perimeter
;WIDTH:0.419999
G1 F1200
G1 X116.211 Y98.696 E.55406
G1 X116.211 Y97.024 E.05242
M73 P17 R4
M73 Q17 S4
G1 X133.882 Y97.024 E.55406
G1 X133.882 Y97.86 E.02621
G1 X133.882 Y98.636 E.02433
M204 S1000
G1 X133.882 Y98.636 F10800
G1 X134.26 Y99.073
M204 S800
G1 F1200
G1 X115.834 Y99.073 E.57773
G1 X115.834 Y96.647 E.07607
G1 X134.26 Y96.647 E.57773
M73 Q18 S4
G1 X134.26 Y97.86 E.03803
M73 P18 R4
G1 X134.26 Y99.013 E.03615
M204 S1000
G1 X134.26 Y99.013 F10800
G1 X134.637 Y99.45
M204 S800
;TYPE:External perimeter
G1 F1200
G1 X115.457 Y99.45 E.60137
G1 X115.457 Y96.27 E.09971
G1 X134.637 Y96.27 E.60137
G1 X134.637 Y97.86 E.04985
M73 Q19 S4
G1 X134.637 Y99.39 E.04797
M73 P19 R4
M204 S1000
;WIPE_START
G1 F8640
G1 X134.637 Y99.45 E-.01385
G1 X130.366 Y99.45 E-.98615
;WIPE_END
G1 Z.4 F720
G1 X133.713 Y97.959 F10800
G1 Z.2 F720
G1 E1 F2100
M204 S800
;TYPE:Solid infill
;WIDTH:0.421526
G1 F1200
G1 X133.117 Y97.364 E.02651
G1 X132.582 Y97.364 E.01684
G1 X133.543 Y98.325 E.04278
G1 X133.543 Y98.357 E.00101
G1 X133.039 Y98.357 E.01587
G1 X132.046 Y97.364 E.04421
G1 X131.511 Y97.364 E.01684
G1 X132.504 Y98.357 E.04421
G1 X131.968 Y98.357 E.01687
G1 X130.975 Y97.364 E.04421
G1 X130.44 Y97.364 E.01684
G1 X131.433 Y98.357 E.04421
G1 X130.897 Y98.357 E.01687
G1 X129.904 Y97.364 E.04421
G1 X129.369 Y97.364 E.01684
G1 X130.362 Y98.357 E.04421
G1 X129.826 Y98.357 E.01687
G1 X128.834 Y97.364 E.04419
G1 X128.298 Y97.364 E.01687
G1 X129.291 Y98.357 E.04421
G1 X128.756 Y98.357 E.01684
G1 X127.763 Y97.364 E.04421
G1 X127.227 Y97.364 E.01687
G1 X128.22 Y98.357 E.04421
G1 X127.685 Y98.357 E.01684
G1 X126.692 Y97.364 E.04421
G1 X126.156 Y97.364 E.01687
G1 X127.149 Y98.357 E.04421
G1 X126.614 Y98.357 E.01684
G1 X125.621 Y97.364 E.04421
G1 X125.086 Y97.364 E.01684
G1 X126.078 Y98.357 E.04419
G1 X125.543 Y98.357 E.01684
G1 X124.55 Y97.364 E.04421
G1 X124.015 Y97.364 E.01684
G1 X125.008 Y98.357 E.04421
G1 X124.472 Y98.357 E.01687
