; generated by PrusaSlicer 2.8.1+win64 on 2024-12-10 at 16:17:57 UTC


;
;
; 

; external perimeters extrusion width = 0.45mm
; perimeters extrusion width = 0.45mm
; infill extrusion width = 0.45mm
; solid infill extrusion width = 0.45mm
; top infill extrusion width = 0.40mm
; first layer extrusion width = 0.42mm

M73 P0 R51
M73 Q0 S51
M201 X1000 Y1000 Z200 E5000 ; sets maximum accelerations, mm/sec^2
M203 X200 Y200 Z12 E120 ; sets maximum feedrates, mm / sec
M204 S1250 T1250 ; sets acceleration (S) and retract acceleration (R), mm/sec^2
M205 X8.00 Y8.00 Z0.40 E4.50 ; sets the jerk limits, mm/sec
M205 S0 T0 ; sets the minimum extruding and travel feed rate, mm/sec

; printing object Bremse14mm.stl id:0 copy 0
; stop printing object Bremse14mm.stl id:0 copy 0

;TYPE:Custom
M862.3 P "MK3S" ; printer model check
M862.1 P0.4 ; nozzle diameter check
M115 U3.14.0 ; tell printer latest fw version
G90 ; use absolute coordinates
M83 ; extruder relative mode
M104 S235 ; set extruder temp
M140 S80 ; set bed temp
M190 S80 ; wait for bed temp
M109 S235 ; wait for extruder temp
G28 W ; home all without mesh bed level
G80 X112.997 Y95.2458 W24.0068 H17.8583 ; mesh bed levelling

G1 Z0.2 F720
G1 Y-3 F1000 ; go outside print area
G92 E0
G1 X60 E9 F1000 ; intro line
G1 X100 E12.5 F1000 ; intro line

G92 E0
M221 S95

; Don't change E values below. Excessive value can damage the printer.
M907 E430 ; set extruder motor current
G21 ; set units to millimeters
G90 ; use absolute coordinates
M83 ; use relative distances for extrusion

M900 K0.08 ; Filament gcode LA 1.5
M900 K45 ; Filament gcode LA 1.0




M107
;LAYER_CHANGE
;Z:0.2
;HEIGHT:0.2
G1 E-1 F2100
G1 Z.4 F720
G1 X114.101 Y97.594 F10800
G1 Z.2 F720
G1 E1 F2100
M204 S800
;TYPE:Skirt/Brim
;WIDTH:0.42
G1 F1200
G1 X114.796 Y96.795 E.0332
G1 X115.641 Y96.158 E.03318
G1 X116.433 Y95.772 E.02762
G1 X117.284 Y95.528 E.02776
G1 X118.158 Y95.436 E.02756
G1 X131.33 Y95.436 E.413
G1 X132.213 Y95.519 E.02781
G1 X133.223 Y95.797 E.03285
G1 X134.163 Y96.259 E.03284
G1 X134.87 Y96.775 E.02744
G1 X135.588 Y97.515 E.03233
G1 X136.164 Y98.39 E.03285
G1 X136.516 Y99.204 E.02781
G1 X136.76 Y100.223 E.03285
G1 X136.795 Y102.318 E.0657
G1 X136.175 Y106.836 E.14299
G1 X134.675 Y111.186 E.14427
G1 X133.859 Y112.347 E.04449
G1 X132.249 Y112.916 E.05354
M73 P0 R50
G1 X131.749 Y112.916 E.01568
G1 X129.307 Y112.527 E.07753
G1 X128.47 Y112.224 E.02791
G1 X115.49 Y104.747 E.46967
G1 X114.912 Y104.31 E.02272
G1 X114.314 Y103.688 E.02705
G1 X113.908 Y103.11 E.02215
G1 X113.52 Y102.314 E.02777
G1 X113.247 Y101.291 E.0332
G1 X113.185 Y100.413 E.0276
G1 X113.28 Y99.52 E.02816
G1 X113.587 Y98.52 E.0328
G1 X114.072 Y97.647 E.03131
M204 S1000
G1 X114.072 Y97.647 F10800
G1 X114.397 Y97.835
M204 S800
G1 F1200
G1 X114.417 Y97.801 E.00124
G1 X115.048 Y97.075 E.03016
G1 X115.83 Y96.485 E.03071
G1 X116.718 Y96.069 E.03075
G1 X117.349 Y95.899 E.02049
G1 X118.171 Y95.813 E.02591
G1 X131.318 Y95.813 E.41221
G1 X132.154 Y95.892 E.02633
M73 Q0 S50
G1 X133.095 Y96.152 E.03061
G1 X133.971 Y96.583 E.03061
G1 X134.621 Y97.058 E.02524
G1 X135.29 Y97.746 E.03009
G1 X135.828 Y98.561 E.03062
G1 X136.204 Y99.462 E.03061
G1 X136.387 Y100.282 E.02634
G1 X136.421 Y102.271 E.06237
G1 X135.818 Y106.713 E.14055
G1 X134.318 Y111.063 E.14427
G1 X133.542 Y112.116 E.04101
G1 X132.249 Y112.539 E.04266
G1 X131.749 Y112.539 E.01568
G1 X129.372 Y112.156 E.07549
G1 X128.658 Y111.897 E.02381
G1 X115.701 Y104.435 E.46881
G1 X115.164 Y104.029 E.02111
G1 X114.603 Y103.446 E.02537
G1 X114.152 Y102.777 E.0253
G1 X113.815 Y102.021 E.02595
G1 X113.62 Y101.239 E.02527
G1 X113.568 Y100.26 E.03074
G1 X113.72 Y99.292 E.03072
G1 X114.003 Y98.514 E.02596
G1 X114.367 Y97.887 E.02273
M204 S1000
;WIPE_START
G1 F8640
G1 X114.397 Y97.835 E-.01386
G1 X114.417 Y97.801 E-.00911
G1 X115.048 Y97.075 E-.2221
G1 X115.83 Y96.485 E-.22619
G1 X116.718 Y96.069 E-.22643
G1 X117.349 Y95.899 E-.15089
G1 X118.001 Y95.831 E-.15142
;WIPE_END
G1 Z.4 F720
; printing object Bremse14mm.stl id:0 copy 0
G1 X119.13 Y99.287 F10800
G1 Z.2 F720
G1 E1 F2100
M204 S800
;TYPE:External perimeter
;WIDTH:0.464532
G1 F1200
G1 X119.245 Y99.365 E.00487
;WIDTH:0.419999
G1 X119.482 Y99.629 E.01112
G1 X119.636 Y99.904 E.00988
G1 X119.73 Y100.205 E.00989
G1 X119.759 Y100.52 E.00992
G1 X119.718 Y100.842 E.01018
G1 X119.547 Y101.272 E.01451
G1 X119.358 Y101.525 E.0099
G1 X119.12 Y101.733 E.00991
;WIDTH:0.468031
G1 X118.859 Y101.875 E.0105
;WIDTH:0.516063
G1 X118.597 Y102.018 E.01174
;WIDTH:0.519775
G1 X118.224 Y102.059 E.01488
G1 X117.901 Y102.019 E.0129
;WIDTH:0.518526
G1 X117.593 Y101.914 E.01287
G1 X117.305 Y101.737 E.01337
;WIDTH:0.520101
G1 X117.002 Y101.436 E.01695
;WIDTH:0.523903
G1 X116.773 Y100.989 E.02009
G1 X116.691 Y100.5 E.01983
;WIDTH:0.523679
G1 X116.773 Y100.01 E.01986
G1 X116.834 Y99.848 E.00692
;WIDTH:0.522867
G1 X117.11 Y99.441 E.01962
;WIDTH:0.520157
G1 X117.353 Y99.224 E.01293
G1 X117.639 Y99.068 E.01293
;WIDTH:0.515883
G1 X117.949 Y98.972 E.01276
;WIDTH:0.521501
G1 X118.269 Y98.942 E.01279
;WIDTH:0.553598
G1 X118.696 Y98.99 E.01825
G1 X118.879 Y99.115 E.00941
;WIDTH:0.509065
G1 X119.062 Y99.24 E.00859
;WIDTH:0.464532
G1 X119.081 Y99.253 E.00081
M204 S1000
;WIPE_START
G1 F8640
G1 X119.13 Y99.287 E-.01377
G1 X119.245 Y99.365 E-.03209
G1 X119.482 Y99.629 E-.08192
G1 X119.636 Y99.904 E-.07278
G1 X119.73 Y100.205 E-.07281
G1 X119.759 Y100.52 E-.07304
G1 X119.718 Y100.842 E-.07495
G1 X119.547 Y101.272 E-.10685
G1 X119.358 Y101.525 E-.07292
G1 X119.12 Y101.733 E-.07298
G1 X118.859 Y101.875 E-.06861
G1 X118.597 Y102.018 E-.06892
G1 X118.224 Y102.059 E-.08665
G1 X117.901 Y102.019 E-.07515
G1 X117.792 Y101.982 E-.02656
;WIPE_END
G1 Z.4 F720
G1 X131.507 Y108.664 F10800
G1 Z.2 F720
G1 E1 F2100
M204 S800
;TYPE:Perimeter
;WIDTH:0.419999
G1 F1200
G1 X131.442 Y108.836 E.00577
G1 X130.231 Y108.836 E.03797
G1 X123.508 Y102.112 E.29813
G1 X123.216 Y101.914 E.01106
G1 X122.842 Y101.836 E.01198
G1 X120.071 Y101.833 E.08688
G1 X120.157 Y101.715 E.00458
G1 X120.422 Y101.112 E.02065
G1 X120.509 Y100.599 E.01631
G1 X120.48 Y100.127 E.01483
G1 X120.353 Y99.671 E.01484
G1 X120.076 Y99.17 E.01795
G1 X131.349 Y99.17 E.35346
G1 X131.839 Y99.274 E.01571
G1 X132.313 Y99.511 E.01662
G1 X132.658 Y99.835 E.01484
G1 X132.84 Y100.122 E.01066
G1 X133.044 Y100.653 E.01784
G1 X133.08 Y100.893 E.00761
G1 X133.08 Y100.962 E.00216
G1 X133.034 Y100.975 E.0015
G1 X132.786 Y101.196 E.01042
G1 X132.667 Y101.394 E.00724
G1 X132.585 Y101.779 E.01234
G1 X132.585 Y105.789 E.12573
G1 X131.528 Y108.608 E.0944
M204 S1000
G1 X131.528 Y108.608 F10800
G1 X131.719 Y109.173
M204 S800
G1 F1200
G1 X131.704 Y109.213 E.00134
G1 X130.075 Y109.213 E.05108
G1 X123.241 Y102.379 E.30303
G1 X123.066 Y102.26 E.00664
G1 X122.842 Y102.213 E.00718
G1 X119.073 Y102.208 E.11817
G1 X119.309 Y102.059 E.00875
G1 X119.61 Y101.805 E.01235
G1 X119.852 Y101.493 E.01238
G1 X120.07 Y100.977 E.01756
G1 X120.134 Y100.559 E.01326
G1 X120.105 Y100.166 E.01236
G1 X119.995 Y99.788 E.01234
G1 X119.808 Y99.44 E.01239
G1 X119.466 Y99.06 E.01603
G1 X119.038 Y98.793 E.01582
G1 X130.601 Y98.793 E.36255
G1 X131.531 Y98.817 E.02917
G1 X132.028 Y98.942 E.01607
G1 X132.541 Y99.207 E.0181
G1 X132.951 Y99.592 E.01763
G1 X133.247 Y100.06 E.01736
G1 X133.402 Y100.536 E.0157
G1 X133.457 Y100.891 E.01126
G1 X133.459 Y101.232 E.01069
G1 X133.232 Y101.297 E.0074
G1 X133.031 Y101.508 E.00914
G1 X132.962 Y101.779 E.00877
G1 X132.962 Y105.857 E.12786
G1 X131.74 Y109.117 E.10916
M204 S1000
G1 X131.74 Y109.117 F10800
G1 X131.793 Y109.59
M204 S800
;TYPE:External perimeter
G1 F1200
G1 X129.919 Y109.59 E.05876
G1 X122.974 Y102.645 E.30795
G1 X122.841 Y102.59 E.00451
G1 X119.072 Y102.585 E.11817
;WIDTH:0.458161
G1 X118.907 Y102.566 E.00573
;WIDTH:0.496323
G1 X118.741 Y102.547 E.0063
;WIDTH:0.534485
G1 X117.891 Y102.504 E.03479
;WIDTH:0.520156
G1 X117.42 Y102.362 E.01952
;WIDTH:0.51983
G1 X116.979 Y102.081 E.02074
;WIDTH:0.520101
G1 X116.623 Y101.722 E.02006
G1 X116.368 Y101.274 E.02045
;WIDTH:0.523439
G1 X116.229 Y100.738 E.02212
G1 X116.229 Y100.262 E.01902
G1 X116.374 Y99.71 E.0228
;WIDTH:0.524689
G1 X116.627 Y99.275 E.02016
G1 X116.991 Y98.908 E.02071
;WIDTH:0.523511
G1 X117.271 Y98.715 E.01359
G1 X117.713 Y98.538 E.01903
;WIDTH:0.522896
G1 X118.233 Y98.465 E.02096
;WIDTH:0.553598
G1 X118.734 Y98.483 E.02129
G1 X118.872 Y98.46 E.00594
;WIDTH:0.509065
G1 X119.011 Y98.438 E.00545
;WIDTH:0.464532
G1 X119.15 Y98.416 E.00493
;WIDTH:0.419999
G1 X131.225 Y98.416 E.3786
G1 X131.893 Y98.492 E.02108
G1 X132.352 Y98.657 E.01529
G1 X132.769 Y98.904 E.0152
G1 X133.244 Y99.35 E.02043
G1 X133.591 Y99.898 E.02034
G1 X133.761 Y100.42 E.01721
G1 X133.834 Y100.889 E.01488
G1 X133.838 Y101.59 E.02198
G1 X133.528 Y101.59 E.00972
G1 X133.408 Y101.633 E.004
G1 X133.339 Y101.779 E.00506
G1 X133.339 Y105.926 E.13003
G1 X131.965 Y109.59 E.12269
G1 X131.853 Y109.59 E.00351
M204 S1000
;WIPE_START
G1 F8640
G1 X131.793 Y109.59 E-.01385
G1 X129.919 Y109.59 E-.43271
G1 X128.224 Y107.895 E-.55344
;WIPE_END
G1 Z.4 F720
G1 X131.772 Y99.431 F10800
G1 Z.2 F720
G1 E1 F2100
M204 S800
;TYPE:Solid infill
;WIDTH:0.42203
G1 F1200
G1 X132.395 Y100.054 E.02777
G1 X132.594 Y100.367 E.01169
G1 X132.722 Y100.76 E.01303
G1 X132.724 Y100.78 E.00063
G1 X132.655 Y100.85 E.0031
G1 X131.314 Y99.509 E.05978
G1 X130.778 Y99.509 E.0169
G1 X132.416 Y101.147 E.07302
G1 X132.355 Y101.258 E.00399
G1 X132.268 Y101.536 E.00918
G1 X130.242 Y99.509 E.09034
G1 X129.706 Y99.509 E.0169
G1 X132.246 Y102.049 E.11323
G1 X132.246 Y102.585 E.0169
G1 X129.17 Y99.509 E.13713
G1 X128.633 Y99.509 E.01693
G1 X132.246 Y103.122 E.16107
G1 X132.246 Y103.658 E.0169
G1 X128.097 Y99.509 E.18496
G1 X127.561 Y99.509 E.0169
G1 X132.246 Y104.194 E.20886
G1 X132.246 Y104.73 E.0169
G1 X127.025 Y99.509 E.23275
G1 X126.489 Y99.509 E.0169
G1 X132.246 Y105.266 E.25665
G1 X132.246 Y105.727 E.01453
G1 X132.225 Y105.782 E.00186
G1 X125.953 Y99.509 E.27963
G1 X125.417 Y99.509 E.0169
G1 X132.079 Y106.172 E.29702
G1 X131.933 Y106.562 E.01313
G1 X124.88 Y99.509 E.31443
G1 X124.344 Y99.509 E.0169
G1 X131.787 Y106.952 E.33181
G1 X131.64 Y107.341 E.01311
G1 X123.808 Y99.509 E.34915
G1 X123.272 Y99.509 E.0169
G1 X131.494 Y107.731 E.36654
G1 X131.348 Y108.121 E.01313
G1 X122.736 Y99.509 E.38393
G1 X122.2 Y99.509 E.0169
G1 X131.187 Y108.496 E.40064
G1 X130.651 Y108.496 E.0169
G1 X121.664 Y99.509 E.40064
G1 X121.127 Y99.509 E.01693
M73 Q1 S50
G1 X123.182 Y101.564 E.09161
M73 P1 R50
G1 X122.858 Y101.497 E.01043
G1 X122.578 Y101.496 E.00883
G1 X120.69 Y99.607 E.08419
G1 X120.764 Y99.837 E.00762
G1 X120.817 Y100.084 E.00796
G1 X120.835 Y100.289 E.00649
G1 X122.041 Y101.496 E.05379
G1 X121.505 Y101.495 E.0169
G1 X120.826 Y100.816 E.03027
G1 X120.817 Y100.917 E.0032
G1 X120.73 Y101.256 E.01103
G1 X121.138 Y101.664 E.01819
M204 S1000
;LAYER_CHANGE
;Z:0.3
;HEIGHT:0.1
;BEFORE_LAYER_CHANGE
G92 E0.0
;0.3


;WIPE_START
G1 F8640
G1 X120.73 Y101.256 E-.13323
G1 X120.817 Y100.917 E-.08081
G1 X120.826 Y100.816 E-.02341
G1 X121.505 Y101.495 E-.22172
G1 X122.041 Y101.496 E-.12376
G1 X120.835 Y100.289 E-.39398
G1 X120.826 Y100.19 E-.02309
;WIPE_END
G1 Z.3 F720
;AFTER_LAYER_CHANGE
;0.3
; stop printing object Bremse14mm.stl id:0 copy 0
G1 Z.5
G1 X118.397 Y106.422 F10800
G1 Z.3 F720
G1 E1 F2100
;TYPE:Skirt/Brim
;WIDTH:0.42
G1 F2250
G1 X115.49 Y104.747 E.05559
G1 X114.912 Y104.31 E.01201
G1 X114.314 Y103.688 E.0143
G1 X113.908 Y103.11 E.0117
G1 X113.52 Y102.314 E.01467
G1 X113.247 Y101.291 E.01754
G1 X113.185 Y100.413 E.01458
G1 X113.28 Y99.52 E.01488
G1 X113.587 Y98.52 E.01733
G1 X114.101 Y97.594 E.01755
G1 X114.796 Y96.795 E.01755
G1 X115.641 Y96.158 E.01753
G1 X116.433 Y95.772 E.0146
G1 X117.284 Y95.528 E.01467
G1 X118.158 Y95.436 E.01456
G1 X131.33 Y95.436 E.21825
G1 X132.213 Y95.519 E.0147
G1 X133.223 Y95.797 E.01736
G1 X134.163 Y96.259 E.01735
G1 X134.87 Y96.775 E.0145
G1 X135.588 Y97.515 E.01708
G1 X136.164 Y98.39 E.01736
G1 X136.516 Y99.204 E.01469
G1 X136.76 Y100.223 E.01736
G1 X136.795 Y102.318 E.03472
G1 X136.175 Y106.836 E.07556
G1 X134.675 Y111.186 E.07624
G1 X133.859 Y112.347 E.02351
G1 X132.249 Y112.916 E.02829
G1 X131.749 Y112.916 E.00828
G1 X129.307 Y112.527 E.04097
G1 X128.47 Y112.224 E.01475
G1 X118.449 Y106.452 E.19162
G1 X118.449 Y106.452 F10800
G1 X118.637 Y106.126
G1 F2250
G1 X115.701 Y104.435 E.05614
G1 X115.164 Y104.029 E.01115
G1 X114.603 Y103.446 E.01341
G1 X114.152 Y102.777 E.01337
G1 X113.815 Y102.021 E.01371
G1 X113.62 Y101.239 E.01335
G1 X113.568 Y100.26 E.01624
G1 X113.72 Y99.292 E.01624
G1 X114.003 Y98.514 E.01372
G1 X114.417 Y97.801 E.01366
G1 X115.048 Y97.075 E.01594
G1 X115.83 Y96.485 E.01623
G1 X116.718 Y96.069 E.01625
G1 X117.349 Y95.899 E.01083
G1 X118.171 Y95.813 E.01369
G1 X131.318 Y95.813 E.21784
G1 X132.154 Y95.892 E.01391
G1 X133.095 Y96.152 E.01618
G1 X133.971 Y96.583 E.01618
G1 X134.621 Y97.058 E.01334
G1 X135.29 Y97.746 E.0159
G1 X135.828 Y98.561 E.01618
G1 X136.204 Y99.462 E.01618
G1 X136.387 Y100.282 E.01392
G1 X136.421 Y102.271 E.03296
G1 X135.818 Y106.713 E.07428
G1 X134.318 Y111.063 E.07624
G1 X133.542 Y112.116 E.02167
G1 X132.249 Y112.539 E.02254
G1 X131.749 Y112.539 E.00828
G1 X129.372 Y112.156 E.03989
G1 X128.658 Y111.897 E.01258
G1 X118.689 Y106.156 E.19061
;WIPE_START
G1 F8640
G1 X118.637 Y106.126 E-.01386
G1 X115.701 Y104.435 E-.78233
G1 X115.164 Y104.029 E-.15544
G1 X115.019 Y103.878 E-.04837
;WIPE_END
G1 Z.5 F720
; printing object Bremse14mm.stl id:0 copy 0
G1 X119.011 Y99.452 F10800
G1 Z.3 F720
G1 E1 F2100
M204 S600
;TYPE:External perimeter
;WIDTH:0.449999
G1 F1500
G1 X119.166 Y99.549 E.00326
G1 X119.474 Y100.004 E.00979
G1 X119.574 Y100.5 E.00901
G1 X119.474 Y100.996 E.00901
G1 X119.166 Y101.451 E.00979
G1 X118.711 Y101.737 E.00957
G1 X118.219 Y101.823 E.0089
G1 X117.71 Y101.711 E.00929
G1 X117.294 Y101.416 E.00909
G1 X117.025 Y100.996 E.00889
G1 X116.925 Y100.477 E.00942
G1 X117.032 Y99.979 E.00908
G1 X117.296 Y99.585 E.00845
G1 X117.71 Y99.289 E.00907
G1 X118.215 Y99.177 E.00922
G1 X118.7 Y99.258 E.00876
G1 X118.96 Y99.42 E.00546
M204 S1000
;WIPE_START
G1 F8640
G1 X119.011 Y99.452 E-.0139
G1 X119.166 Y99.549 E-.04222
G1 X119.474 Y100.004 E-.12687
G1 X119.574 Y100.5 E-.11683
G1 X119.474 Y100.996 E-.11683
G1 X119.166 Y101.451 E-.12687
G1 X118.711 Y101.737 E-.12409
G1 X118.219 Y101.823 E-.11533
G1 X117.71 Y101.711 E-.12034
G1 X117.369 Y101.469 E-.09672
;WIPE_END
G1 Z.5 F720
G1 X131.529 Y108.838 F10800
G1 Z.3 F720
G1 E1 F2100
M204 S600
;TYPE:Perimeter
G1 F1500
G1 X131.499 Y108.918 E.00152
G1 X130.197 Y108.918 E.0232
G1 X123.511 Y102.232 E.16846
G1 X123.303 Y102.07 E.0047
G1 X123.044 Y101.958 E.00503
G1 X122.754 Y101.918 E.00522
G1 X119.886 Y101.918 E.0511
G1 X120.131 Y101.582 E.00741
G1 X120.312 Y101.175 E.00794
G1 X120.431 Y100.5 E.01221
G1 X120.312 Y99.825 E.01221
G1 X120.131 Y99.418 E.00794
G1 X119.886 Y99.082 E.00741
G1 X131.202 Y99.082 E.20161
G1 X131.758 Y99.164 E.01001
G1 X132.143 Y99.318 E.00739
G1 X132.559 Y99.605 E.009
G1 X132.862 Y99.986 E.00867
G1 X133.075 Y100.448 E.00906
G1 X133.162 Y100.924 E.00862
G1 X133.163 Y101.128 E.00363
G1 X133.048 Y101.17 E.00218
G1 X132.921 Y101.297 E.0032
G1 X132.754 Y101.566 E.00564
G1 X132.667 Y101.989 E.00769
G1 X132.667 Y105.804 E.06797
G1 X131.55 Y108.782 E.05667
M204 S1000
G1 X131.55 Y108.782 F10800
G1 X131.789 Y109.367
M204 S600
G1 F1417.869
G1 X131.76 Y109.346 E.00064
G1 F1628.674
G1 X130.02 Y109.346 E.031
G1 F2250
G1 X123.208 Y102.535 E.17163
G1 X123.084 Y102.438 E.0028
G1 X122.754 Y102.346 E.0061
G1 X119.442 Y102.346 E.05901
;WIDTH:0.490595
G1 F2073.917
G1 X119.264 Y102.326 E.00349
;WIDTH:0.531191
G1 F2008.316
G1 X119.085 Y102.306 E.00382
;WIDTH:0.571786
G1 F1954.826
G1 X118.907 Y102.286 E.0041
;WIDTH:0.612382
G1 F1915.334
G1 X118.729 Y102.265 E.0044
G1 F1916.481
G1 X118.799 Y102.22 E.00204
;WIDTH:0.576213
G1 F1948.069
G1 X118.87 Y102.176 E.00193
;WIDTH:0.540044
G1 F1983.893
G1 X118.941 Y102.131 E.00181
;WIDTH:0.503874
G1 F2065.64
G1 X119.227 Y101.917 E.00716
;WIDTH:0.476937
G1 F2188.591
G1 X119.513 Y101.703 E.00676
;WIDTH:0.449999
G1 F2250
G1 X119.784 Y101.33 E.00821
G1 X119.893 Y101.085 E.00478
