; generated by PrusaSlicer 2.8.1+win64 on 2024-12-10 at 16:15:36 UTC


;
;
; 

; external perimeters extrusion width = 0.45mm
; perimeters extrusion width = 0.45mm
; infill extrusion width = 0.45mm
; solid infill extrusion width = 0.45mm
; top infill extrusion width = 0.40mm
; first layer extrusion width = 0.42mm

M73 P0 R47
M73 Q0 S47
M201 X1000 Y1000 Z200 E5000 ; sets maximum accelerations, mm/sec^2
M203 X200 Y200 Z12 E120 ; sets maximum feedrates, mm / sec
M204 S1250 T1250 ; sets acceleration (S) and retract acceleration (R), mm/sec^2
M205 X8.00 Y8.00 Z0.40 E4.50 ; sets the jerk limits, mm/sec
M205 S0 T0 ; sets the minimum extruding and travel feed rate, mm/sec

; printing object Bremse13mm.stl id:0 copy 0
; stop printing object Bremse13mm.stl id:0 copy 0

;TYPE:Custom
M862.3 P "MK3S" ; printer model check
M862.1 P0.4 ; nozzle diameter check
M115 U3.14.0 ; tell printer latest fw version
G90 ; use absolute coordinates
M83 ; extruder relative mode
M104 S235 ; set extruder temp
M140 S80 ; set bed temp
M190 S80 ; wait for bed temp
M109 S235 ; wait for extruder temp
G28 W ; home all without mesh bed level
G80 X113.621 Y94.8688 W22.7607 H18.6125 ; mesh bed levelling

G1 Z0.2 F720
G1 Y-3 F1000 ; go outside print area
G92 E0
G1 X60 E9 F1000 ; intro line
G1 X100 E12.5 F1000 ; intro line

G92 E0
M221 S95

; Don't change E values below. Excessive value can damage the printer.
M907 E430 ; set extruder motor current
G21 ; set units to millimeters
G90 ; use absolute coordinates
M83 ; use relative distances for extrusion

M900 K0.08 ; Filament gcode LA 1.5
M900 K45 ; Filament gcode LA 1.0




M107
;LAYER_CHANGE
;Z:0.2
;HEIGHT:0.2
G1 E-1 F2100
G1 Z.4 F720
G1 X115.205 Y96.86 F10800
G1 Z.2 F720
G1 E1 F2100
M204 S800
;TYPE:Skirt/Brim
;WIDTH:0.42
G1 F1200
G1 X115.894 Y96.216 E.02957
G1 X116.658 Y95.715 E.02865
G1 X117.523 Y95.34 E.02956
G1 X118.241 Y95.152 E.02327
G1 X119.144 Y95.059 E.02846
G1 X130.339 Y95.059 E.35101
G1 X131.408 Y95.172 E.0337
G1 X132.442 Y95.477 E.0338
G1 X133.403 Y95.963 E.03377
G1 X134.382 Y96.73 E.03899
G1 X135.149 Y97.637 E.03724
G1 X135.684 Y98.596 E.03443
G1 X136.034 Y99.638 E.03446
G1 X136.186 Y100.729 E.03454
G1 X136.17 Y102.365 E.0513
G1 X135.67 Y106.365 E.12639
G1 X135.532 Y106.959 E.01912
G1 X134.032 Y111.309 E.14427
G1 X133.181 Y112.57 E.0477
G1 X131.25 Y113.293 E.06465
G1 X130.75 Y113.293 E.01568
G1 X129.778 Y113.127 E.03092
G1 X128.192 Y112.496 E.05352
G1 X116.03 Y104.887 E.44981
G1 X115.193 Y104.127 E.03545
G1 X114.465 Y103.092 E.03968
G1 X114.038 Y102.065 E.03487
G1 X113.815 Y100.771 E.04117
G1 X113.83 Y100.011 E.02383
G1 X113.984 Y99.129 E.02807
G1 X114.3 Y98.24 E.02958
G1 X114.747 Y97.444 E.02862
G1 X115.168 Y96.907 E.02139
M204 S1000
G1 X115.168 Y96.907 F10800
G1 X115.464 Y97.139
M204 S800
G1 F1200
G1 X115.489 Y97.107 E.00127
G1 X116.122 Y96.516 E.02715
G1 X116.842 Y96.044 E.02699
G1 X117.637 Y95.699 E.02717
G1 X118.305 Y95.524 E.02165
G1 X119.157 Y95.436 E.02686
G1 X130.328 Y95.436 E.35026
G1 X131.492 Y95.576 E.03676
G1 X132.477 Y95.9 E.03251
G1 X133.395 Y96.408 E.0329
G1 X134.175 Y97.054 E.03175
G1 X134.833 Y97.843 E.03221
G1 X135.338 Y98.746 E.03244
G1 X135.666 Y99.72 E.03222
G1 X135.809 Y100.74 E.03229
G1 X135.796 Y102.318 E.04948
G1 X135.296 Y106.318 E.12639
G1 X133.675 Y111.186 E.16087
G1 X132.86 Y112.347 E.04448
G1 X131.25 Y112.916 E.05354
G1 X130.75 Y112.916 E.01568
G1 X129.902 Y112.772 E.02697
G1 X128.392 Y112.177 E.05089
G1 X116.258 Y104.587 E.44875
G1 X115.477 Y103.879 E.03305
G1 X114.794 Y102.908 E.03722
G1 X114.397 Y101.951 E.03249
G1 X114.192 Y100.758 E.03795
G1 X114.205 Y100.049 E.02223
G1 X114.35 Y99.218 E.02645
G1 X114.64 Y98.402 E.02715
G1 X115.062 Y97.651 E.02701
G1 X115.427 Y97.187 E.01851
M204 S1000
G1 X115.427 Y97.187 F10800
G1 X115.719 Y97.432
M204 S800
G1 F1200
G1 X115.875 Y97.246 E.00761
G1 X116.486 Y96.714 E.0254
G1 X117.16 Y96.304 E.02474
G1 X117.913 Y96.007 E.02538
G1 X119.245 Y95.812 E.04221
G1 X130.316 Y95.812 E.34712
G1 X131.25 Y95.909 E.02944
G1 X132.152 Y96.173 E.02947
G1 X132.991 Y96.595 E.02945
G1 X133.865 Y97.279 E.0348
G1 X134.522 Y98.056 E.0319
G1 X134.992 Y98.895 E.03015
G1 X135.297 Y99.799 E.02991
G1 X135.432 Y100.752 E.03018
G1 X135.422 Y102.271 E.04763
G1 X134.922 Y106.271 E.12639
G1 X133.319 Y111.063 E.15843
G1 X132.543 Y112.116 E.04101
G1 X131.25 Y112.539 E.04266
G1 X130.027 Y112.416 E.03854
G1 X128.591 Y111.857 E.04832
G1 X116.486 Y104.286 E.44767
G1 X115.773 Y103.645 E.03006
G1 X115.123 Y102.723 E.03537
G1 X114.757 Y101.837 E.03006
G1 X114.569 Y100.745 E.03474
G1 X114.596 Y99.936 E.02538
G1 X114.757 Y99.163 E.02476
G1 X115.054 Y98.41 E.02538
G1 X115.464 Y97.736 E.02474
G1 X115.681 Y97.478 E.01057
M204 S1000
;WIPE_START
G1 F8640
G1 X115.719 Y97.432 E-.01378
G1 X115.875 Y97.246 E-.05605
G1 X116.486 Y96.714 E-.18707
G1 X117.16 Y96.304 E-.18216
G1 X117.913 Y96.007 E-.18691
G1 X119.245 Y95.812 E-.31084
G1 X119.519 Y95.812 E-.06319
;WIPE_END
G1 Z.4 F720
; printing object Bremse13mm.stl id:0 copy 0
G1 X117.825 Y101.127 F10800
G1 Z.2 F720
G1 E1 F2100
M204 S800
;TYPE:External perimeter
;WIDTH:0.51936
G1 F1200
G1 X117.816 Y101.11 E.00076
G1 X117.721 Y100.804 E.01269
G1 X117.691 Y100.484 E.01273
;WIDTH:0.521384
G1 X117.731 Y100.153 E.01326
G1 X117.889 Y99.741 E.01756
;WIDTH:0.520721
G1 X118.101 Y99.446 E.01443
G1 X118.341 Y99.233 E.01275
;WIDTH:0.522517
G1 X118.727 Y99.036 E.01728
G1 X119.226 Y98.941 E.02026
;WIDTH:0.519659
G1 X119.553 Y98.986 E.01308
;WIDTH:0.493879
G1 X119.768 Y99.083 E.00884
;WIDTH:0.456939
G1 X119.984 Y99.181 E.00817
;WIDTH:0.419999
G1 X120.237 Y99.358 E.00968
G1 X120.44 Y99.572 E.00925
G1 X120.605 Y99.835 E.00973
G1 X120.712 Y100.126 E.00972
G1 X120.758 Y100.433 E.00973
G1 X120.74 Y100.743 E.00974
G1 X120.658 Y101.042 E.00972
G1 X120.518 Y101.319 E.00973
G1 X120.323 Y101.561 E.00974
G1 X120.084 Y101.758 E.00971
;WIDTH:0.469893
G1 X119.823 Y101.893 E.01043
;WIDTH:0.519787
G1 X119.563 Y102.027 E.0116
G1 X119.049 Y102.045 E.02039
;WIDTH:0.52362
G1 X118.63 Y101.927 E.0174
G1 X118.203 Y101.654 E.02026
;WIDTH:0.51888
G1 X117.962 Y101.377 E.01453
;WIDTH:0.51936
G1 X117.853 Y101.179 E.00895
M204 S1000
;WIPE_START
G1 F8640
G1 X117.825 Y101.127 E-.01364
G1 X117.816 Y101.11 E-.00444
G1 X117.721 Y100.804 E-.07398
G1 X117.691 Y100.484 E-.07421
G1 X117.731 Y100.153 E-.07698
G1 X117.889 Y99.741 E-.10189
G1 X118.101 Y99.446 E-.08388
G1 X118.341 Y99.233 E-.07409
G1 X118.727 Y99.036 E-.10007
G1 X119.226 Y98.941 E-.11729
G1 X119.553 Y98.986 E-.07622
G1 X119.768 Y99.083 E-.05446
G1 X119.984 Y99.181 E-.05477
G1 X120.237 Y99.358 E-.0713
G1 X120.305 Y99.43 E-.02278
;WIPE_END
G1 Z.4 F720
G1 X131.865 Y101.127 F10800
G1 Z.2 F720
G1 E1 F2100
M204 S800
;TYPE:Perimeter
;WIDTH:0.419999
G1 F1200
G1 X131.701 Y101.328 E.00813
G1 X131.586 Y101.779 E.01459
G1 X131.586 Y105.789 E.12573
G1 X130.443 Y108.836 E.10204
G1 X130.232 Y108.836 E.00662
G1 X123.508 Y102.112 E.29815
G1 X123.217 Y101.914 E.01104
G1 X122.843 Y101.836 E.01198
G1 X121.071 Y101.836 E.05556
G1 X121.335 Y101.376 E.01663
G1 X121.47 Y100.931 E.01458
G1 X121.511 Y100.468 E.01457
G1 X121.457 Y100.006 E.01458
G1 X121.309 Y99.565 E.01459
G1 X121.077 Y99.169 E.01439
G1 X130.17 Y99.164 E.2851
G1 X130.622 Y99.214 E.01426
M73 P0 R46
G1 X131.041 Y99.365 E.01396
G1 X131.332 Y99.541 E.01066
G1 X131.669 Y99.853 E.0144
G1 X131.967 Y100.364 E.01855
G1 X132.081 Y100.897 E.01709
G1 X132.081 Y100.961 E.00201
G1 X131.924 Y101.055 E.00574
G1 X131.903 Y101.08 E.00102
M204 S1000
G1 X131.903 Y101.08 F10800
G1 X132.139 Y101.387
M204 S800
G1 F1200
G1 X132.058 Y101.465 E.00353
G1 X131.963 Y101.779 E.01029
G1 X131.963 Y105.857 E.12786
G1 X130.705 Y109.213 E.11237
G1 X130.076 Y109.213 E.01972
G1 X123.242 Y102.379 E.30303
G1 X123.067 Y102.26 E.00664
G1 X122.842 Y102.213 E.00721
G1 X120.035 Y102.213 E.08801
G1 X120.263 Y102.09 E.00812
G1 X120.566 Y101.849 E.01214
G1 X120.815 Y101.551 E.01218
G1 X120.997 Y101.209 E.01215
G1 X121.105 Y100.837 E.01215
G1 X121.134 Y100.45 E.01217
G1 X121.084 Y100.066 E.01214
G1 X120.957 Y99.7 E.01215
G1 X120.757 Y99.368 E.01215
G1 X120.421 Y99.023 E.0151
G1 X120.033 Y98.792 E.01416
G1 X130.361 Y98.795 E.32383
G1 X130.899 Y98.888 E.01712
G1 X131.394 Y99.111 E.01702
G1 X131.818 Y99.443 E.01688
G1 X132.14 Y99.884 E.01712
G1 X132.351 Y100.341 E.01578
G1 X132.458 Y100.895 E.01769
G1 X132.46 Y101.232 E.01057
G1 X132.234 Y101.295 E.00736
G1 X132.182 Y101.345 E.00226
M204 S1000
G1 X132.182 Y101.345 F10800
G1 X132.388 Y101.676
M204 S800
;TYPE:External perimeter
G1 F1200
G1 X132.34 Y101.779 E.00356
G1 X132.34 Y105.926 E.13003
G1 X130.966 Y109.59 E.12269
G1 X129.92 Y109.59 E.0328
G1 X122.975 Y102.645 E.30795
G1 X122.842 Y102.59 E.00451
G1 X120.022 Y102.59 E.08842
;WIDTH:0.457655
G1 X119.851 Y102.571 E.00593
;WIDTH:0.49531
G1 X119.679 Y102.552 E.00651
;WIDTH:0.532965
G1 X118.812 Y102.487 E.03543
;WIDTH:0.523064
G1 X118.248 Y102.272 E.0241
;WIDTH:0.520372
G1 X117.915 Y102.033 E.01627
;WIDTH:0.51896
G1 X117.63 Y101.728 E.01652
G1 X117.421 Y101.387 E.01583
;WIDTH:0.518423
G1 X117.279 Y100.997 E.01641
G1 X117.219 Y100.58 E.01666
;WIDTH:0.520478
G1 X117.265 Y100.044 E.02136
G1 X117.444 Y99.573 E.02001
;WIDTH:0.520795
G1 X117.746 Y99.128 E.02137
G1 X118.11 Y98.817 E.01902
;WIDTH:0.522517
G1 X118.6 Y98.575 E.02179
G1 X119.095 Y98.471 E.02017
;WIDTH:0.529427
G1 X119.697 Y98.452 E.02436
;WIDTH:0.492951
G1 X119.881 Y98.433 E.00692
;WIDTH:0.456475
G1 X120.065 Y98.415 E.00636
;WIDTH:0.419999
G1 X130.169 Y98.41 E.3168
G1 X130.383 Y98.419 E.00672
G1 X131.018 Y98.528 E.0202
G1 X131.59 Y98.786 E.01967
G1 X132.082 Y99.171 E.01959
G1 X132.379 Y99.527 E.01454
G1 X132.597 Y99.942 E.0147
G1 X132.774 Y100.453 E.01696
G1 X132.835 Y100.893 E.01393
G1 X132.839 Y101.59 E.02185
G1 X132.529 Y101.59 E.00972
G1 X132.42 Y101.629 E.00363
M204 S1000
;WIPE_START
G1 F8640
G1 X132.388 Y101.676 E-.01313
G1 X132.34 Y101.779 E-.02624
G1 X132.34 Y105.926 E-.95755
G1 X132.335 Y105.938 E-.00308
;WIPE_END
G1 Z.4 F720
G1 X130.791 Y99.439 F10800
G1 Z.2 F720
G1 E1 F2100
M204 S800
;TYPE:Solid infill
;WIDTH:0.427174
G1 F1200
G1 X131.335 Y99.982 E.02456
G1 X131.465 Y100.138 E.00649
M73 Q0 S46
G1 X131.649 Y100.49 E.01269
G1 X131.722 Y100.75 E.00863
G1 X131.727 Y100.79 E.00129
G1 X131.658 Y100.849 E.0029
G1 X130.319 Y99.51 E.0605
G1 X129.772 Y99.506 E.01748
G1 X131.414 Y101.148 E.07419
G1 X131.343 Y101.289 E.00504
G1 X131.287 Y101.565 E.009
G1 X129.229 Y99.506 E.09301
G1 X128.685 Y99.506 E.01738
G1 X131.246 Y102.068 E.11574
G1 X131.246 Y102.611 E.01735
G1 X128.142 Y99.507 E.14026
G1 X127.599 Y99.507 E.01735
G1 X131.246 Y103.154 E.16479
G1 X131.246 Y103.698 E.01738
G1 X127.055 Y99.507 E.18937
G1 X126.512 Y99.507 E.01735
G1 X131.246 Y104.241 E.21391
G1 X131.246 Y104.785 E.01738
G1 X125.969 Y99.507 E.23847
G1 X125.425 Y99.507 E.01738
G1 X131.246 Y105.328 E.26302
G1 X131.246 Y105.727 E.01275
G1 X131.207 Y105.832 E.00358
G1 X124.882 Y99.507 E.2858
G1 X124.339 Y99.507 E.01735
M73 Q1 S46
G1 X131.059 Y106.227 E.30365
G1 X130.91 Y106.622 E.01349
M73 P1 R46
G1 X123.796 Y99.507 E.32147
G1 X123.252 Y99.508 E.01738
G1 X130.762 Y107.017 E.33932
G1 X130.613 Y107.412 E.01349
G1 X122.709 Y99.508 E.35714
G1 X122.166 Y99.508 E.01735
G1 X130.465 Y107.807 E.37499
G1 X130.317 Y108.202 E.01348
G1 X121.657 Y99.543 E.39128
G1 X121.725 Y99.702 E.00553
G1 X121.791 Y99.947 E.00811
G1 X121.828 Y100.257 E.00998
G1 X123.122 Y101.551 E.05847
G1 X122.859 Y101.496 E.00858
G1 X122.524 Y101.496 E.0107
G1 X121.831 Y100.804 E.03129
G1 X121.737 Y101.253 E.01466
G1 X122.15 Y101.666 E.01866
M204 S1000
;LAYER_CHANGE
;Z:0.3
;HEIGHT:0.1
;BEFORE_LAYER_CHANGE
G92 E0.0
;0.3


;WIPE_START
G1 F8640
G1 X121.737 Y101.253 E-.13486
G1 X121.831 Y100.804 E-.10592
G1 X122.524 Y101.496 E-.22613
G1 X122.859 Y101.496 E-.07735
G1 X123.122 Y101.551 E-.06204
G1 X121.916 Y100.345 E-.3937
;WIPE_END
G1 Z.3 F720
;AFTER_LAYER_CHANGE
;0.3
; stop printing object Bremse13mm.stl id:0 copy 0
G1 Z.5
G1 X118.98 Y106.733 F10800
G1 Z.3 F720
G1 E1 F2100
;TYPE:Skirt/Brim
;WIDTH:0.42
G1 F2328
G1 X116.03 Y104.887 E.05766
G1 X115.193 Y104.127 E.01873
G1 X114.465 Y103.092 E.02097
G1 X114.038 Y102.065 E.01843
G1 X113.815 Y100.771 E.02176
G1 X113.83 Y100.011 E.0126
G1 X113.984 Y99.129 E.01484
G1 X114.3 Y98.24 E.01563
G1 X114.747 Y97.444 E.01513
G1 X115.205 Y96.86 E.0123
G1 X115.894 Y96.216 E.01563
G1 X116.658 Y95.715 E.01514
G1 X117.523 Y95.34 E.01562
G1 X118.241 Y95.152 E.0123
G1 X119.144 Y95.059 E.01504
G1 X130.339 Y95.059 E.18549
G1 X131.408 Y95.172 E.01781
G1 X132.442 Y95.477 E.01786
G1 X133.403 Y95.963 E.01784
G1 X134.382 Y96.73 E.02061
G1 X135.149 Y97.637 E.01968
G1 X135.684 Y98.596 E.0182
G1 X136.034 Y99.638 E.01821
G1 X136.186 Y100.729 E.01825
G1 X136.17 Y102.365 E.02711
G1 X135.67 Y106.365 E.06679
G1 X135.532 Y106.959 E.0101
G1 X134.032 Y111.309 E.07624
G1 X133.181 Y112.57 E.02521
G1 X131.25 Y113.293 E.03416
G1 X130.75 Y113.293 E.00828
G1 X129.778 Y113.127 E.01634
G1 X128.192 Y112.496 E.02828
G1 X119.031 Y106.765 E.17905
G1 X119.031 Y106.765 F10800
G1 X119.23 Y106.446
G1 F2328
G1 X116.258 Y104.587 E.05808
G1 X115.477 Y103.879 E.01747
G1 X114.794 Y102.908 E.01967
G1 X114.397 Y101.951 E.01717
G1 X114.192 Y100.758 E.02006
G1 X114.205 Y100.049 E.01175
G1 X114.35 Y99.218 E.01398
G1 X114.64 Y98.402 E.01435
G1 X115.062 Y97.651 E.01427
G1 X115.489 Y97.107 E.01146
G1 X116.122 Y96.516 E.01435
G1 X116.842 Y96.044 E.01426
G1 X117.637 Y95.699 E.01436
G1 X118.305 Y95.524 E.01144
G1 X119.157 Y95.436 E.01419
G1 X130.328 Y95.436 E.1851
G1 X131.492 Y95.576 E.01943
G1 X132.477 Y95.9 E.01718
G1 X133.395 Y96.408 E.01738
G1 X134.175 Y97.054 E.01678
G1 X134.833 Y97.843 E.01702
G1 X135.338 Y98.746 E.01714
G1 X135.666 Y99.72 E.01703
G1 X135.809 Y100.74 E.01707
G1 X135.796 Y102.318 E.02615
G1 X135.296 Y106.318 E.06679
G1 X133.675 Y111.186 E.08501
G1 X132.86 Y112.347 E.0235
G1 X131.25 Y112.916 E.02829
G1 X130.75 Y112.916 E.00828
G1 X129.902 Y112.772 E.01425
G1 X128.392 Y112.177 E.02689
G1 X119.281 Y106.478 E.17806
G1 X119.281 Y106.478 F10800
G1 X119.481 Y106.159
G1 F2328
G1 X116.486 Y104.286 E.05853
G1 X115.773 Y103.645 E.01589
G1 X115.123 Y102.723 E.01869
G1 X114.757 Y101.837 E.01588
G1 X114.569 Y100.745 E.01836
G1 X114.596 Y99.936 E.01341
G1 X114.757 Y99.163 E.01308
G1 X115.054 Y98.41 E.01341
G1 X115.464 Y97.736 E.01307
G1 X115.875 Y97.246 E.0106
G1 X116.486 Y96.714 E.01342
G1 X117.16 Y96.304 E.01307
G1 X117.913 Y96.007 E.01341
G1 X119.245 Y95.812 E.02231
G1 X130.316 Y95.812 E.18344
G1 X131.25 Y95.909 E.01556
G1 X132.152 Y96.173 E.01557
G1 X132.991 Y96.595 E.01556
G1 X133.865 Y97.279 E.01839
G1 X134.522 Y98.056 E.01686
G1 X134.992 Y98.895 E.01593
G1 X135.297 Y99.799 E.01581
G1 X135.432 Y100.752 E.01595
G1 X135.422 Y102.271 E.02517
G1 X134.922 Y106.271 E.06679
G1 X133.319 Y111.063 E.08373
G1 X132.543 Y112.116 E.02167
G1 X131.25 Y112.539 E.02254
G1 X130.027 Y112.416 E.02037
G1 X128.591 Y111.857 E.02553
G1 X119.532 Y106.191 E.17704
;WIPE_START
G1 F8640
G1 X119.481 Y106.159 E-.0139
G1 X116.486 Y104.286 E-.81565
G1 X115.937 Y103.792 E-.17045
;WIPE_END
G1 Z.5 F720
; printing object Bremse13mm.stl id:0 copy 0
G1 X118.044 Y101.019 F10800
G1 Z.3 F720
G1 E1 F2100
M204 S600
;TYPE:External perimeter
;WIDTH:0.449999
G1 F1500
G1 X117.93 Y100.55 E.0086
G1 X118.02 Y100.018 E.00961
G1 X118.279 Y99.601 E.00875
G1 X118.706 Y99.292 E.00939
G1 X119.194 Y99.177 E.00893
G1 X119.7 Y99.258 E.00913
G1 X120.134 Y99.518 E.00901
G1 X120.448 Y99.943 E.00941
G1 X120.573 Y100.443 E.00918
G1 X120.473 Y101 E.01008
G1 X120.17 Y101.448 E.00964
G1 X119.723 Y101.735 E.00946
G1 X119.301 Y101.82 E.00767
G1 X118.788 Y101.741 E.00925
G1 X118.356 Y101.477 E.00902
G1 X118.064 Y101.075 E.00885
M204 S1000
;WIPE_START
G1 F8640
G1 X118.044 Y101.019 E-.01373
G1 X117.93 Y100.55 E-.11145
G1 X118.02 Y100.018 E-.12459
G1 X118.279 Y99.601 E-.11335
G1 X118.706 Y99.292 E-.1217
G1 X119.194 Y99.177 E-.11577
G1 X119.7 Y99.258 E-.11832
G1 X120.134 Y99.518 E-.11682
G1 X120.448 Y99.943 E-.12201
G1 X120.492 Y100.12 E-.04226
;WIPE_END
G1 Z.5 F720
G1 X131.984 Y101.234 F10800
G1 Z.3 F720
G1 E1 F2100
M204 S600
;TYPE:Perimeter
G1 F1500
G1 X131.926 Y101.292 E.00146
G1 X131.755 Y101.565 E.00574
