; generated by PrusaSlicer 2.8.1+win64 on 2024-12-10 at 18:35:18 UTC


;
;
; 

; external perimeters extrusion width = 0.60mm
; perimeters extrusion width = 0.50mm
; infill extrusion width = 0.50mm
; solid infill extrusion width = 0.50mm
; top infill extrusion width = 0.45mm
; first layer extrusion width = 0.42mm

M73 P0 R12
M73 Q0 S12
M201 X1000 Y1000 Z200 E5000 ; sets maximum accelerations, mm/sec^2
M203 X200 Y200 Z12 E120 ; sets maximum feedrates, mm / sec
M204 S1250 T1250 ; sets acceleration (S) and retract acceleration (R), mm/sec^2
M205 X8.00 Y8.00 Z0.40 E4.50 ; sets the jerk limits, mm/sec
M205 S0 T0 ; sets the minimum extruding and travel feed rate, mm/sec

; printing object BremseV175.stl id:0 copy 0
; stop printing object BremseV175.stl id:0 copy 0

;TYPE:Custom
M862.3 P "MK3S" ; printer model check
M862.1 P0.4 ; nozzle diameter check
M115 U3.14.0 ; tell printer latest fw version
G90 ; use absolute coordinates
M83 ; extruder relative mode
M104 S235 ; set extruder temp
M140 S80 ; set bed temp
M190 S80 ; wait for bed temp
M109 S235 ; wait for extruder temp
G28 W ; home all without mesh bed level
G80 X113.995 Y94.8688 W22.0114 H18.9125 ; mesh bed levelling

G1 Z0.2 F720
G1 Y-3 F1000 ; go outside print area
G92 E0
G1 X60 E9 F1000 ; intro line
G1 X100 E12.5 F1000 ; intro line

G92 E0
M221 S95

; Don't change E values below. Excessive value can damage the printer.

M907 E538 ; set extruder motor current
G21 ; set units to millimeters
G90 ; use absolute coordinates
M83 ; use relative distances for extrusion

M900 K0.08 ; Filament gcode LA 1.5
M900 K45 ; Filament gcode LA 1.0




M107
;LAYER_CHANGE
;Z:0.2
;HEIGHT:0.2
G1 E-1 F2100
M73 P0 R11
G1 Z.4 F720
G1 X115.282 Y97.221 F10800
G1 Z.2 F720
M73 Q1 S11
G1 E1 F2100
M204 S800
;TYPE:Skirt/Brim
;WIDTH:0.42
G1 F1200
G1 X115.79 Y96.639 E.02422
G1 X116.458 Y96.074 E.02743
G1 X117.229 Y95.613 E.02817
G1 X117.912 Y95.335 E.02312
M73 P1 R11
G1 X118.654 Y95.146 E.02401
G1 X119.526 Y95.059 E.02748
G1 X129.964 Y95.059 E.32728
G1 X131.211 Y95.21 E.03938
G1 X132.394 Y95.619 E.03925
G1 X133.469 Y96.268 E.03937
G1 X134.381 Y97.127 E.03928
G1 X135.095 Y98.16 E.03937
G1 X135.574 Y99.317 E.03926
G1 X135.784 Y100.372 E.03373
G1 X135.818 Y102 E.05106
G1 X135.295 Y106.365 E.13784
G1 X134.967 Y107.393 E.03383
G1 X132.467 Y112.043 E.16553
G1 X131.425 Y113.152 E.04771
G1 X129.875 Y113.593 E.05053
G1 X129.125 Y113.593 E.02352
G1 X127.373 Y113.014 E.05785
G1 X116.035 Y104.59 E.44288
G1 X115.193 Y103.658 E.03938
G1 X114.591 Y102.566 E.0391
G1 X114.254 Y101.38 E.03866
G1 X114.19 Y100.222 E.03636
G1 X114.306 Y99.348 E.02764
G1 X114.535 Y98.573 E.02534
G1 X114.862 Y97.866 E.02442
G1 X115.249 Y97.271 E.02225
M204 S1000
G1 X115.249 Y97.271 F10800
G1 X115.565 Y97.475
M204 S800
G1 F1200
G1 X115.586 Y97.443 E.0012
G1 X116.053 Y96.91 E.02222
G1 X116.682 Y96.378 E.02583
G1 X117.391 Y95.954 E.0259
G1 X118.057 Y95.684 E.02253
G1 X118.864 Y95.493 E.026
G1 X119.539 Y95.436 E.02124
G1 X129.952 Y95.436 E.32649
G1 X131.131 Y95.579 E.03724
G1 X132.229 Y95.958 E.03642
G1 X133.246 Y96.572 E.03725
G1 X134.091 Y97.368 E.0364
G1 X134.766 Y98.345 E.03723
G1 X135.211 Y99.419 E.03645
G1 X135.425 Y100.587 E.03723
G1 X135.441 Y102 E.04431
G1 X134.921 Y106.318 E.13637
G1 X134.635 Y107.215 E.02952
G1 X132.135 Y111.865 E.16553
G1 X131.144 Y112.88 E.04448
G1 X129.875 Y113.216 E.04116
G1 X129.125 Y113.216 E.02352
G1 X127.597 Y112.711 E.05046
G1 X116.28 Y104.304 E.44203
G1 X115.539 Y103.494 E.03442
G1 X114.99 Y102.543 E.03443
G1 X114.642 Y101.408 E.03722
G1 X114.564 Y100.28 E.03545
G1 X114.649 Y99.555 E.02289
G1 X114.864 Y98.772 E.02546
G1 X115.18 Y98.071 E.02411
G1 X115.533 Y97.526 E.02036
M204 S1000
G1 X115.533 Y97.526 F10800
G1 X115.849 Y97.731
M204 S800
G1 F1200
G1 X115.896 Y97.659 E.0027
G1 X116.421 Y97.078 E.02455
G1 X117.005 Y96.613 E.02341
G1 X117.602 Y96.271 E.02157
G1 X118.313 Y95.999 E.02387
G1 X119.625 Y95.811 E.04156
G1 X129.941 Y95.812 E.32345
G1 X131.052 Y95.947 E.03509
M73 Q2 S11
G1 X132.064 Y96.297 E.03357
G1 X133.022 Y96.876 E.0351
G1 X133.918 Y97.749 E.03922
G1 X134.499 Y98.648 E.03356
G1 X134.896 Y99.694 E.03508
M73 P2 R11
G1 X135.049 Y100.621 E.02946
G1 X135.064 Y102 E.04324
G1 X134.547 Y106.271 E.13489
G1 X134.303 Y107.036 E.02518
G1 X131.803 Y111.686 E.16553
G1 X130.867 Y112.601 E.04104
G1 X129.875 Y112.839 E.03199
G1 X129.125 Y112.839 E.02352
G1 X127.822 Y112.408 E.04303
G1 X116.518 Y104.01 E.44154
G1 X115.843 Y103.271 E.03138
G1 X115.337 Y102.396 E.03169
G1 X115.012 Y101.339 E.03467
G1 X114.94 Y100.312 E.03228
G1 X115.017 Y99.64 E.02121
G1 X115.22 Y98.896 E.02418
G1 X115.511 Y98.251 E.02219
G1 X115.816 Y97.782 E.01754
M204 S1000
;WIPE_START
G1 F8640
G1 X115.849 Y97.731 E-.01403
G1 X115.896 Y97.659 E-.01985
G1 X116.421 Y97.078 E-.18081
G1 X117.005 Y96.613 E-.17237
G1 X117.602 Y96.271 E-.15887
G1 X118.313 Y95.999 E-.17578
G1 X119.506 Y95.828 E-.27829
;WIPE_END
G1 Z.4 F720
; printing object BremseV175.stl id:0 copy 0
G1 X120.651 Y99.393 F10800
G1 Z.2 F720
G1 E1 F2100
M204 S800
;TYPE:External perimeter
;WIDTH:0.419999
G1 F1200
G1 X120.875 Y99.653 E.01076
G1 X121.02 Y99.922 E.00958
G1 X121.107 Y100.215 E.00958
G1 X121.134 Y100.519 E.00957
G1 X121.046 Y100.995 E.01518
G1 X120.788 Y101.461 E.0167
G1 X120.534 Y101.705 E.01104
;WIDTH:0.468429
G1 X120.286 Y101.854 E.01024
;WIDTH:0.516859
G1 X120.039 Y102.002 E.01135
;WIDTH:0.522794
G1 X119.666 Y102.059 E.01506
G1 X119.327 Y102.029 E.01358
;WIDTH:0.522097
G1 X119.029 Y101.939 E.0124
;WIDTH:0.521993
G1 X118.754 Y101.792 E.01242
;WIDTH:0.522457
G1 X118.509 Y101.587 E.01274
G1 X118.359 Y101.411 E.00922
;WIDTH:0.523795
G1 X118.142 Y100.968 E.01972
G1 X118.069 Y100.492 E.01926
G1 X118.137 Y100.048 E.01796
G1 X118.356 Y99.592 E.02023
;WIDTH:0.521029
G1 X118.566 Y99.358 E.0125
G1 X118.961 Y99.091 E.01895
;WIDTH:0.522841
G1 X119.319 Y98.974 E.01503
;WIDTH:0.526677
G1 X119.837 Y98.952 E.02086
G1 X119.987 Y99.006 E.00641
;WIDTH:0.491954
G1 X120.136 Y99.06 E.00592
;WIDTH:0.457231
G1 X120.601 Y99.36 E.01906
M204 S1000
;WIPE_START
G1 F8640
G1 X120.651 Y99.393 E-.01383
G1 X120.875 Y99.653 E-.07924
G1 X121.02 Y99.922 E-.07056
G1 X121.107 Y100.215 E-.07057
G1 X121.134 Y100.519 E-.07047
G1 X121.046 Y100.995 E-.11177
G1 X120.788 Y101.461 E-.12299
G1 X120.534 Y101.705 E-.08133
G1 X120.286 Y101.854 E-.0668
G1 X120.039 Y102.002 E-.06649
G1 X119.666 Y102.059 E-.08713
G1 X119.327 Y102.029 E-.07858
G1 X119.029 Y101.939 E-.07188
G1 X118.997 Y101.922 E-.00836
;WIPE_END
G1 Z.4 F720
G1 X131.757 Y101.385 F10800
G1 Z.2 F720
G1 E1 F2100
M204 S800
;TYPE:Perimeter
;WIDTH:0.419999
G1 F1200
G1 X131.686 Y101.46 E.00324
G1 X131.588 Y101.779 E.01046
G1 X131.588 Y105.774 E.12526
G1 X129.443 Y109.205 E.12687
G1 X122.617 Y102.379 E.30268
G1 X122.485 Y102.28 E.00517
G1 X122.217 Y102.213 E.00866
G1 X120.412 Y102.213 E.05659
G1 X120.733 Y102.025 E.01166
G1 X121.018 Y101.771 E.01197
G1 X121.32 Y101.32 E.01702
G1 X121.459 Y100.935 E.01283
G1 X121.51 Y100.557 E.01196
G1 X121.482 Y100.177 E.01195
G1 X121.379 Y99.809 E.01198
G1 X121.204 Y99.47 E.01196
G1 X120.965 Y99.174 E.01193
G1 X120.67 Y98.931 E.01198
G1 X120.413 Y98.792 E.00916
G1 X129.796 Y98.787 E.2942
G1 X130.277 Y98.835 E.01516
G1 X130.75 Y98.98 E.01551
G1 X131.231 Y99.255 E.01737
G1 X131.506 Y99.53 E.01219
G1 X131.765 Y99.869 E.01338
G1 X131.985 Y100.342 E.01636
G1 X132.07 Y100.794 E.01442
G1 X132.078 Y101.238 E.01392
G1 X131.811 Y101.328 E.00883
G1 X131.798 Y101.342 E.0006
M204 S1000
G1 X131.798 Y101.342 F10800
G1 X132.016 Y101.676
M204 S800
;TYPE:External perimeter
G1 F1200
G1 X131.965 Y101.779 E.0036
G1 X131.965 Y105.882 E.12865
G1 X129.585 Y109.69 E.1408
G1 X129.395 Y109.69 E.00596
G1 X122.35 Y102.645 E.31239
G1 X122.217 Y102.59 E.00451
G1 X120.52 Y102.59 E.05321
;WIDTH:0.461757
G1 X120.357 Y102.569 E.00572
;WIDTH:0.503515
G1 X120.195 Y102.548 E.00626
;WIDTH:0.545272
G1 X120.032 Y102.527 E.00686
G1 X119.377 Y102.515 E.02736
;WIDTH:0.51676
G1 X118.977 Y102.424 E.01616
G1 X118.603 Y102.255 E.01617
G1 X118.271 Y102.014 E.01616
;WIDTH:0.521548
G1 X117.999 Y101.727 E.01574
G1 X117.786 Y101.375 E.01637
;WIDTH:0.521084
G1 X117.646 Y100.955 E.0176
;WIDTH:0.516735
G1 X117.6 Y100.54 E.01645
;WIDTH:0.519582
G1 X117.644 Y100.036 E.02005
;WIDTH:0.523796
G1 X117.851 Y99.5 E.02297
G1 X118.176 Y99.076 E.02136
;WIDTH:0.518085
G1 X118.634 Y98.729 E.0227
G1 X119.053 Y98.557 E.0179
;WIDTH:0.520971
G1 X119.454 Y98.47 E.01631
;WIDTH:0.534234
G1 X119.948 Y98.472 E.02018
G1 X120.163 Y98.453 E.00882
;WIDTH:0.496156
G1 X120.377 Y98.434 E.0081
;WIDTH:0.458078
G1 X120.591 Y98.415 E.00742
;WIDTH:0.419999
G1 X129.795 Y98.41 E.28858
G1 X130.008 Y98.419 E.00668
M73 P3 R11
M73 Q3 S11
G1 X130.645 Y98.528 E.02026
G1 X131.078 Y98.708 E.0147
G1 X131.47 Y98.961 E.01463
G1 X131.914 Y99.405 E.01969
G1 X132.082 Y99.664 E.00968
G1 X132.347 Y100.23 E.0196
G1 X132.447 Y100.787 E.01774
G1 X132.462 Y101.59 E.02518
G1 X132.154 Y101.59 E.00966
G1 X132.046 Y101.626 E.00357
M204 S1000
;WIPE_START
G1 F8640
G1 X132.016 Y101.676 E-.01346
G1 X131.965 Y101.779 E-.02654
G1 X131.965 Y105.882 E-.94739
G1 X131.936 Y105.928 E-.01261
;WIPE_END
G1 Z.4 F720
G1 X131.777 Y100.283 F10800
G1 Z.2 F720
G1 E1 F2100
M204 S800
;TYPE:Solid infill
;WIDTH:0.422548
G1 F1200
G1 X131.011 Y99.518 E.03417
G1 X130.744 Y99.345 E.01004
G1 X130.431 Y99.215 E.0107
G1 X130.101 Y99.144 E.01066
G1 X131.73 Y100.773 E.07272
G1 X131.734 Y101.007 E.00739
G1 X131.615 Y101.047 E.00396
G1 X131.541 Y101.121 E.0033
G1 X129.55 Y99.13 E.08888
G1 X129.013 Y99.13 E.01695
G1 X131.316 Y101.432 E.10279
G1 X131.249 Y101.763 E.01066
G1 X131.249 Y101.902 E.00439
G1 X128.476 Y99.13 E.12377
G1 X127.94 Y99.13 E.01692
G1 X131.249 Y102.439 E.14772
G1 X131.249 Y102.976 E.01695
G1 X127.403 Y99.13 E.17169
G1 X126.866 Y99.13 E.01695
G1 X131.249 Y103.513 E.19566
G1 X131.249 Y104.05 E.01695
G1 X126.329 Y99.13 E.21964
G1 X125.792 Y99.13 E.01695
G1 X131.249 Y104.587 E.24361
G1 X131.249 Y105.123 E.01692
G1 X125.256 Y99.13 E.26754
G1 X124.719 Y99.13 E.01695
G1 X131.249 Y105.66 E.29151
G1 X131.048 Y105.997 E.01239
G1 X124.182 Y99.131 E.30651
G1 X123.645 Y99.131 E.01695
G1 X130.842 Y106.327 E.32126
G1 X130.635 Y106.658 E.01232
G1 X123.108 Y99.131 E.33602
G1 X122.572 Y99.131 E.01692
G1 X130.429 Y106.988 E.35075
G1 X130.223 Y107.319 E.01231
G1 X122.035 Y99.131 E.36552
G1 X121.498 Y99.131 E.01695
M73 Q4 S11
G1 X130.016 Y107.649 E.38025
G1 X129.81 Y107.979 E.01228
M73 P4 R11
G1 X121.766 Y99.935 E.35909
G1 X121.819 Y100.132 E.00644
G1 X121.85 Y100.557 E.01345
G1 X129.603 Y108.31 E.3461
G1 X129.397 Y108.64 E.01228
G1 X121.783 Y101.026 E.3399
G1 X121.701 Y101.3 E.00903
G1 X121.644 Y101.424 E.00431
G1 X122.098 Y101.878 E.02027
G1 X121.559 Y101.876 E.01701
G1 X121.321 Y101.639 E.0106
M204 S1000
;LAYER_CHANGE
;Z:0.5
;HEIGHT:0.3
;BEFORE_LAYER_CHANGE
G92 E0.0
;0.5


;WIPE_START
G1 F8640
G1 X121.559 Y101.876 E-.07755
G1 X122.098 Y101.878 E-.12446
G1 X121.644 Y101.424 E-.14825
G1 X121.701 Y101.3 E-.03151
G1 X121.783 Y101.026 E-.06604
G1 X123.474 Y102.717 E-.55219
;WIPE_END
G1 Z.5 F720
;AFTER_LAYER_CHANGE
;0.5
; stop printing object BremseV175.stl id:0 copy 0
G1 Z.7
G1 X118.028 Y106.071 F10800
G1 Z.5 F720
G1 E1 F2100
;TYPE:Skirt/Brim
;WIDTH:0.42
G1 F1897
G1 X116.035 Y104.59 E.11013
G1 X115.193 Y103.658 E.05571
G1 X114.591 Y102.566 E.05531
G1 X114.254 Y101.38 E.05469
G1 X114.19 Y100.222 E.05144
G1 X114.306 Y99.348 E.03911
G1 X114.535 Y98.573 E.03584
G1 X114.862 Y97.866 E.03455
G1 X115.282 Y97.221 E.03414
G1 X115.79 Y96.639 E.03427
G1 X116.458 Y96.074 E.03881
G1 X117.229 Y95.613 E.03984
G1 X117.912 Y95.335 E.03271
G1 X118.654 Y95.146 E.03396
G1 X119.526 Y95.059 E.03887
G1 X129.964 Y95.059 E.46298
G1 X131.211 Y95.21 E.05571
G1 X132.394 Y95.619 E.05552
G1 X133.469 Y96.268 E.0557
G1 X134.381 Y97.127 E.05557
G1 X135.095 Y98.16 E.0557
G1 X135.574 Y99.317 E.05554
G1 X135.784 Y100.372 E.04771
G1 X135.818 Y102 E.07223
G1 X135.295 Y106.365 E.19499
G1 X134.967 Y107.393 E.04786
G1 X132.467 Y112.043 E.23417
G1 X131.425 Y113.152 E.0675
G1 X129.875 Y113.593 E.07148
G1 X129.125 Y113.593 E.03327
G1 X127.373 Y113.014 E.08184
G1 X118.076 Y106.107 E.51371
G1 X118.076 Y106.107 F10800
G1 X118.301 Y105.805
G1 F1897
G1 X116.28 Y104.304 E.11166
G1 X115.539 Y103.494 E.04869
G1 X114.99 Y102.543 E.04871
G1 X114.642 Y101.408 E.05266
G1 X114.564 Y100.28 E.05015
G1 X114.649 Y99.555 E.03238
G1 X114.864 Y98.772 E.03602
G1 X115.18 Y98.071 E.03411
G1 X115.586 Y97.443 E.03317
G1 X116.053 Y96.91 E.03143
G1 X116.682 Y96.378 E.03654
G1 X117.391 Y95.954 E.03664
G1 X118.057 Y95.684 E.03188
G1 X118.864 Y95.493 E.03678
G1 X119.539 Y95.436 E.03005
G1 X129.952 Y95.436 E.46187
G1 X131.131 Y95.579 E.05268
G1 X132.229 Y95.958 E.05152
G1 X133.246 Y96.572 E.05269
G1 X134.091 Y97.368 E.05149
G1 X134.766 Y98.345 E.05267
G1 X135.211 Y99.419 E.05156
G1 X135.425 Y100.587 E.05267
G1 X135.441 Y102 E.06268
G1 X134.921 Y106.318 E.19291
G1 X134.635 Y107.215 E.04176
G1 X132.135 Y111.865 E.23417
G1 X131.144 Y112.88 E.06292
G1 X129.875 Y113.216 E.05823
G1 X129.125 Y113.216 E.03327
G1 X127.597 Y112.711 E.07138
G1 X118.349 Y105.84 E.51102
G1 X118.349 Y105.84 F10800
M73 Q5 S11
G1 X118.574 Y105.538
G1 F1897
G1 X116.518 Y104.01 E.11362
G1 X115.843 Y103.271 E.04439
G1 X115.337 Y102.396 E.04483
G1 X115.012 Y101.339 E.04905
G1 X114.94 Y100.312 E.04566
G1 X115.017 Y99.64 E.03
M73 P5 R11
G1 X115.22 Y98.896 E.03421
G1 X115.511 Y98.251 E.03139
G1 X115.896 Y97.659 E.03132
G1 X116.421 Y97.078 E.03473
G1 X117.005 Y96.613 E.03311
G1 X117.602 Y96.271 E.03052
G1 X118.313 Y95.999 E.03377
G1 X119.625 Y95.811 E.05879
G1 X129.941 Y95.812 E.45756
G1 X131.052 Y95.947 E.04964
G1 X132.064 Y96.297 E.0475
G1 X133.022 Y96.876 E.04965
G1 X133.918 Y97.749 E.05549
G1 X134.499 Y98.648 E.04748
G1 X134.896 Y99.694 E.04962
G1 X135.049 Y100.621 E.04167
G1 X135.064 Y102 E.06117
G1 X134.547 Y106.271 E.19082
G1 X134.303 Y107.036 E.03562
G1 X131.803 Y111.686 E.23417
G1 X130.867 Y112.601 E.05806
G1 X129.875 Y112.839 E.04525
G1 X129.125 Y112.839 E.03327
G1 X127.822 Y112.408 E.06087
G1 X118.622 Y105.574 E.50833
;WIPE_START
G1 F8640
G1 X118.574 Y105.538 E-.01385
G1 X116.518 Y104.01 E-.59149
G1 X115.843 Y103.271 E-.2311
G1 X115.489 Y102.658 E-.16356
;WIPE_END
G1 Z.7 F720
; printing object BremseV175.stl id:0 copy 0
G1 X120.547 Y99.452 F10800
G1 Z.5 F720
G1 E1 F2100
M204 S800
;TYPE:External perimeter
;WIDTH:0.6
G1 F1770.018
G1 X120.885 Y99.9 E.03749
G1 F1775.694
G1 X121.02 Y100.446 E.03757
G1 F1780.185
G1 X120.928 Y101 E.03752
G1 F1783.524
G1 X120.625 Y101.474 E.03758
G1 F1785.795
G1 X120.159 Y101.79 E.03761
;WIDTH:0.643414
G1 F1754.082
G1 X120 Y101.848 E.01222
;WIDTH:0.686829
G1 F1723.444
G1 X119.841 Y101.906 E.01314
;WIDTH:0.730244
G1 F1729.664
G1 X119.682 Y101.964 E.01406
G1 F1783.885
G1 X119.182 Y101.889 E.04199
;WIDTH:0.737113
G1 F1776.821
G1 X118.995 Y101.81 E.01703
G1 X118.573 Y101.51 E.04344
;WIDTH:0.726857
G1 F1782.364
G1 X118.288 Y101.095 E.0416
;WIDTH:0.731419
G1 F1780.389
G1 X118.166 Y100.567 E.04509
;WIDTH:0.741214
G1 F1767.804
G1 X118.193 Y100.278 E.0245
G1 X118.311 Y99.863 E.03642
;WIDTH:0.73017
G1 F1772.886
G1 X118.631 Y99.427 E.04491
;WIDTH:0.732484
G1 F1768.465
G1 X119.056 Y99.154 E.04209
G1 F1763.573
G1 X119.545 Y99.037 E.0419
;WIDTH:0.729329
G1 F1727.598
G1 X119.716 Y99.083 E.01469
;WIDTH:0.686219
G1 F1721.292
G1 X119.887 Y99.128 E.01371
;WIDTH:0.643109
G1 F1754.237
G1 X120.059 Y99.173 E.01283
;WIDTH:0.6
G1 F1763.215
G1 X120.495 Y99.422 E.03354
M204 S1000
;WIPE_START
G1 F8640
G1 X120.547 Y99.452 E-.01386
G1 X120.885 Y99.9 E-.12958
G1 X121.02 Y100.446 E-.12987
G1 X120.928 Y101 E-.12967
G1 X120.625 Y101.474 E-.1299
G1 X120.159 Y101.79 E-.13001
G1 X120 Y101.848 E-.03908
G1 X119.841 Y101.906 E-.03908
G1 X119.682 Y101.964 E-.03908
G1 X119.182 Y101.889 E-.11674
G1 X118.995 Y101.81 E-.04687
G1 X118.797 Y101.669 E-.05626
;WIPE_END
G1 Z.7 F720
G1 X131.816 Y101.447 F10800
G1 Z.5 F720
G1 E1 F2100
M204 S800
;TYPE:Perimeter
;WIDTH:0.5
G1 F1800
G1 X131.67 Y101.629 E.01268
G1 X131.589 Y101.968 E.01894
G1 X131.589 Y105.775 E.20684
G1 F1769.682
G1 X129.444 Y109.208 E.21994
G1 F1800
G1 X122.671 Y102.435 E.52043
G1 X122.45 Y102.282 E.0146
G1 F1798.068
