; generated by PrusaSlicer 2.8.1+win64 on 2024-12-06 at 17:34:26 UTC


;
;
; 

; external perimeters extrusion width = 0.45mm
; perimeters extrusion width = 0.45mm
; infill extrusion width = 0.45mm
; solid infill extrusion width = 0.45mm
; top infill extrusion width = 0.40mm
; support material extrusion width = 0.35mm
; first layer extrusion width = 0.42mm

M73 P0 R16
M73 Q0 S16
M201 X1000 Y1000 Z200 E5000 ; sets maximum accelerations, mm/sec^2
M203 X200 Y200 Z12 E120 ; sets maximum feedrates, mm / sec
M204 S1250 T1250 ; sets acceleration (S) and retract acceleration (R), mm/sec^2
M205 X8.00 Y8.00 Z0.40 E4.50 ; sets the jerk limits, mm/sec
M205 S0 T0 ; sets the minimum extruding and travel feed rate, mm/sec

; printing object 4xSliderhalter.stl id:0 copy 0
; stop printing object 4xSliderhalter.stl id:0 copy 0

;TYPE:Custom
M862.3 P "MK3S" ; printer model check
M862.1 P0.4 ; nozzle diameter check
M115 U3.14.0 ; tell printer latest fw version
G90 ; use absolute coordinates
M83 ; extruder relative mode
M104 S235 ; set extruder temp
M140 S80 ; set bed temp
M190 S80 ; wait for bed temp
M109 S235 ; wait for extruder temp
G28 W ; home all without mesh bed level
G80 X112.306 Y94.9632 W25.3879 H22.7308 ; mesh bed levelling

G1 Z0.2 F720
G1 Y-3 F1000 ; go outside print area
G92 E0
G1 X60 E9 F1000 ; intro line
G1 X100 E12.5 F1000 ; intro line

G92 E0
M221 S95

; Don't change E values below. Excessive value can damage the printer.
M907 E430 ; set extruder motor current
G21 ; set units to millimeters
G90 ; use absolute coordinates
M83 ; use relative distances for extrusion

M900 K0.08 ; Filament gcode LA 1.5
M900 K45 ; Filament gcode LA 1.0




M107
;LAYER_CHANGE
;Z:0.2
;HEIGHT:0.2
G1 E-1 F2100
G1 Z.4 F720
G1 X116.511 Y96.023 F10800
G1 Z.2 F720
G1 E1 F2100
M204 S800
;TYPE:Skirt/Brim
;WIDTH:0.42
G1 F1200
G1 X117.974 Y95.453 E.04923
G1 X122.891 Y95.156 E.15445
G1 X127.109 Y95.156 E.13225
G1 X132.026 Y95.453 E.15445
G1 X133.363 Y95.927 E.04448
G1 X134.3 Y97.188 E.04926
G1 X137.369 Y106.205 E.29865
G1 X137.505 Y107.031 E.02625
G1 X137.505 Y114.94 E.24798
G1 X137.113 Y116.303 E.04447
G1 X136.057 Y117.25 E.04447
G1 X134.94 Y117.505 E.03592
G1 X115.06 Y117.505 E.62332
G1 X113.697 Y117.113 E.04447
M73 P1 R16
M73 Q1 S16
G1 X112.75 Y116.057 E.04447
G1 X112.495 Y114.94 E.03592
G1 X112.495 Y107.031 E.24798
G1 X112.631 Y106.205 E.02625
G1 X115.7 Y97.188 E.29865
G1 X116.476 Y96.073 E.04259
M204 S1000
G1 X116.476 Y96.073 F10800
G1 X116.792 Y96.304
M204 S800
G1 F1200
G1 X116.829 Y96.254 E.00195
G1 X117.997 Y95.83 E.03896
G1 X122.914 Y95.533 E.15445
G1 X127.086 Y95.533 E.13081
G1 X132.003 Y95.83 E.15445
G1 X133.225 Y96.295 E.041
G1 X133.943 Y97.309 E.03896
G1 X137.012 Y106.326 E.29865
G1 X137.128 Y107.031 E.0224
G1 X137.128 Y114.94 E.24798
G1 X136.737 Y116.188 E.04101
G1 X135.705 Y116.99 E.04098
G1 X134.94 Y117.128 E.02437
G1 X115.06 Y117.128 E.62332
G1 X113.812 Y116.737 E.04101
G1 X113.01 Y115.705 E.04098
G1 X112.872 Y114.94 E.02437
G1 X112.872 Y107.031 E.24798
G1 X112.988 Y106.326 E.0224
G1 X116.057 Y97.309 E.29865
G1 X116.757 Y96.352 E.03718
M204 S1000
;WIPE_START
G1 F8640
G1 X116.792 Y96.304 E-.01372
G1 X116.829 Y96.254 E-.01436
G1 X117.997 Y95.83 E-.28691
G1 X120.958 Y95.651 E-.68501
;WIPE_END
G1 Z.4 F720
; printing object 4xSliderhalter.stl id:0 copy 0
G1 X121.951 Y102.975 F10800
G1 Z.2 F720
G1 E1 F2100
M204 S800
;TYPE:Support material interface
;WIDTH:0.35
G1 F1200
G1 X122.197 Y102.671 E.00999
G1 X121.993 Y102.671 E.00521
M204 S1000
;WIPE_START
G1 F8640
G1 X122.197 Y102.671 E-.0471
G1 X121.951 Y102.975 E-.0903
;WIPE_END
G1 E-.8626 F2100
G1 Z.4 F720
G1 X120.506 Y102.671 F10800
G1 Z.2 F720
G1 E1 F2100
M204 S800
G1 F1200
G1 X120.772 Y102.671 E.00679
G1 X120.772 Y107.011 E.11082
G1 X121.3 Y106.875 E.01392
G1 X121.3 Y102.671 E.10734
G1 X121.829 Y102.671 E.01351
G1 X121.829 Y103.085 E.01057
G1 X121.565 Y103.276 E.00832
G1 X121.565 Y103.724 E.01144
G1 X121.829 Y103.915 E.00832
G1 X121.829 Y106.583 E.06812
G1 X122.146 Y106.247 E.01179
G1 X122.357 Y105.849 E.0115
G1 X122.357 Y104.651 E.03059
G1 X122.192 Y104.321 E.00942
M204 S1000
;WIPE_START
G1 F8640
G1 X122.357 Y104.651 E-.08519
G1 X122.357 Y105.849 E-.27662
G1 X122.146 Y106.247 E-.10402
G1 X121.829 Y106.583 E-.10666
G1 X121.829 Y104.732 E-.42751
;WIPE_END
G1 Z.4 F720
G1 X121.879 Y107.41 F10800
G1 Z.2 F720
G1 E1 F2100
M204 S800
;TYPE:Support material
;WIDTH:0.42
G1 F1200
G1 X121.158 Y107.41 E.02261
G1 X121.145 Y107.305 E.00332
G1 X121.761 Y107.079 E.02057
G1 X121.86 Y107.357 E.00925
M204 S1000
;WIPE_START
G1 F8640
G1 X121.761 Y107.079 E-.06814
G1 X121.145 Y107.305 E-.15151
G1 X121.158 Y107.41 E-.02443
G1 X121.879 Y107.41 E-.16648
;WIPE_END
G1 E-.58944 F2100
G1 Z.4 F720
G1 X120.696 Y107.643 F10800
G1 Z.2 F720
G1 E1 F2100
M204 S800
;TYPE:Support material interface
;WIDTH:0.35
G1 F1200
G1 X120.75 Y107.16 E.01241
G1 X120.772 Y109.657 E.06376
G1 X121.3 Y109.657 E.01348
G1 X121.3 Y107.784 E.04782
G1 X121.829 Y107.784 E.01351
G1 X121.829 Y109.657 E.04782
G1 X122.357 Y109.657 E.01348
G1 X122.357 Y107.784 E.04782
G1 X122.671 Y107.784 E.00802
G1 X122.671 Y109.657 E.04782
G1 X122.522 Y109.657 E.0038
M204 S1000
;WIPE_START
G1 F8640
G1 X122.671 Y109.657 E-.0344
G1 X122.671 Y107.784 E-.43248
G1 X122.357 Y107.784 E-.0725
G1 X122.357 Y109.657 E-.43248
G1 X122.235 Y109.657 E-.02814
;WIPE_END
G1 Z.4 F720
G1 X120.533 Y107.784 F10800
G1 Z.2 F720
G1 E1 F2100
M204 S800
G1 F1200
G1 X120.243 Y107.784 E.0074
G1 X120.243 Y109.657 E.04782
G1 X119.715 Y109.657 E.01348
G1 X119.715 Y107.784 E.04782
G1 X119.307 Y107.784 E.01042
M73 Q2 S16
G1 X119.186 Y107.784 E.00309
G1 X119.186 Y109.657 E.04782
G1 X118.658 Y109.657 E.01348
G1 X118.658 Y107.622 E.05196
G1 X118.566 Y107.53 E.00332
M73 P2 R16
G1 X118.566 Y106.182 E.03442
G1 X118.658 Y106.152 E.00247
G1 X118.658 Y104.348 E.04606
G1 X118.566 Y104.319 E.00246
G1 X118.658 Y100.848 E.08866
G1 X118.566 Y100.819 E.00246
G1 X118.566 Y100.484 E.00855
G1 X118.566 Y99.82 E.01695
G1 X118.658 Y99.728 E.00332
G1 X118.658 Y98.014 E.04376
G1 X119.186 Y98.014 E.01348
G1 X119.186 Y99.566 E.03963
G1 X119.715 Y99.566 E.01351
G1 X119.715 Y98.014 E.03963
G1 X120.079 Y98.014 E.00929
M204 S1000
;WIPE_START
G1 F8640
G1 X119.715 Y98.014 E-.08405
G1 X119.715 Y99.566 E-.35836
G1 X119.186 Y99.566 E-.12215
G1 X119.186 Y98.014 E-.35836
G1 X118.852 Y98.014 E-.07708
;WIPE_END
G1 Z.4 F720
G1 X118.493 Y98.014 F10800
G1 Z.2 F720
G1 E1 F2100
M204 S800
G1 F1200
G1 X118.129 Y98.014 E.00929
G1 X118.129 Y109.657 E.29729
G1 X118.493 Y109.657 E.00929
M204 S1000
G1 X118.493 Y109.657 F10800
G1 X117.64 Y110.031
M204 S800
;TYPE:Support material
;WIDTH:0.42
G1 F1200
G1 X123.046 Y110.031 E.1695
G1 X123.046 Y107.58 E.07685
G1 X126.954 Y107.58 E.12253
G1 X126.954 Y110.031 E.07685
G1 X132.36 Y110.031 E.1695
G1 X132.36 Y107.031 E.09406
G1 X134.94 Y107.031 E.08089
G1 X134.94 Y114.94 E.24798
G1 X115.06 Y114.94 E.62332
G1 X115.06 Y107.031 E.24798
G1 X117.64 Y107.031 E.08089
G1 X117.64 Y109.975 E.09231
M204 S1000
G1 X117.64 Y109.975 F10800
G1 X134.217 Y114.77
M204 S800
G1 F1200
G1 X134.217 Y107.371 E.23199
G1 X133.799 Y107.371 E.01311
G1 X133.799 Y114.6 E.22666
G1 X133.38 Y114.6 E.01314
G1 X133.38 Y107.371 E.22666
G1 X132.961 Y107.371 E.01314
G1 X132.961 Y114.6 E.22666
G1 X132.542 Y114.6 E.01314
G1 X132.542 Y110.371 E.1326
G1 X132.123 Y110.371 E.01314
G1 X132.123 Y114.6 E.1326
G1 X131.704 Y114.6 E.01314
G1 X131.704 Y110.371 E.1326
G1 X131.285 Y110.371 E.01314
G1 X131.285 Y114.6 E.1326
G1 X130.866 Y114.6 E.01314
G1 X130.866 Y110.371 E.1326
G1 X130.447 Y110.371 E.01314
G1 X130.447 Y114.6 E.1326
G1 X130.028 Y114.6 E.01314
G1 X130.028 Y110.371 E.1326
G1 X129.609 Y110.371 E.01314
G1 X129.609 Y114.6 E.1326
G1 X129.19 Y114.6 E.01314
G1 X129.19 Y110.371 E.1326
G1 X128.771 Y110.371 E.01314
G1 X128.771 Y114.6 E.1326
G1 X128.352 Y114.6 E.01314
M73 Q3 S16
G1 X128.352 Y110.371 E.1326
G1 X127.933 Y110.371 E.01314
M73 P3 R16
G1 X127.933 Y114.6 E.1326
G1 X127.514 Y114.6 E.01314
G1 X127.514 Y110.371 E.1326
G1 X127.095 Y110.371 E.01314
G1 X127.095 Y114.6 E.1326
G1 X126.676 Y114.6 E.01314
G1 X126.615 Y107.919 E.20949
G1 X126.257 Y107.919 E.01122
G1 X126.257 Y114.6 E.20948
G1 X125.838 Y114.6 E.01314
M73 P3 R15
G1 X125.838 Y107.919 E.20948
G1 X125.419 Y107.919 E.01314
G1 X125.419 Y114.6 E.20948
G1 X125 Y114.6 E.01314
G1 X125 Y107.919 E.20948
G1 X124.581 Y107.919 E.01314
G1 X124.581 Y114.6 E.20948
G1 X124.162 Y114.6 E.01314
G1 X124.162 Y107.919 E.20948
G1 X123.743 Y107.919 E.01314
G1 X123.743 Y114.6 E.20948
G1 X123.324 Y114.6 E.01314
G1 X123.324 Y110.371 E.1326
G1 X122.905 Y110.371 E.01314
G1 X122.905 Y114.6 E.1326
G1 X122.486 Y114.6 E.01314
G1 X122.486 Y110.371 E.1326
G1 X122.067 Y110.371 E.01314
G1 X122.067 Y114.6 E.1326
G1 X121.648 Y114.6 E.01314
G1 X121.648 Y110.371 E.1326
G1 X121.229 Y110.371 E.01314
G1 X121.229 Y114.6 E.1326
G1 X120.81 Y114.6 E.01314
G1 X120.81 Y110.371 E.1326
G1 X120.391 Y110.371 E.01314
G1 X120.391 Y114.6 E.1326
M73 Q3 S15
G1 X119.972 Y114.6 E.01314
G1 X119.972 Y110.371 E.1326
G1 X119.553 Y110.371 E.01314
G1 X119.553 Y114.6 E.1326
G1 X119.134 Y114.6 E.01314
G1 X119.134 Y110.371 E.1326
G1 X118.715 Y110.371 E.01314
G1 X118.715 Y114.6 E.1326
G1 X118.296 Y114.6 E.01314
G1 X118.296 Y110.371 E.1326
G1 X117.877 Y110.371 E.01314
G1 X117.877 Y114.6 E.1326
G1 X117.458 Y114.6 E.01314
G1 X117.458 Y110.371 E.1326
G1 X117.301 Y110.371 E.00492
G1 X117.301 Y107.371 E.09406
G1 X117.039 Y107.371 E.00821
G1 X117.039 Y114.6 E.22666
G1 X116.62 Y114.6 E.01314
G1 X116.62 Y107.371 E.22666
G1 X116.201 Y107.371 E.01314
G1 X116.201 Y114.6 E.22666
G1 X115.783 Y114.6 E.01311
G1 X115.783 Y107.201 E.23199
M204 S1000
;WIPE_START
G1 F8640
G1 X115.783 Y111.532 E-1
;WIPE_END
G1 Z.4 F720
G1 X118.814 Y106.102 F10800
G1 Z.2 F720
G1 E1 F2100
M204 S800
;TYPE:Support material interface
;WIDTH:0.35
G1 F1200
M73 Q4 S15
G1 X119.186 Y106.011 E.00978
G1 X119.186 Y104.491 E.03881
G1 X118.814 Y104.398 E.00979
M204 S1000
;WIPE_START
G1 F8640
G1 X119.186 Y104.491 E-.08854
G1 X119.186 Y106.011 E-.35097
M73 P4 R15
G1 X118.814 Y106.102 E-.08843
;WIPE_END
G1 E-.47206 F2100
G1 Z.4 F720
G1 X118.814 Y102.602 F10800
G1 Z.2 F720
G1 E1 F2100
M204 S800
G1 F1200
G1 X119.186 Y102.509 E.00979
G1 X119.186 Y100.991 E.03876
G1 X119.715 Y100.382 E.0206
G1 X119.715 Y103.118 E.06986
G1 X119.935 Y103.272 E.00686
G1 X119.935 Y103.728 E.01164
G1 X119.715 Y103.882 E.00686
G1 X119.715 Y106.618 E.06986
G1 X120.243 Y106.889 E.01515
G1 X120.243 Y98.014 E.22661
G1 X120.772 Y98.014 E.01351
G1 X120.772 Y100.343 E.05947
G1 X121.3 Y100.343 E.01348
G1 X121.3 Y98.014 E.05947
G1 X121.829 Y98.014 E.01351
G1 X121.829 Y99.566 E.03963
G1 X122.357 Y99.566 E.01348
G1 X122.357 Y98.014 E.03963
G1 X122.671 Y98.014 E.00802
G1 X122.671 Y99.566 E.03963
G1 X122.522 Y99.566 E.0038
M204 S1000
;WIPE_START
G1 F8640
G1 X122.671 Y99.566 E-.0344
G1 X122.671 Y98.014 E-.35836
G1 X122.357 Y98.014 E-.0725
G1 X122.357 Y99.566 E-.35836
G1 X121.829 Y99.566 E-.12192
G1 X121.829 Y99.33 E-.05446
;WIPE_END
G1 Z.4 F720
G1 X122.419 Y100.801 F10800
G1 Z.2 F720
G1 E1 F2100
M204 S800
;TYPE:Support material
;WIDTH:0.42
G1 F1200
G1 X122.66 Y101.552 E.02473
G1 X122.59 Y102.297 E.02346
G1 X120.717 Y102.297 E.05873
G1 X120.717 Y100.717 E.04954
G1 X122.39 Y100.752 E.05247
M204 S1000
G1 X122.39 Y100.752 F10800
G1 X122.067 Y102.127
M204 S800
G1 F1200
G1 X122.067 Y101.057 E.03355
G1 X121.648 Y101.057 E.01314
G1 X121.648 Y101.958 E.02825
G1 X121.229 Y101.958 E.01314
G1 X121.229 Y100.887 E.03358
M204 S1000
;WIPE_START
G1 F8640
G1 X121.229 Y101.958 E-.2473
G1 X121.648 Y101.958 E-.09675
G1 X121.648 Y101.057 E-.20804
G1 X122.067 Y101.057 E-.09675
G1 X122.067 Y102.127 E-.24707
;WIPE_END
G1 E-.10409 F2100
G1 Z.4 F720
G1 X126.954 Y99.52 F10800
G1 Z.2 F720
G1 E1 F2100
M204 S800
G1 F1200
G1 X125.509 Y99.52 E.04531
G1 X125 Y98.25 E.0429
G1 X124.491 Y99.52 E.0429
G1 X123.046 Y99.52 E.04531
G1 X123.046 Y97.717 E.05653
G1 X126.954 Y97.717 E.12253
G1 X126.954 Y99.463 E.05474
M204 S1000
;WIPE_START
G1 F8640
G1 X126.954 Y97.717 E-.40316
G1 X124.369 Y97.717 E-.59684
;WIPE_END
G1 Z.4 F720
G1 X124.581 Y98.84 F10800
G1 Z.2 F720
G1 E1 F2100
M204 S800
G1 F1200
G1 X124.581 Y98.057 E.02455
G1 X124.162 Y98.057 E.01314
G1 X124.162 Y99.181 E.03524
G1 X123.743 Y99.181 E.01314
G1 X123.743 Y97.887 E.04057
M204 S1000
G1 X126.257 Y99.35 F10800
M204 S800
G1 F1200
G1 X126.257 Y98.057 E.04054
G1 X125.838 Y98.057 E.01314
G1 X125.838 Y99.181 E.03524
G1 X125.739 Y99.181 E.0031
G1 X125.419 Y98.383 E.02696
G1 X125.419 Y97.887 E.01555
M204 S1000
;WIPE_START
G1 F8640
G1 X125.419 Y98.383 E-.11453
G1 X125.739 Y99.181 E-.19852
G1 X125.838 Y99.181 E-.02286
G1 X125.838 Y98.057 E-.25953
G1 X126.257 Y98.057 E-.09675
G1 X126.257 Y99.35 E-.29856
;WIPE_END
G1 E-.00925 F2100
G1 Z.4 F720
G1 X127.478 Y99.566 F10800
G1 Z.2 F720
G1 E1 F2100
M204 S800
;TYPE:Support material interface
;WIDTH:0.35
G1 F1200
G1 X127.329 Y99.566 E.0038
G1 X127.329 Y98.014 E.03963
G1 X127.643 Y98.014 E.00802
G1 X127.643 Y99.566 E.03963
G1 X128.171 Y99.566 E.01348
G1 X128.171 Y98.014 E.03963
G1 X128.7 Y98.014 E.01351
G1 X128.7 Y100.343 E.05947
G1 X129.228 Y100.343 E.01348
G1 X129.228 Y98.014 E.05947
G1 X129.593 Y98.014 E.00932
M204 S1000
;WIPE_START
G1 F8640
G1 X129.228 Y98.014 E-.08428
G1 X129.228 Y100.343 E-.53777
G1 X128.7 Y100.343 E-.12192
G1 X128.7 Y99.234 E-.25603
;WIPE_END
G1 Z.4 F720
G1 X131.871 Y98.014 F10800
G1 Z.2 F720
G1 E1 F2100
M204 S800
G1 F1200
G1 X131.871 Y109.657 E.29729
G1 X131.342 Y109.657 E.01351
G1 X131.342 Y107.622 E.05196
G1 X131.434 Y107.53 E.00332
G1 X131.434 Y106.182 E.03442
G1 X131.342 Y106.152 E.00247
G1 X131.342 Y104.348 E.04606
G1 X131.434 Y104.319 E.00246
G1 X131.434 Y102.681 E.04182
G1 X131.342 Y102.652 E.00246
G1 X131.342 Y100.848 E.04606
G1 X131.434 Y100.819 E.00246
G1 X131.434 Y99.82 E.02551
G1 X131.342 Y99.728 E.00332
G1 X131.342 Y98.014 E.04376
G1 X130.814 Y98.014 E.01348
G1 X130.814 Y99.566 E.03963
G1 X130.285 Y99.566 E.01351
G1 X130.285 Y98.014 E.03963
G1 X129.757 Y98.014 E.01348
G1 X129.757 Y106.889 E.22661
G1 X129.228 Y107.011 E.01386
G1 X129.228 Y102.671 E.11082
G1 X128.7 Y102.671 E.01348
G1 X128.7 Y106.875 E.10734
G1 X128.171 Y106.584 E.01542
G1 X128.171 Y103.915 E.06815
G1 X128.435 Y103.724 E.00832
G1 X128.435 Y103.276 E.01144
G1 X128.171 Y103.085 E.00832
G1 X128.171 Y102.671 E.01057
G1 X127.803 Y102.671 E.0094
M73 Q5 S15
G1 X128.049 Y102.975 E.00999
M204 S1000
G1 X128.049 Y102.975 F10800
G1 X128.171 Y103.915
M204 S800
G1 F1200
G1 X127.857 Y104.249 E.01171
G1 X127.643 Y104.65 E.01161
G1 X127.643 Y105.85 E.03064
M73 P5 R15
G1 X127.857 Y106.251 E.01161
G1 X128.171 Y106.584 E.01169
M204 S1000
G1 X128.171 Y106.584 F10800
G1 X128.309 Y107.116
M204 S800
;TYPE:Support material
;WIDTH:0.42
G1 F1200
G1 X128.855 Y107.305 E.01812
G1 X128.842 Y107.41 E.00332
G1 X128.121 Y107.41 E.02261
G1 X128.259 Y107.089 E.01096
M204 S1000
;WIPE_START
G1 F8640
G1 X128.121 Y107.41 E-.08068
G1 X128.842 Y107.41 E-.16648
G1 X128.855 Y107.305 E-.02443
G1 X128.309 Y107.116 E-.13341
;WIPE_END
G1 E-.595 F2100
G1 Z.4 F720
G1 X129.228 Y107.336 F10800
G1 Z.2 F720
G1 E1 F2100
M204 S800
;TYPE:Support material interface
;WIDTH:0.35
G1 F1200
G1 X129.228 Y109.657 E.05926
G1 X129.757 Y109.657 E.01351
G1 X129.757 Y107.784 E.04782
G1 X129.868 Y107.784 E.00283
G1 X130.285 Y107.784 E.01065
G1 X130.285 Y109.657 E.04782
G1 X130.814 Y109.657 E.01351
G1 X130.814 Y107.784 E.04782
G1 X131.226 Y107.738 E.01059
M204 S1000
G1 X131.226 Y107.738 F10800
G1 X130.382 Y107.41
M204 S800
;TYPE:Support material
;WIDTH:0.42
G1 F1200
G1 X129.655 Y107.41 E.02279
G1 X129.643 Y107.304 E.00334
G1 X130.259 Y107.08 E.02055
G1 X130.363 Y107.357 E.00928
M204 S1000
;WIPE_START
G1 F8640
G1 X130.259 Y107.08 E-.06832
G1 X129.643 Y107.304 E-.15135
G1 X129.655 Y107.41 E-.02463
G1 X130.382 Y107.41 E-.16787
;WIPE_END
G1 E-.58783 F2100
G1 Z.4 F720
G1 X128.99 Y107.784 F10800
G1 Z.2 F720
G1 E1 F2100
M204 S800
;TYPE:Support material interface
;WIDTH:0.35
G1 F1200
G1 X128.7 Y107.784 E.0074
G1 X128.7 Y109.657 E.04782
G1 X128.171 Y109.657 E.01351
G1 X128.171 Y107.784 E.04782
G1 X127.643 Y107.784 E.01348
G1 X127.643 Y109.657 E.04782
G1 X127.329 Y109.657 E.00802
