; generated by PrusaSlicer 2.8.1+win64 on 2024-12-07 at 13:51:54 UTC


;
;
; 

; external perimeters extrusion width = 0.45mm
; perimeters extrusion width = 0.45mm
; infill extrusion width = 0.45mm
; solid infill extrusion width = 0.45mm
; top infill extrusion width = 0.40mm
; support material extrusion width = 0.33mm
; first layer extrusion width = 0.42mm

M73 P0 R15
M73 Q0 S15
M201 X1000 Y1000 Z200 E5000 ; sets maximum accelerations, mm/sec^2
M203 X200 Y200 Z12 E120 ; sets maximum feedrates, mm / sec
M204 S1250 T1250 ; sets acceleration (S) and retract acceleration (R), mm/sec^2
M205 X8.00 Y8.00 Z0.40 E4.50 ; sets the jerk limits, mm/sec
M205 S0 T0 ; sets the minimum extruding and travel feed rate, mm/sec

; printing object Federhalter.stl id:0 copy 0
; stop printing object Federhalter.stl id:0 copy 0

;TYPE:Custom
M862.3 P "MK3S" ; printer model check
M862.1 P0.4 ; nozzle diameter check
M115 U3.14.0 ; tell printer latest fw version
G90 ; use absolute coordinates
M83 ; extruder relative mode
M104 S235 ; set extruder temp
M140 S80 ; set bed temp
M190 S80 ; wait for bed temp
M109 S235 ; wait for extruder temp
G28 W ; home all without mesh bed level
G80 X115.658 Y93.8385 W18.6845 H22.323 ; mesh bed levelling

G1 Z0.2 F720
G1 Y-3 F1000 ; go outside print area
G92 E0
G1 X60 E9 F1000 ; intro line
G1 X100 E12.5 F1000 ; intro line

G92 E0
M221 S100

; Don't change E values below. Excessive value can damage the printer.
M907 E430 ; set extruder motor current
G21 ; set units to millimeters
G90 ; use absolute coordinates
M83 ; use relative distances for extrusion

M900 K0.08 ; Filament gcode LA 1.5
M900 K45 ; Filament gcode LA 1.0




M107
;LAYER_CHANGE
;Z:0.2
;HEIGHT:0.2
G1 E-1 F2100
G1 Z.4 F720
G1 X116.239 Y95.229 F10800
G1 Z.2 F720
G1 E1 F2100
M204 S800
;TYPE:Skirt/Brim
;WIDTH:0.42
G1 F1200
G1 X117.295 Y94.283 E.04445
G1 X118.412 Y94.027 E.03593
G1 X131.588 Y94.027 E.41312
G1 X132.951 Y94.419 E.04447
G1 X133.898 Y95.476 E.0445
G1 X134.154 Y96.593 E.03593
G1 X134.154 Y113.407 E.52719
G1 X133.762 Y114.771 E.0445
M73 Q1 S15
G1 X132.705 Y115.717 E.04448
G1 X131.588 Y115.973 E.03593
G1 X118.412 Y115.973 E.41312
G1 X117.049 Y115.581 E.04447
M73 P1 R15
G1 X116.102 Y114.524 E.0445
G1 X115.846 Y113.407 E.03593
G1 X115.846 Y96.593 E.52719
G1 X116.222 Y95.287 E.04261
M204 S1000
G1 X116.596 Y95.404 F10800
M204 S800
G1 F1200
G1 X116.614 Y95.344 E.00196
G1 X117.647 Y94.542 E.041
G1 X118.412 Y94.404 E.02437
G1 X131.588 Y94.404 E.41312
G1 X132.836 Y94.795 E.04101
G1 X133.639 Y95.828 E.04102
G1 X133.777 Y96.593 E.02437
G1 X133.777 Y113.407 E.52719
G1 X133.386 Y114.656 E.04104
G1 X132.353 Y115.458 E.041
G1 X131.588 Y115.596 E.02437
G1 X118.412 Y115.596 E.41312
G1 X117.164 Y115.205 E.04101
G1 X116.361 Y114.172 E.04102
G1 X116.223 Y113.407 E.02437
G1 X116.223 Y96.593 E.52719
G1 X116.578 Y95.461 E.0372
M204 S1000
;WIPE_START
G1 F8640
G1 X116.596 Y95.404 E-.0138
G1 X116.614 Y95.344 E-.01446
G1 X117.647 Y94.542 E-.30197
G1 X118.412 Y94.404 E-.17949
G1 X120.535 Y94.404 E-.49028
;WIPE_END
G1 Z.4 F720
; printing object Federhalter.stl id:0 copy 0
G1 X131.588 Y113.407 F10800
G1 Z.2 F720
G1 E1 F2100
M204 S800
;TYPE:Support material
G1 F1200
G1 X118.412 Y113.407 E.41312
G1 X118.412 Y96.593 E.52719
G1 X131.588 Y96.593 E.41312
G1 X131.588 Y113.351 E.52544
M204 S1000
;WIPE_START
G1 F8640
M73 Q2 S15
G1 X131.588 Y109.02 E-1
;WIPE_END
G1 Z.4 F720
G1 X122.05 Y99.52 F10800
G1 Z.2 F720
M73 P2 R15
G1 E1 F2100
M204 S800
G1 F1200
G1 X127.949 Y99.52 E.18496
G1 X128.23 Y99.801 E.01246
G1 X128.23 Y110.199 E.32602
G1 X127.949 Y110.48 E.01246
G1 X122.05 Y110.48 E.18496
G1 X121.783 Y109.955 E.01847
G1 X122.456 Y108.904 E.03913
G1 X122.618 Y108.18 E.02326
G1 X122.422 Y107.526 E.02141
G1 X121.77 Y106.451 E.03942
G1 X121.77 Y103.549 E.09099
G1 X122.443 Y102.432 E.04089
G1 X122.62 Y101.756 E.02191
G1 X122.431 Y101.044 E.0231
G1 X121.783 Y100.045 E.03734
G1 X122.025 Y99.57 E.01671
M204 S1000
;WIPE_START
G1 F8640
G1 X121.783 Y100.045 E-.12309
G1 X122.431 Y101.044 E-.27495
G1 X122.62 Y101.756 E-.1701
G1 X122.443 Y102.432 E-.16135
G1 X121.838 Y103.435 E-.27051
;WIPE_END
G1 Z.4 F720
G1 X130.866 Y113.238 F10800
G1 Z.2 F720
G1 E1 F2100
M204 S800
G1 F1200
G1 X130.866 Y96.932 E.51126
G1 X130.447 Y96.932 E.01314
G1 X130.447 Y113.068 E.50593
G1 X130.028 Y113.068 E.01314
G1 X130.028 Y96.932 E.50593
G1 X129.609 Y96.932 E.01314
G1 X129.609 Y113.068 E.50593
G1 X129.19 Y113.068 E.01314
G1 X129.19 Y96.932 E.50593
G1 X128.771 Y96.932 E.01314
G1 X128.771 Y113.068 E.50593
G1 X128.352 Y113.068 E.01314
G1 X128.352 Y110.557 E.07873
G1 X128.089 Y110.819 E.01164
G1 X127.933 Y110.819 E.00489
G1 X127.933 Y113.068 E.07052
G1 X127.514 Y113.068 E.01314
G1 X127.514 Y110.819 E.07052
G1 X127.095 Y110.819 E.01314
G1 X127.095 Y113.068 E.07052
G1 X126.676 Y113.068 E.01314
M73 P2 R14
G1 X126.676 Y110.819 E.07052
G1 X126.257 Y110.819 E.01314
G1 X126.257 Y113.068 E.07052
G1 X125.838 Y113.068 E.01314
G1 X125.838 Y110.819 E.07052
G1 X125.419 Y110.819 E.01314
G1 X125.419 Y113.068 E.07052
G1 X125 Y113.068 E.01314
G1 X125 Y110.819 E.07052
G1 X124.581 Y110.819 E.01314
M73 Q3 S15
G1 X124.581 Y113.068 E.07052
G1 X124.162 Y113.068 E.01314
M73 Q3 S14
G1 X124.162 Y110.819 E.07052
G1 X123.743 Y110.819 E.01314
M73 P3 R14
G1 X123.743 Y113.068 E.07052
G1 X123.324 Y113.068 E.01314
G1 X123.324 Y110.819 E.07052
G1 X122.905 Y110.819 E.01314
G1 X122.905 Y113.068 E.07052
G1 X122.486 Y113.068 E.01314
G1 X122.486 Y110.819 E.07052
G1 X122.067 Y110.819 E.01314
G1 X122.067 Y113.068 E.07052
G1 X121.648 Y113.068 E.01314
G1 X121.648 Y110.438 E.08246
G1 X121.386 Y109.923 E.01812
G1 X121.648 Y109.564 E.01394
G1 X121.648 Y106.936 E.0824
G1 X122.067 Y107.578 E.02404
G1 X122.067 Y109.255 E.05258
M204 S1000
;WIPE_START
G1 F8640
G1 X122.067 Y107.578 E-.38722
G1 X121.648 Y106.936 E-.17702
G1 X121.648 Y108.824 E-.43576
;WIPE_END
G1 Z.4 F720
G1 X128.352 Y99.683 F10800
G1 Z.2 F720
G1 E1 F2100
M204 S800
G1 F1200
G1 X128.352 Y96.932 E.08626
G1 X127.933 Y96.932 E.01314
G1 X127.933 Y99.181 E.07052
G1 X127.514 Y99.181 E.01314
G1 X127.514 Y96.932 E.07052
G1 X127.095 Y96.932 E.01314
G1 X127.095 Y99.181 E.07052
G1 X126.676 Y99.181 E.01314
G1 X126.676 Y96.932 E.07052
G1 X126.257 Y96.932 E.01314
G1 X126.257 Y99.181 E.07052
G1 X125.838 Y99.181 E.01314
G1 X125.838 Y96.932 E.07052
G1 X125.419 Y96.932 E.01314
G1 X125.419 Y99.181 E.07052
G1 X125 Y99.181 E.01314
G1 X125 Y96.932 E.07052
G1 X124.581 Y96.932 E.01314
G1 X124.581 Y99.181 E.07052
G1 X124.162 Y99.181 E.01314
G1 X124.162 Y96.932 E.07052
G1 X123.743 Y96.932 E.01314
G1 X123.743 Y99.181 E.07052
G1 X123.324 Y99.181 E.01314
G1 X123.324 Y96.932 E.07052
G1 X122.905 Y96.932 E.01314
G1 X122.905 Y99.181 E.07052
G1 X122.486 Y99.181 E.01314
G1 X122.486 Y96.932 E.07052
G1 X122.067 Y96.932 E.01314
G1 X122.067 Y99.181 E.07052
G1 X121.842 Y99.181 E.00705
G1 X121.648 Y99.562 E.01341
G1 X121.648 Y96.932 E.08246
G1 X121.229 Y96.932 E.01314
G1 X121.229 Y113.068 E.50593
G1 X120.81 Y113.068 E.01314
G1 X120.81 Y96.932 E.50593
G1 X120.391 Y96.932 E.01314
G1 X120.391 Y113.068 E.50593
G1 X119.972 Y113.068 E.01314
G1 X119.972 Y96.932 E.50593
G1 X119.553 Y96.932 E.01314
G1 X119.553 Y113.068 E.50593
G1 X119.134 Y113.068 E.01314
G1 X119.134 Y96.762 E.51126
M204 S1000
G1 X119.134 Y96.762 F10800
M73 P4 R14
M73 Q4 S14
G1 X122.067 Y102.755
M204 S800
G1 F1200
G1 X122.067 Y101.078 E.05258
G1 X121.648 Y100.436 E.02404
G1 X121.648 Y103.379 E.09228
M204 S1000
;WIPE_START
G1 F8640
G1 X121.648 Y100.436 E-.67955
G1 X122.067 Y101.078 E-.17702
G1 X122.067 Y101.699 E-.14343
;WIPE_END
G1 Z.4 F720
G1 X123.414 Y104.005 F10800
G1 Z.2 F720
G1 E1 F2100
M204 S800
;TYPE:Perimeter
;WIDTH:0.419999
G1 F1200
G1 X123.414 Y103.992 E.00041
G1 X123.684 Y103.587 E.01526
G1 X123.996 Y102.98 E.0214
G1 X124.194 Y102.372 E.02005
G1 X124.257 Y101.876 E.01568
G1 X124.196 Y101.161 E.0225
G1 X126.586 Y101.161 E.07494
G1 X126.586 Y102.346 E.03715
G1 X126.586 Y108.839 E.20358
G1 X124.209 Y108.851 E.07453
G1 X124.257 Y108.124 E.02284
G1 X124.156 Y107.481 E.02041
G1 X123.937 Y106.885 E.01991
G1 X123.684 Y106.413 E.01679
G1 X123.414 Y106.008 E.01526
G1 X123.414 Y104.065 E.06092
M204 S1000
G1 X123.414 Y104.065 F10800
G1 X123.037 Y103.883
M204 S800
G1 F1200
G1 X123.037 Y103.875 E.00025
G1 X123.351 Y103.409 E.01762
G1 X123.604 Y102.937 E.01679
G1 X123.8 Y102.395 E.01807
G1 X123.883 Y101.829 E.01794
G1 X123.82 Y101.196 E.01995
G1 X123.631 Y100.695 E.01679
G1 X124.307 Y100.777 E.02135
G1 X126.963 Y100.785 E.08328
G1 X126.963 Y102.346 E.04894
G1 X126.963 Y109.215 E.21537
G1 X124.236 Y109.228 E.0855
G1 X123.674 Y109.294 E.01774
G1 X123.787 Y108.936 E.01177
G1 X123.835 Y108.689 E.00789
G1 X123.883 Y108.171 E.01631
G1 X123.8 Y107.605 E.01794
G1 X123.604 Y107.063 E.01807
G1 X123.32 Y106.539 E.01869
G1 X123.037 Y106.125 E.01572
G1 X123.037 Y103.943 E.06841
M204 S1000
G1 X123.037 Y103.943 F10800
G1 X122.66 Y103.762
M204 S800
;TYPE:External perimeter
G1 F1200
G1 X122.66 Y103.759 E.00009
G1 X123.019 Y103.231 E.02002
G1 X123.272 Y102.759 E.01679
G1 X123.444 Y102.271 E.01622
G1 X123.509 Y101.783 E.01544
G1 X123.448 Y101.256 E.01663
G1 X123.301 Y100.884 E.01254
;WIDTH:0.420171
G1 X122.972 Y100.316 E.02059
;WIDTH:0.420466
G1 X122.791 Y100.219 E.00645
G1 X123.299 Y100.22 E.01595
;WIDTH:0.419999
G1 X123.795 Y100.346 E.01605
G1 X124.308 Y100.4 E.01617
G1 X127.34 Y100.409 E.09507
G1 X127.34 Y102.346 E.06073
G1 X127.34 Y109.591 E.22716
G1 X124.308 Y109.6 E.09507
G1 X123.795 Y109.654 E.01617
G1 X123.355 Y109.766 E.01424
;WIDTH:0.422769
G1 X122.849 Y109.783 E.01599
G1 X122.972 Y109.685 E.00497
;WIDTH:0.421291
G1 X123.089 Y109.473 E.00762
;WIDTH:0.419999
G1 X123.207 Y109.336 E.00567
G1 X123.435 Y108.801 E.01823
G1 X123.509 Y108.264 E.017
G1 X123.444 Y107.729 E.0169
G1 X123.272 Y107.241 E.01622
G1 X123.008 Y106.752 E.01742
G1 X122.66 Y106.241 E.01938
G1 X122.66 Y103.822 E.07585
M204 S1000
;WIPE_START
G1 F8640
G1 X122.66 Y103.762 E-.01385
G1 X122.66 Y103.759 E-.00069
G1 X123.019 Y103.231 E-.14743
G1 X123.272 Y102.759 E-.12366
G1 X123.444 Y102.271 E-.11947
G1 X123.509 Y101.783 E-.11368
G1 X123.448 Y101.256 E-.1225
G1 X123.301 Y100.884 E-.09236
G1 X122.972 Y100.316 E-.15157
G1 X122.791 Y100.219 E-.04742
G1 X123.083 Y100.219 E-.06737
;WIPE_END
G1 Z.4 F720
G1 X126.416 Y102.127 F10800
G1 Z.2 F720
G1 E1 F2100
M204 S800
;TYPE:Solid infill
;WIDTH:0.436084
G1 F1200
G1 X125.787 Y101.498 E.02908
G1 X125.23 Y101.496 E.01821
G1 X126.246 Y102.513 E.047
G1 X126.246 Y103.069 E.01818
G1 X124.672 Y101.494 E.07279
G1 X124.58 Y101.494 E.00301
G1 X124.595 Y101.608 E.00376
G1 X124.588 Y101.966 E.01171
G1 X126.246 Y103.625 E.07668
G1 X126.246 Y104.181 E.01818
G1 X124.522 Y102.457 E.07971
G1 X124.385 Y102.876 E.01441
G1 X126.246 Y104.737 E.08604
G1 X126.246 Y105.293 E.01818
G1 X124.233 Y103.28 E.09307
G1 X124.038 Y103.641 E.01341
G1 X126.246 Y105.849 E.10208
G1 X126.246 Y106.405 E.01818
G1 X123.828 Y103.987 E.11179
G1 X123.754 Y104.096 E.00431
G1 X123.754 Y104.468 E.01216
G1 X126.246 Y106.961 E.11524
G1 X126.246 Y107.517 E.01818
G1 X123.754 Y105.024 E.11524
G1 X123.754 Y105.58 E.01818
G1 X126.246 Y108.073 E.11524
G1 X126.246 Y108.501 E.01399
G1 X126.118 Y108.501 E.00418
G1 X124.111 Y106.494 E.09279
G1 X124.24 Y106.734 E.00891
G1 X124.492 Y107.431 E.02423
G1 X125.564 Y108.503 E.04956
G1 X125.01 Y108.504 E.01811
G1 X124.4 Y107.894 E.0282
M204 S1000
;LAYER_CHANGE
;Z:0.25
;HEIGHT:0.05
;BEFORE_LAYER_CHANGE
G92 E0.0
;0.25


;WIPE_START
G1 F8640
G1 X125.01 Y108.504 E-.19919
G1 X125.564 Y108.503 E-.12792
G1 X124.492 Y107.431 E-.35006
G1 X124.24 Y106.734 E-.17114
G1 X124.111 Y106.494 E-.06291
G1 X124.383 Y106.766 E-.08878
;WIPE_END
G1 Z.25 F720
;AFTER_LAYER_CHANGE
;0.25
; stop printing object Federhalter.stl id:0 copy 0
G1 Z.45
G1 X124.4 Y115.973 F10800
G1 Z.25 F720
G1 E1 F2100
;TYPE:Skirt/Brim
;WIDTH:0.42
G1 F1104
G1 X118.412 Y115.973 E.05094
G1 X117.049 Y115.581 E.01207
G1 X116.102 Y114.524 E.01207
G1 X115.846 Y113.407 E.00975
G1 X115.846 Y96.593 E.14305
G1 X116.239 Y95.229 E.01208
M73 P5 R14
M73 Q5 S14
G1 X117.295 Y94.283 E.01206
G1 X118.412 Y94.027 E.00975
G1 X131.588 Y94.027 E.1121
G1 X132.951 Y94.419 E.01207
G1 X133.898 Y95.476 E.01207
G1 X134.154 Y96.593 E.00975
G1 X134.154 Y113.407 E.14305
G1 X133.762 Y114.771 E.01207
G1 X132.705 Y115.717 E.01207
G1 X131.588 Y115.973 E.00975
G1 X124.46 Y115.973 E.06064
G1 X124.46 Y115.973 F10800
G1 X124.46 Y115.596
G1 F1104
G1 X118.412 Y115.596 E.05145
G1 X117.164 Y115.205 E.01113
G1 X116.361 Y114.172 E.01113
G1 X116.223 Y113.407 E.00661
G1 X116.223 Y96.593 E.14305
G1 X116.614 Y95.344 E.01113
G1 X117.647 Y94.542 E.01113
G1 X118.412 Y94.404 E.00661
G1 X131.588 Y94.404 E.1121
G1 X132.836 Y94.795 E.01113
G1 X133.639 Y95.828 E.01113
G1 X133.777 Y96.593 E.00661
G1 X133.777 Y113.407 E.14305
G1 X133.386 Y114.656 E.01113
G1 X132.353 Y115.458 E.01113
G1 X131.588 Y115.596 E.00661
G1 X124.52 Y115.596 E.06013
;WIPE_START
G1 F8640
G1 X124.46 Y115.596 E-.01385
G1 X120.189 Y115.596 E-.98615
;WIPE_END
G1 Z.45 F720
; printing object Federhalter.stl id:0 copy 0
G1 X123.354 Y104.111 F10800
G1 Z.25 F720
G1 E1 F2100
M204 S300
;TYPE:Perimeter
;WIDTH:0.449999
G1 F1104
G1 X123.354 Y104.092 E.00017
G1 X123.661 Y103.664 E.00481
G1 X123.948 Y103.175 E.00518
G1 X124.201 Y102.557 E.0061
G1 X124.288 Y102.13 E.00398
G1 X124.32 Y101.618 E.00468
G1 X124.242 Y101.104 E.00475
G1 X126.646 Y101.104 E.02195
G1 X126.646 Y108.896 E.07115
G1 X124.233 Y108.896 E.02203
G1 X124.312 Y108.487 E.0038
G1 X124.305 Y107.901 E.00535
G1 X124.201 Y107.443 E.00429
G1 X123.948 Y106.825 E.0061
G1 X123.661 Y106.336 E.00518
G1 X123.354 Y105.908 E.00481
G1 X123.354 Y104.171 E.01586
M204 S1000
G1 X123.354 Y104.171 F10800
M73 Q6 S14
G1 X122.914 Y103.959
M204 S300
G1 F1104
G1 X122.914 Y103.948 E.0001
G1 X123.282 Y103.442 E.00571
G1 X123.569 Y102.953 E.00518
G1 X123.791 Y102.4 E.00544
G1 X123.883 Y101.844 E.00515
G1 X123.833 Y101.267 E.00529
G1 X123.626 Y100.664 E.00582
G1 X127.086 Y100.664 E.03159
G1 X127.086 Y109.336 E.07919
M73 P6 R14
G1 X123.625 Y109.336 E.0316
G1 X123.67 Y109.231 E.00104
G1 X123.844 Y108.667 E.00539
G1 X123.879 Y108.08 E.00537
G1 X123.791 Y107.6 E.00446
G1 X123.569 Y107.047 E.00544
G1 X123.245 Y106.501 E.0058
G1 X122.914 Y106.052 E.00509
G1 X122.914 Y104.019 E.01856
M204 S1000
G1 X122.914 Y104.019 F10800
G1 X122.475 Y103.808
M204 S300
;TYPE:External perimeter
G1 F1104
G1 X122.475 Y103.804 E.00004
G1 X122.903 Y103.22 E.00661
G1 X123.19 Y102.731 E.00518
G1 X123.38 Y102.243 E.00478
G1 X123.448 Y101.785 E.00423
G1 X123.397 Y101.322 E.00425
G1 X123.233 Y100.859 E.00449
G1 X122.858 Y100.225 E.00673
G1 X126.85 Y100.225 E.03645
G1 X127.525 Y100.225 E.00616
G1 X127.525 Y100.9 E.00616
G1 X127.525 Y109.1 E.07488
G1 X127.525 Y109.775 E.00616
G1 X126.85 Y109.775 E.00616
G1 X122.858 Y109.775 E.03645
G1 X123.004 Y109.563 E.00235
G1 X123.25 Y109.101 E.00478
G1 X123.424 Y108.537 E.00539
G1 X123.439 Y108.074 E.00423
G1 X123.38 Y107.757 E.00294
G1 X123.19 Y107.269 E.00478
G1 X122.891 Y106.761 E.00538
G1 X122.475 Y106.196 E.00641
G1 X122.475 Y103.868 E.02126
M204 S1000
;WIPE_START
G1 F8640
G1 X122.475 Y103.808 E-.01385
G1 X122.475 Y103.804 E-.00092
G1 X122.903 Y103.22 E-.16718
G1 X123.19 Y102.731 E-.13092
G1 X123.38 Y102.243 E-.12092
G1 X123.448 Y101.785 E-.10691
G1 X123.397 Y101.322 E-.10755
G1 X123.233 Y100.859 E-.11342
G1 X122.858 Y100.225 E-.17008
G1 X123.154 Y100.225 E-.06825
;WIPE_END
G1 Z.45 F720
G1 X124.687 Y101.499 F10800
G1 Z.25 F720
G1 E1 F2100
M204 S800
;TYPE:Solid infill
G1 F1104
G1 X126.251 Y101.499 E.01428
G1 X126.251 Y108.501 E.06394
G1 X124.708 Y108.484 E.01409
G1 X124.692 Y107.823 E.00604
G1 X124.567 Y107.293 E.00497
G1 X124.287 Y106.622 E.00664
G1 X123.749 Y105.778 E.00914
G1 X123.749 Y104.215 E.01427
G1 X124.301 Y103.35 E.00937
G1 X124.58 Y102.662 E.00678
G1 X124.708 Y101.969 E.00644
G1 X124.697 Y101.718 E.00229
G1 X125.147 Y101.938 E.00457
G1 X125.812 Y101.938 E.00607
G1 X125.812 Y107.137 E.04747
;WIDTH:0.491268
G1 X125.791 Y107.425 E.00288
;WIDTH:0.532537
G1 X125.771 Y107.712 E.00312
;WIDTH:0.573806
G1 X125.75 Y108 E.00338
G1 X125.201 Y108 E.00643
G1 X125.173 Y107.712 E.00339
;WIDTH:0.558544
