; generated by PrusaSlicer 2.8.1+win64 on 2025-01-29 at 19:13:34 UTC


;
;
; 

; external perimeters extrusion width = 0.45mm
; perimeters extrusion width = 0.45mm
; infill extrusion width = 0.45mm
; solid infill extrusion width = 0.45mm
; top infill extrusion width = 0.40mm
; first layer extrusion width = 0.42mm

M73 P0 R190
M73 Q0 S193
M201 X1000 Y1000 Z200 E5000 ; sets maximum accelerations, mm/sec^2
M203 X200 Y200 Z12 E120 ; sets maximum feedrates, mm / sec
M204 S1250 T1250 ; sets acceleration (S) and retract acceleration (R), mm/sec^2
M205 X8.00 Y8.00 Z0.40 E4.50 ; sets the jerk limits, mm/sec
M205 S0 T0 ; sets the minimum extruding and travel feed rate, mm/sec

; printing object BremsePress.stl id:0 copy 0
; stop printing object BremsePress.stl id:0 copy 0

;TYPE:Custom
M862.3 P "MK3S" ; printer model check
M862.1 P0.4 ; nozzle diameter check
M115 U3.14.0 ; tell printer latest fw version
G90 ; use absolute coordinates
M83 ; extruder relative mode
M104 S235 ; set extruder temp
M140 S80 ; set bed temp
M190 S80 ; wait for bed temp
M109 S235 ; wait for extruder temp
G28 W ; home all without mesh bed level
G80 X114.873 Y50.1229 W20.2491 H108.059 ; mesh bed levelling

G1 Z0.2 F720
G1 Y-3 F1000 ; go outside print area
G92 E0
G1 X60 E9 F1000 ; intro line
G1 X100 E12.5 F1000 ; intro line

G92 E0
M221 S100

; Don't change E values below. Excessive value can damage the printer.
M907 E430 ; set extruder motor current
G21 ; set units to millimeters
G90 ; use absolute coordinates
M83 ; use relative distances for extrusion

M900 K0.08 ; Filament gcode LA 1.5
M900 K45 ; Filament gcode LA 1.0




M107
;LAYER_CHANGE
;Z:0.2
;HEIGHT:0.2
G1 E-1 F2100
G1 Z.4 F720
G1 X117.227 Y52.964 F10800
G1 Z.2 F720
G1 E1 F2100
M204 S800
;TYPE:Skirt/Brim
;WIDTH:0.42
G1 F1200
G1 X117.787 Y51.969 E.0358
G1 X118.594 Y51.162 E.03578
G1 X119.073 Y50.849 E.01794
G1 X119.847 Y50.512 E.02647
G1 X121.118 Y50.312 E.04034
G1 X130.393 Y50.316 E.29081
G1 X131.015 Y50.377 E.0196
G1 X131.91 Y50.618 E.02906
G1 X132.716 Y51.015 E.02817
G1 X133.461 Y51.587 E.02945
G1 X134.053 Y52.262 E.02815
G1 X134.523 Y53.075 E.02944
G1 X134.811 Y53.926 E.02817
G1 X134.934 Y54.857 E.02944
G1 X130.424 Y122.646 E2.13018
G1 X123.057 Y156.275 E1.07942
G1 X122.407 Y157.41 E.04101
G1 X120.919 Y157.994 E.05012
G1 X120.019 Y157.994 E.02822
G1 X118.771 Y157.603 E.04101
G1 X117.85 Y156.101 E.05524
G1 X115.061 Y135.5 E.65182
G1 X115.061 Y82.5 E1.66178
G1 X116.942 Y54.221 E.88863
G1 X117.214 Y53.022 E.03855
M204 S1000
;WIPE_START
G1 F8640
G1 X117.227 Y52.964 E-.01372
G1 X117.787 Y51.969 E-.26364
G1 X118.594 Y51.162 E-.26352
G1 X119.073 Y50.849 E-.13212
G1 X119.847 Y50.512 E-.19492
G1 X120.412 Y50.423 E-.13208
;WIPE_END
G1 Z.4 F720
; printing object BremsePress.stl id:0 copy 0
G1 X128.949 Y54.248 F10800
G1 Z.2 F720
G1 E1 F2100
M204 S800
;TYPE:External perimeter
;WIDTH:0.419999
G1 F1200
G1 X129.256 Y53.866 E.01537
G1 X129.703 Y53.594 E.01641
;WIDTH:0.455002
G1 X129.863 Y53.544 E.00574
;WIDTH:0.490005
G1 X130.022 Y53.493 E.00621
;WIDTH:0.525007
G1 X130.182 Y53.443 E.00672
G1 X130.74 Y53.523 E.0226
;WIDTH:0.518034
G1 X131.218 Y53.783 E.0215
;WIDTH:0.516935
G1 X131.577 Y54.187 E.0213
;WIDTH:0.517306
G1 X131.775 Y54.689 E.02129
G1 X131.788 Y55.23 E.02135
;WIDTH:0.516937
G1 X131.618 Y55.742 E.02126
;WIDTH:0.517304
G1 X131.282 Y56.165 E.02131
G1 X130.82 Y56.446 E.02133
;WIDTH:0.516758
G1 X130.291 Y56.556 E.02129
G1 X130.028 Y56.492 E.01066
;WIDTH:0.468379
G1 X129.765 Y56.428 E.00958
;WIDTH:0.419999
G1 X129.306 Y56.176 E.01642
G1 X128.96 Y55.782 E.01644
G1 X128.771 Y55.294 E.01641
G1 X128.759 Y54.77 E.01643
G1 X128.919 Y54.299 E.0156
M204 S1000
;WIPE_START
G1 F8640
G1 X128.949 Y54.248 E-.01366
G1 X129.256 Y53.866 E-.11316
G1 X129.703 Y53.594 E-.12082
G1 X129.863 Y53.544 E-.03871
G1 X130.022 Y53.493 E-.03856
G1 X130.182 Y53.443 E-.03871
G1 X130.74 Y53.523 E-.13016
G1 X131.218 Y53.783 E-.12564
G1 X131.577 Y54.187 E-.12479
G1 X131.775 Y54.689 E-.1246
G1 X131.788 Y55.23 E-.12495
G1 X131.779 Y55.256 E-.00624
;WIPE_END
G1 Z.4 F720
G1 X123.43 Y121.58 F10800
G1 Z.2 F720
G1 E1 F2100
M204 S800
;TYPE:Perimeter
G1 F1200
G1 X123.382 Y121.613 E.00183
G1 X123.16 Y121.965 E.01305
G1 X123.112 Y122.185 E.00706
G1 X120.361 Y149.707 E.86723
G1 X118.414 Y135.421 E.45207
G1 X118.414 Y82.539 E1.65808
G1 X120.278 Y54.583 E.87849
G1 X120.342 Y54.224 E.01143
G1 X120.522 Y53.942 E.01049
G1 X120.791 Y53.742 E.01051
G1 X121.161 Y53.664 E.01186
G1 X128.44 Y53.664 E.22823
G1 X128.219 Y54.016 E.01303
G1 X128.062 Y54.448 E.01441
G1 X128.005 Y54.77 E.01025
G1 X128.016 Y55.374 E.01894
G1 X128.219 Y55.984 E.02016
G1 X128.44 Y56.336 E.01303
G1 X128.049 Y56.336 E.01226
G1 X127.686 Y56.408 E.0116
G1 X127.524 Y56.495 E.00577
G1 X127.252 Y56.775 E.01224
G1 X127.151 Y56.991 E.00748
G1 X127.11 Y57.189 E.00634
G1 X123.064 Y99.721 E1.33958
G1 X123.129 Y100.067 E.01104
G1 X123.355 Y100.403 E.0127
G1 X123.642 Y100.591 E.01076
G1 X124.006 Y100.664 E.01164
G1 X127.076 Y100.664 E.09626
G1 X127.076 Y121.336 E.64815
G1 X124.05 Y121.336 E.09488
G1 X123.674 Y121.414 E.01204
G1 X123.48 Y121.546 E.00736
M204 S1000
G1 X123.48 Y121.546 F10800
G1 X123.675 Y121.87
M204 S800
G1 F1200
G1 X123.573 Y121.974 E.00457
G1 X123.487 Y122.222 E.00823
G1 X120.419 Y152.922 E.96737
G1 X118.037 Y135.447 E.55298
M73 Q0 S192
G1 X118.037 Y82.526 E1.6593
G1 X119.902 Y54.558 E.87886
G1 X119.983 Y54.097 E.01468
G1 X120.134 Y53.805 E.01031
G1 X120.359 Y53.564 E.01034
G1 X120.64 Y53.393 E.01031
G1 X121.148 Y53.287 E.01627
G1 X129.481 Y53.287 E.26127
G1 X128.967 Y53.623 E.01925
G1 X128.573 Y54.145 E.02051
G1 X128.382 Y54.77 E.02049
G1 X128.389 Y55.317 E.01715
G1 X128.587 Y55.889 E.01898
G1 X128.967 Y56.377 E.01939
G1 X129.481 Y56.713 E.01925
G1 X128.012 Y56.714 E.04606
G1 X127.734 Y56.808 E.0092
G1 X127.571 Y56.976 E.00734
G1 X127.486 Y57.225 E.00825
G1 X123.443 Y99.668 E1.33679
G1 X123.48 Y99.929 E.00827
M73 P0 R189
G1 X123.616 Y100.13 E.00761
G1 X123.788 Y100.243 E.00645
G1 X124.006 Y100.287 E.00697
G1 X127.453 Y100.287 E.10808
G1 X127.453 Y121.713 E.6718
G1 X124.05 Y121.713 E.1067
G1 X123.91 Y121.731 E.00443
G1 X123.735 Y121.808 E.00599
G1 X123.717 Y121.827 E.00082
M204 S1000
G1 X123.717 Y121.827 F10800
G1 X123.92 Y122.163
M204 S800
;TYPE:External perimeter
G1 F1200
G1 X123.862 Y122.26 E.00354
G1 X120.571 Y155.19 E1.03764
G1 X120.347 Y155.19 E.00702
G1 X117.66 Y135.472 E.62396
G1 X117.66 Y82.514 E1.66046
G1 X119.525 Y54.532 E.8793
G1 X119.624 Y53.97 E.01789
G1 X119.823 Y53.586 E.01356
G1 X120.118 Y53.269 E.01358
G1 X120.488 Y53.044 E.01358
G1 X120.696 Y52.986 E.00677
G1 X121.135 Y52.91 E.01397
G1 X129.704 Y52.91 E.26867
;WIDTH:0.454077
G1 X129.884 Y52.928 E.00618
;WIDTH:0.488155
G1 X130.063 Y52.945 E.00666
;WIDTH:0.522233
G1 X130.243 Y52.963 E.00721
;WIDTH:0.525808
G1 X130.806 Y53.047 E.02286
;WIDTH:0.528745
G1 X131.292 Y53.259 E.02142
G1 X131.708 Y53.586 E.02138
;WIDTH:0.525352
G1 X132.027 Y54.01 E.02128
G1 X132.22 Y54.505 E.02131
;WIDTH:0.528748
G1 X132.279 Y55.032 E.02142
G1 X132.203 Y55.556 E.02139
;WIDTH:0.525352
G1 X131.996 Y56.044 E.02126
G1 X131.664 Y56.458 E.02129
;WIDTH:0.528746
G1 X131.237 Y56.773 E.02144
G1 X130.745 Y56.97 E.02141
;WIDTH:0.525333
G1 X130.212 Y57.039 E.02156
;WIDTH:0.521809
G1 X130.043 Y57.056 E.00676
;WIDTH:0.487873
G1 X129.875 Y57.073 E.00625
;WIDTH:0.453936
G1 X129.707 Y57.09 E.00577
;WIDTH:0.419999
G1 X128.049 Y57.09 E.05199
G1 X127.944 Y57.122 E.00344
G1 X127.861 Y57.261 E.00508
G1 X123.819 Y99.704 E1.33679
G1 X123.876 Y99.858 E.00515
G1 X124.006 Y99.91 E.00439
G1 X127.83 Y99.91 E.1199
G1 X127.83 Y122.09 E.69544
G1 X124.05 Y122.09 E.11852
G1 X123.956 Y122.118 E.00308
M204 S1000
;WIPE_START
G1 F8640
G1 X123.92 Y122.163 E-.01331
G1 X123.862 Y122.26 E-.0261
G1 X123.448 Y126.4 E-.96059
;WIPE_END
G1 Z.4 F720
G1 X127.35 Y53.834 F10800
G1 Z.2 F720
G1 E1 F2100
M204 S800
;TYPE:Solid infill
;WIDTH:0.420369
G1 F1200
G1 X127.771 Y54.255 E.01869
G1 X127.739 Y54.344 E.00297
G1 X127.677 Y54.695 E.01119
G1 X126.986 Y54.004 E.03067
G1 X126.452 Y54.004 E.01676
G1 X127.675 Y55.227 E.05428
G1 X127.68 Y55.424 E.00618
G1 X127.741 Y55.663 E.00774
G1 X127.843 Y55.928 E.00891
G1 X125.918 Y54.004 E.08542
G1 X125.384 Y54.004 E.01676
G1 X127.503 Y56.122 E.09403
G1 X127.338 Y56.211 E.00588
G1 X127.184 Y56.337 E.00624
G1 X124.851 Y54.004 E.10355
G1 X124.317 Y54.004 E.01676
G1 X126.946 Y56.632 E.11667
G1 X126.827 Y56.886 E.0088
G1 X126.8 Y57.02 E.00429
G1 X123.783 Y54.004 E.13389
G1 X123.251 Y54.005 E.0167
G1 X126.74 Y57.495 E.15488
G1 X126.694 Y57.982 E.01535
G1 X122.718 Y54.006 E.17648
G1 X122.186 Y54.007 E.0167
G1 X126.648 Y58.469 E.19805
G1 X126.601 Y58.957 E.01539
G1 X121.653 Y54.009 E.21962
G1 X121.12 Y54.01 E.01673
G1 X126.555 Y59.444 E.24121
G1 X126.508 Y59.932 E.01539
G1 X120.761 Y54.184 E.2551
G1 X120.665 Y54.338 E.0057
G1 X120.619 Y54.561 E.00715
G1 X126.462 Y60.419 E.25968
G1 X126.416 Y60.907 E.01538
G1 X120.585 Y55.076 E.25881
G1 X120.552 Y55.576 E.01573
G1 X126.369 Y61.394 E.25821
G1 X126.323 Y61.881 E.01535
G1 X120.518 Y56.077 E.25763
G1 X120.485 Y56.577 E.01573
G1 X126.277 Y62.369 E.25708
G1 X126.23 Y62.856 E.01536
G1 X120.452 Y57.078 E.25646
G1 X120.418 Y57.578 E.01573
G1 X126.184 Y63.344 E.25592
G1 X126.138 Y63.831 E.01535
G1 X120.385 Y58.079 E.25533
G1 X120.352 Y58.579 E.01573
G1 X126.091 Y64.319 E.25475
G1 X126.045 Y64.806 E.01535
G1 X120.318 Y59.079 E.25419
G1 X120.285 Y59.58 E.01576
G1 X125.998 Y65.293 E.25357
G1 X125.952 Y65.781 E.01538
G1 X120.252 Y60.08 E.25302
G1 X120.218 Y60.581 E.01576
G1 X125.906 Y66.268 E.25244
G1 X125.859 Y66.756 E.01539
G1 X120.185 Y61.081 E.25186
G1 X120.151 Y61.582 E.01576
G1 X125.813 Y67.243 E.25129
G1 X125.767 Y67.731 E.01538
G1 X120.118 Y62.082 E.25073
G1 X120.085 Y62.582 E.01573
G1 X125.72 Y68.218 E.25013
G1 X125.674 Y68.705 E.01535
G1 X120.051 Y63.083 E.24956
G1 X120.018 Y63.583 E.01573
G1 X125.628 Y69.193 E.249
G1 X125.581 Y69.68 E.01536
G1 X119.985 Y64.084 E.24838
G1 X119.951 Y64.584 E.01573
G1 X125.535 Y70.168 E.24785
G1 X125.488 Y70.655 E.01536
G1 X119.918 Y65.085 E.24723
G1 X119.885 Y65.585 E.01573
G1 X125.442 Y71.143 E.24667
G1 X125.396 Y71.63 E.01535
G1 X119.851 Y66.085 E.24612
G1 X119.818 Y66.586 E.01576
G1 X125.349 Y72.117 E.24549
G1 X125.303 Y72.605 E.01538
G1 X119.784 Y67.086 E.24496
G1 X119.751 Y67.587 E.01576
G1 X125.257 Y73.092 E.24436
G1 X125.21 Y73.58 E.01539
G1 X119.718 Y68.087 E.24379
G1 X119.684 Y68.588 E.01576
G1 X125.164 Y74.067 E.24321
G1 X125.118 Y74.555 E.01538
G1 X119.651 Y69.088 E.24265
G1 X119.618 Y69.588 E.01573
G1 X125.071 Y75.042 E.24205
G1 X125.025 Y75.529 E.01535
G1 X119.584 Y70.089 E.24148
G1 X119.551 Y70.589 E.01573
G1 X124.978 Y76.017 E.2409
G1 X124.932 Y76.504 E.01535
G1 X119.518 Y71.09 E.2403
G1 X119.484 Y71.59 E.01573
G1 X124.886 Y76.992 E.23977
G1 X124.839 Y77.479 E.01536
G1 X119.451 Y72.091 E.23915
G1 X119.417 Y72.591 E.01573
G1 X124.793 Y77.967 E.23861
G1 X124.747 Y78.454 E.01535
G1 X119.384 Y73.092 E.23802
G1 X119.351 Y73.592 E.01573
G1 X124.7 Y78.941 E.23742
G1 X124.654 Y79.429 E.01538
G1 X119.317 Y74.092 E.23688
G1 X119.284 Y74.593 E.01576
G1 X124.608 Y79.916 E.23628
G1 X124.561 Y80.404 E.01539
G1 X119.251 Y75.093 E.23571
G1 X119.217 Y75.594 E.01576
G1 X124.515 Y80.891 E.23513
G1 X124.468 Y81.379 E.01539
G1 X119.184 Y76.094 E.23455
G1 X119.151 Y76.595 E.01576
G1 X124.422 Y81.866 E.23395
G1 X124.376 Y82.353 E.01535
G1 X119.117 Y77.095 E.2334
G1 X119.084 Y77.595 E.01573
G1 X124.329 Y82.841 E.23282
G1 X124.283 Y83.328 E.01535
G1 X119.05 Y78.096 E.23225
G1 X119.017 Y78.596 E.01573
G1 X124.237 Y83.816 E.23169
G1 X124.19 Y84.303 E.01536
G1 X118.984 Y79.097 E.23107
G1 X118.95 Y79.597 E.01573
G1 X124.144 Y84.791 E.23054
G1 X124.098 Y85.278 E.01535
G1 X118.917 Y80.098 E.22994
G1 X118.884 Y80.598 E.01573
G1 X124.051 Y85.765 E.22934
G1 X124.005 Y86.253 E.01538
G1 X118.85 Y81.098 E.22881
G1 X118.817 Y81.599 E.01576
G1 X123.958 Y86.74 E.22818
G1 X123.912 Y87.228 E.01538
G1 X118.784 Y82.099 E.22763
G1 X118.754 Y82.603 E.01585
G1 X123.866 Y87.715 E.2269
G1 X123.819 Y88.203 E.01539
G1 X118.754 Y83.137 E.22483
G1 X118.754 Y83.671 E.01676
G1 X123.773 Y88.69 E.22277
G1 X123.727 Y89.177 E.01535
G1 X118.754 Y84.204 E.22073
G1 X118.754 Y84.738 E.01676
G1 X123.68 Y89.665 E.21866
G1 X123.634 Y90.152 E.01535
G1 X118.754 Y85.272 E.2166
G1 X118.754 Y85.806 E.01676
G1 X123.588 Y90.64 E.21456
G1 X123.541 Y91.127 E.01536
G1 X118.754 Y86.34 E.21247
G1 X118.754 Y86.873 E.01673
G1 X123.495 Y91.615 E.21045
G1 X123.448 Y92.102 E.01536
G1 X118.754 Y87.407 E.20837
G1 X118.754 Y87.941 E.01676
G1 X123.402 Y92.589 E.2063
G1 X123.356 Y93.077 E.01538
G1 X118.754 Y88.475 E.20426
G1 X118.754 Y89.009 E.01676
G1 X123.309 Y93.564 E.20217
G1 X123.263 Y94.052 E.01538
G1 X118.754 Y89.542 E.20015
G1 X118.754 Y90.076 E.01676
G1 X123.217 Y94.539 E.19809
G1 X123.17 Y95.027 E.01539
G1 X118.754 Y90.61 E.19603
G1 X118.754 Y91.144 E.01676
G1 X123.124 Y95.514 E.19396
G1 X123.078 Y96.002 E.01538
G1 X118.754 Y91.678 E.19192
G1 X118.754 Y92.211 E.01673
G1 X123.031 Y96.489 E.18986
G1 X122.985 Y96.976 E.01535
G1 X118.754 Y92.745 E.18779
G1 X118.754 Y93.279 E.01676
G1 X122.938 Y97.464 E.18573
G1 X122.892 Y97.951 E.01535
G1 X118.754 Y93.813 E.18367
G1 X118.754 Y94.346 E.01673
G1 X122.846 Y98.439 E.18165
G1 X122.799 Y98.926 E.01536
G1 X118.754 Y94.88 E.17956
G1 X118.754 Y95.414 E.01676
G1 X122.909 Y99.569 E.18442
M204 S1000
;WIPE_START
G1 F8640
G1 X119.846 Y96.507 E-1
;WIPE_END
G1 Z.4 F720
G1 X126.308 Y100.834 F10800
G1 Z.2 F720
M73 Q0 S191
G1 E1 F2100
M204 S800
G1 F1200
G1 X126.736 Y101.262 E.019
G1 X126.736 Y101.796 E.01676
G1 X125.944 Y101.004 E.03515
G1 X125.411 Y101.004 E.01673
G1 X126.736 Y102.329 E.05881
G1 X126.736 Y102.863 E.01676
G1 X124.877 Y101.004 E.08251
G1 X124.343 Y101.004 E.01676
G1 X126.736 Y103.397 E.10621
G1 X126.736 Y103.931 E.01676
G1 X123.783 Y100.978 E.13107
G1 X123.509 Y100.904 E.00891
G1 X123.312 Y100.8 E.00699
G1 X123.119 Y100.648 E.00771
G1 X122.946 Y100.444 E.00839
G1 X122.813 Y100.193 E.00892
G1 X122.743 Y99.937 E.00833
G1 X118.754 Y95.948 E.17705
G1 X118.754 Y96.482 E.01676
G1 X126.736 Y104.465 E.3543
G1 X126.736 Y104.998 E.01673
G1 X118.754 Y97.015 E.3543
G1 X118.754 Y97.549 E.01676
G1 X126.736 Y105.532 E.3543
G1 X126.736 Y106.066 E.01676
G1 X118.754 Y98.083 E.3543
G1 X118.754 Y98.617 E.01676
G1 X126.736 Y106.6 E.3543
G1 X126.736 Y107.134 E.01676
G1 X118.754 Y99.151 E.3543
G1 X118.754 Y99.684 E.01673
G1 X126.736 Y107.667 E.3543
G1 X126.736 Y108.201 E.01676
G1 X118.754 Y100.218 E.3543
G1 X118.754 Y100.752 E.01676
G1 X126.736 Y108.735 E.3543
G1 X126.736 Y109.269 E.01676
G1 X118.754 Y101.286 E.3543
G1 X118.754 Y101.82 E.01676
G1 X126.736 Y109.803 E.3543
G1 X126.736 Y110.336 E.01673
G1 X118.754 Y102.353 E.3543
G1 X118.754 Y102.887 E.01676
G1 X126.736 Y110.87 E.3543
G1 X126.736 Y111.404 E.01676
M73 P0 R188
G1 X118.754 Y103.421 E.3543
G1 X118.754 Y103.955 E.01676
G1 X126.736 Y111.938 E.3543
G1 X126.736 Y112.471 E.01673
G1 X118.754 Y104.489 E.35428
G1 X118.754 Y105.022 E.01673
G1 X126.736 Y113.005 E.3543
G1 X126.736 Y113.539 E.01676
G1 X118.754 Y105.556 E.3543
G1 X118.754 Y106.09 E.01676
G1 X126.736 Y114.073 E.3543
G1 X126.736 Y114.607 E.01676
G1 X118.754 Y106.624 E.3543
G1 X118.754 Y107.158 E.01676
G1 X126.736 Y115.14 E.35428
G1 X126.736 Y115.674 E.01676
G1 X118.754 Y107.691 E.3543
G1 X118.754 Y108.225 E.01676
G1 X126.736 Y116.208 E.3543
G1 X126.736 Y116.742 E.01676
G1 X118.754 Y108.759 E.3543
G1 X118.754 Y109.293 E.01676
G1 X126.736 Y117.276 E.3543
G1 X126.736 Y117.809 E.01673
G1 X118.754 Y109.826 E.3543
G1 X118.754 Y110.36 E.01676
G1 X126.736 Y118.343 E.3543
G1 X126.736 Y118.877 E.01676
G1 X118.754 Y110.894 E.3543
G1 X118.754 Y111.428 E.01676
G1 X126.736 Y119.411 E.3543
G1 X126.736 Y119.945 E.01676
G1 X118.754 Y111.962 E.3543
G1 X118.754 Y112.495 E.01673
G1 X126.736 Y120.478 E.3543
G1 X126.736 Y120.996 E.01626
G1 X126.721 Y120.996 E.00047
G1 X118.754 Y113.029 E.35362
G1 X118.754 Y113.563 E.01676
G1 X126.187 Y120.996 E.32991
G1 X125.653 Y120.996 E.01676
G1 X118.754 Y114.097 E.30621
G1 X118.754 Y114.631 E.01676
G1 X125.119 Y120.996 E.28251
G1 X124.586 Y120.996 E.01673
