; generated by PrusaSlicer 2.8.1+win64 on 2025-01-29 at 20:03:03 UTC


;
;
; 

; external perimeters extrusion width = 0.60mm
; perimeters extrusion width = 0.50mm
; infill extrusion width = 0.50mm
; solid infill extrusion width = 0.50mm
; top infill extrusion width = 0.45mm
; support material extrusion width = 0.38mm
; first layer extrusion width = 0.42mm

M73 P0 R42
M73 Q0 S42
M201 X1000 Y1000 Z200 E5000 ; sets maximum accelerations, mm/sec^2
M203 X200 Y200 Z12 E120 ; sets maximum feedrates, mm / sec
M204 S1250 T1250 ; sets acceleration (S) and retract acceleration (R), mm/sec^2
M205 X8.00 Y8.00 Z0.40 E4.50 ; sets the jerk limits, mm/sec
M205 S0 T0 ; sets the minimum extruding and travel feed rate, mm/sec

; printing object SchubstangeAPress.stl id:0 copy 0
; stop printing object SchubstangeAPress.stl id:0 copy 0

;TYPE:Custom
M862.3 P "MK3S" ; printer model check
M862.1 P0.4 ; nozzle diameter check
M115 U3.14.0 ; tell printer latest fw version
G90 ; use absolute coordinates
M83 ; extruder relative mode
M104 S235 ; set extruder temp
M140 S80 ; set bed temp
M190 S80 ; wait for bed temp
M109 S235 ; wait for extruder temp
G28 W ; home all without mesh bed level
G80 X108.097 Y62.6253 W33.8058 H83.2518 ; mesh bed levelling

G1 Z0.2 F720
G1 Y-3 F1000 ; go outside print area
G92 E0
G1 X60 E9 F1000 ; intro line
G1 X100 E12.5 F1000 ; intro line

G92 E0
M221 S95

; Don't change E values below. Excessive value can damage the printer.

M907 E538 ; set extruder motor current
G21 ; set units to millimeters
G90 ; use absolute coordinates
M83 ; use relative distances for extrusion

M900 K0.08 ; Filament gcode LA 1.5
M900 K45 ; Filament gcode LA 1.0




M107
;LAYER_CHANGE
;Z:0.2
;HEIGHT:0.2
G1 E-1 F2100
G1 Z.4 F720
G1 X108.677 Y63.754 F10800
G1 Z.2 F720
G1 E1 F2100
M204 S800
;TYPE:Skirt/Brim
;WIDTH:0.42
G1 F1200
G1 X109.709 Y62.952 E.04098
G1 X110.474 Y62.814 E.02437
G1 X139.526 Y62.814 E.91091
G1 X140.774 Y63.205 E.04101
G1 X141.576 Y64.238 E.041
G1 X141.714 Y65.002 E.02434
G1 X141.714 Y73.859 E.27771
G1 X139.988 Y143.554 E2.18591
G1 X139.566 Y144.792 E.04101
G1 X138.514 Y145.569 E.04101
G1 X137.8 Y145.689 E.0227
G1 X112.2 Y145.689 E.80267
G1 X110.952 Y145.298 E.04101
G1 X110.149 Y144.265 E.04102
G1 X110.012 Y143.554 E.0227
G1 X108.286 Y73.859 E2.18591
G1 X108.286 Y65.002 E.27771
G1 X108.659 Y63.811 E.03913
M204 S1000
;WIPE_START
G1 F8640
G1 X108.677 Y63.754 E-.0138
G1 X109.709 Y62.952 E-.30179
G1 X110.474 Y62.814 E-.17949
G1 X112.661 Y62.814 E-.50492
;WIPE_END
G1 Z.4 F720
; printing object SchubstangeAPress.stl id:0 copy 0
G1 X139.526 Y73.805 F10800
G1 Z.2 F720
G1 E1 F2100
M204 S800
;TYPE:Support material
G1 F1200
G1 X138.37 Y73.805 E.03625
G1 X138.37 Y72.264 E.04832
G1 X138.036 Y71.93 E.01481
G1 X129.37 Y71.93 E.27172
G1 X129.37 Y66.264 E.17765
G1 X129.036 Y65.93 E.01481
G1 X126.915 Y65.93 E.0665
G1 X125.987 Y65.002 E.04115
G1 X139.526 Y65.002 E.42451
G1 X139.526 Y73.748 E.27422
M204 S1000
G1 X139.526 Y73.748 F10800
G1 X138.826 Y73.635
M204 S800
G1 F1200
G1 X138.826 Y65.342 E.26002
G1 X138.407 Y65.342 E.01314
G1 X138.407 Y71.821 E.20314
G1 X138.177 Y71.591 E.0102
G1 X137.988 Y71.591 E.00593
G1 X137.988 Y65.342 E.19593
G1 X137.569 Y65.342 E.01314
G1 X137.569 Y71.591 E.19593
G1 X137.15 Y71.591 E.01314
G1 X137.15 Y65.342 E.19593
G1 X136.731 Y65.342 E.01314
G1 X136.731 Y71.591 E.19593
G1 X136.312 Y71.591 E.01314
G1 X136.312 Y65.342 E.19593
G1 X135.893 Y65.342 E.01314
G1 X135.893 Y71.591 E.19593
G1 X135.474 Y71.591 E.01314
G1 X135.474 Y65.342 E.19593
G1 X135.055 Y65.342 E.01314
G1 X135.055 Y71.591 E.19593
G1 X134.636 Y71.591 E.01314
G1 X134.636 Y65.342 E.19593
G1 X134.217 Y65.342 E.01314
G1 X134.217 Y71.591 E.19593
G1 X133.799 Y71.591 E.01311
M73 P1 R42
M73 Q1 S42
G1 X133.799 Y65.342 E.19593
G1 X133.38 Y65.342 E.01314
G1 X133.38 Y71.591 E.19593
G1 X132.961 Y71.591 E.01314
M73 P1 R41
G1 X132.961 Y65.342 E.19593
G1 X132.542 Y65.342 E.01314
G1 X132.542 Y71.591 E.19593
G1 X132.123 Y71.591 E.01314
G1 X132.123 Y65.342 E.19593
G1 X131.704 Y65.342 E.01314
G1 X131.704 Y71.591 E.19593
G1 X131.285 Y71.591 E.01314
G1 X131.285 Y65.342 E.19593
G1 X130.866 Y65.342 E.01314
G1 X130.866 Y71.591 E.19593
G1 X130.447 Y71.591 E.01314
G1 X130.447 Y65.342 E.19593
G1 X130.028 Y65.342 E.01314
G1 X130.028 Y71.591 E.19593
G1 X129.709 Y71.591 E.01
G1 X129.709 Y66.123 E.17145
G1 X129.609 Y66.023 E.00443
G1 X129.609 Y65.342 E.02135
G1 X129.19 Y65.342 E.01314
G1 X129.19 Y65.604 E.00821
G1 X128.771 Y65.591 E.01314
G1 X128.771 Y65.342 E.00781
G1 X128.352 Y65.342 E.01314
G1 X128.352 Y65.591 E.00781
G1 X127.933 Y65.591 E.01314
G1 X127.933 Y65.342 E.00781
G1 X127.514 Y65.342 E.01314
G1 X127.514 Y65.591 E.00781
G1 X127.095 Y65.591 E.01314
G1 X127.095 Y65.172 E.01314
M204 S1000
;WIPE_START
G1 F8640
G1 X127.095 Y65.591 E-.09675
G1 X127.514 Y65.591 E-.09675
G1 X127.514 Y65.342 E-.05749
G1 X127.933 Y65.342 E-.09675
G1 X127.933 Y65.591 E-.05749
G1 X128.352 Y65.591 E-.09675
G1 X128.352 Y65.342 E-.05749
G1 X128.771 Y65.342 E-.09675
G1 X128.771 Y65.591 E-.05749
G1 X129.19 Y65.604 E-.09679
G1 X129.19 Y65.342 E-.0605
G1 X129.609 Y65.342 E-.09675
G1 X129.609 Y65.482 E-.03225
;WIPE_END
G1 Z.4 F720
G1 X123.085 Y65.93 F10800
G1 Z.2 F720
G1 E1 F2100
M204 S800
G1 F1200
G1 X120.964 Y65.93 E.0665
G1 X120.63 Y66.264 E.01481
G1 X120.63 Y71.93 E.17765
G1 X111.964 Y71.93 E.27172
G1 X111.63 Y72.264 E.01481
G1 X111.63 Y73.805 E.04832
G1 X110.474 Y73.805 E.03625
G1 X110.474 Y65.002 E.27601
G1 X124.013 Y65.002 E.42451
G1 X123.125 Y65.89 E.03938
M204 S1000
G1 X123.125 Y65.89 F10800
G1 X122.905 Y65.76
M204 S800
G1 F1200
G1 X122.905 Y65.342 E.01311
G1 X122.486 Y65.342 E.01314
G1 X122.486 Y65.591 E.00781
G1 X122.067 Y65.591 E.01314
G1 X122.067 Y65.342 E.00781
G1 X121.648 Y65.342 E.01314
G1 X121.648 Y65.591 E.00781
G1 X121.229 Y65.591 E.01314
G1 X121.229 Y65.342 E.00781
G1 X120.81 Y65.342 E.01314
G1 X120.81 Y65.604 E.00821
G1 X120.391 Y66.023 E.01858
G1 X120.391 Y65.342 E.02135
G1 X119.972 Y65.342 E.01314
G1 X119.972 Y71.591 E.19593
G1 X119.553 Y71.591 E.01314
G1 X119.553 Y65.342 E.19593
G1 X119.134 Y65.342 E.01314
G1 X119.134 Y71.591 E.19593
G1 X118.715 Y71.591 E.01314
G1 X118.715 Y65.342 E.19593
G1 X118.296 Y65.342 E.01314
G1 X118.296 Y71.591 E.19593
G1 X117.877 Y71.591 E.01314
G1 X117.877 Y65.342 E.19593
G1 X117.458 Y65.342 E.01314
G1 X117.458 Y71.591 E.19593
G1 X117.039 Y71.591 E.01314
G1 X117.039 Y65.342 E.19593
G1 X116.62 Y65.342 E.01314
G1 X116.62 Y71.591 E.19593
G1 X116.201 Y71.591 E.01314
G1 X116.201 Y65.342 E.19593
G1 X115.783 Y65.342 E.01311
G1 X115.783 Y71.591 E.19593
G1 X115.364 Y71.591 E.01314
G1 X115.364 Y65.342 E.19593
G1 X114.945 Y65.342 E.01314
G1 X114.945 Y71.591 E.19593
G1 X114.526 Y71.591 E.01314
G1 X114.526 Y65.342 E.19593
G1 X114.107 Y65.342 E.01314
G1 X114.107 Y71.591 E.19593
G1 X113.688 Y71.591 E.01314
G1 X113.688 Y65.342 E.19593
G1 X113.269 Y65.342 E.01314
G1 X113.269 Y71.591 E.19593
G1 X112.85 Y71.591 E.01314
G1 X112.85 Y65.342 E.19593
G1 X112.431 Y65.342 E.01314
G1 X112.431 Y71.591 E.19593
G1 X112.012 Y71.591 E.01314
G1 X112.012 Y65.342 E.19593
G1 X111.593 Y65.342 E.01314
M73 Q1 S41
G1 X111.593 Y71.821 E.20314
G1 X111.291 Y72.123 E.01339
G1 X111.291 Y73.466 E.04211
G1 X111.174 Y73.466 E.00367
G1 X111.174 Y65.172 E.26005
M204 S1000
;WIPE_START
G1 F8640
G1 X111.174 Y69.503 E-1
;WIPE_END
G1 Z.4 F720
G1 X123.694 Y70.481 F10800
G1 Z.2 F720
G1 E1 F2100
M204 S800
;TYPE:External perimeter
;WIDTH:0.419999
G1 F1200
G1 X123.456 Y70.047 E.01552
G1 X123.362 Y69.53 E.01648
G1 X123.437 Y69.01 E.01647
G1 X123.673 Y68.54 E.01649
G1 X124.045 Y68.169 E.01647
G1 X124.515 Y67.935 E.01646
G1 X125.013 Y67.863 E.01578
G1 X125.357 Y67.901 E.01085
G1 X125.845 Y68.097 E.01649
G1 X126.246 Y68.437 E.01648
G1 X126.519 Y68.886 E.01648
G1 X126.636 Y69.383 E.01601
G1 X126.583 Y69.921 E.01695
G1 X126.368 Y70.401 E.01649
G1 X126.012 Y70.788 E.01649
G1 X125.575 Y71.036 E.01575
G1 X125.073 Y71.139 E.01607
G1 X124.573 Y71.082 E.01578
G1 X124.095 Y70.865 E.01646
G1 X123.73 Y70.528 E.01558
M204 S1000
;WIPE_START
G1 F8640
G1 X123.694 Y70.481 E-.01367
G1 X123.456 Y70.047 E-.11429
G1 X123.362 Y69.53 E-.12133
G1 X123.437 Y69.01 E-.12131
G1 X123.673 Y68.54 E-.12144
G1 X124.045 Y68.169 E-.12131
G1 X124.515 Y67.935 E-.12123
G1 X125.013 Y67.863 E-.11619
G1 X125.357 Y67.901 E-.07991
G1 X125.636 Y68.013 E-.06932
;WIPE_END
G1 Z.4 F720
G1 X124.476 Y67.419 F10800
G1 Z.2 F720
G1 E1 F2100
M204 S800
;TYPE:Perimeter
;WIDTH:0.683428
G1 F1200
G1 X124.756 Y67.402 E.01494
;WIDTH:0.650557
G1 X125.037 Y67.386 E.01422
;WIDTH:0.6488
G1 X125.363 Y67.401 E.01644
M204 S1000
;WIPE_START
G1 F8640
G1 X124.476 Y67.419 E-.20485
G1 X124.756 Y67.402 E-.06477
G1 X125.037 Y67.386 E-.06499
G1 X125.363 Y67.401 E-.07535
;WIPE_END
G1 E-.59004 F2100
G1 Z.4 F720
G1 X128.193 Y73.11 F10800
G1 Z.2 F720
G1 E1 F2100
M204 S800
;WIDTH:0.419999
G1 F1200
G1 X128.309 Y73.219 E.00499
G1 X128.579 Y73.287 E.00873
G1 X137.013 Y73.287 E.26444
G1 X137.013 Y81.721 E.26444
G1 X137.013 Y142.713 E1.91236
G1 X112.987 Y142.713 E.75332
G1 X112.987 Y73.287 E2.1768
G1 X121.421 Y73.287 E.26444
M73 P2 R41
M73 Q2 S41
G1 X121.548 Y73.273 E.00401
G1 X121.784 Y73.156 E.00826
G1 X121.941 Y72.945 E.00825
G1 X121.987 Y72.721 E.00717
G1 X121.987 Y67.287 E.17038
G1 X123.819 Y67.287 E.05744
;WIDTH:0.463904
G1 X123.928 Y67.309 E.00389
;WIDTH:0.507809
G1 X124.038 Y67.331 E.00434
;WIDTH:0.551714
G1 X124.147 Y67.353 E.0047
;WIDTH:0.595619
G1 X124.257 Y67.375 E.00516
;WIDTH:0.639524
G1 X124.366 Y67.397 E.00552
;WIDTH:0.683428
G1 X124.476 Y67.419 E.00597
G1 X124.425 Y67.457 E.00339
;WIDTH:0.640935
G1 X124.375 Y67.495 E.00312
;WIDTH:0.598441
G1 X124.325 Y67.533 E.0029
;WIDTH:0.555947
G1 X124.144 Y67.655 E.00931
;WIDTH:0.510631
G1 X123.964 Y67.776 E.00843
;WIDTH:0.465315
G1 X123.784 Y67.897 E.00762
;WIDTH:0.419999
G1 X123.339 Y68.365 E.02025
G1 X123.065 Y68.95 E.02025
G1 X122.99 Y69.591 E.02024
G1 X123.122 Y70.223 E.02024
G1 X123.448 Y70.78 E.02024
G1 X123.933 Y71.206 E.02024
G1 X124.528 Y71.456 E.02024
G1 X125.172 Y71.505 E.02025
G1 X125.798 Y71.347 E.02024
G1 X126.341 Y71 E.0202
G1 X126.747 Y70.498 E.02024
G1 X126.973 Y69.893 E.02025
G1 X126.996 Y69.248 E.02024
G1 X126.814 Y68.629 E.02023
G1 X126.444 Y68.099 E.02027
G1 X125.926 Y67.714 E.02024
;WIDTH:0.46576
G1 X125.814 Y67.651 E.00452
;WIDTH:0.51152
G1 X125.701 Y67.589 E.00502
;WIDTH:0.55728
G1 X125.588 Y67.526 E.00553
;WIDTH:0.60304
G1 X125.476 Y67.464 E.00596
;WIDTH:0.6488
G1 X125.363 Y67.401 E.00652
G1 X125.491 Y67.379 E.00654
;WIDTH:0.60304
G1 X125.62 Y67.356 E.0061
;WIDTH:0.55728
G1 X125.748 Y67.333 E.00556
;WIDTH:0.51152
G1 X125.876 Y67.31 E.00507
;WIDTH:0.46576
G1 X126.005 Y67.287 E.00461
;WIDTH:0.419999
G1 X128.013 Y67.287 E.06296
G1 X128.02 Y72.808 E.17311
G1 X128.1 Y73.023 E.00719
G1 X128.149 Y73.069 E.00211
M204 S1000
G1 X128.149 Y73.069 F10800
G1 X128.477 Y72.868
M204 S800
;TYPE:External perimeter
G1 F1200
G1 X128.579 Y72.91 E.00346
G1 X137.39 Y72.91 E.27626
G1 X137.39 Y81.721 E.27626
G1 X137.39 Y143.09 E1.92418
G1 X112.61 Y143.09 E.77696
G1 X112.61 Y72.91 E2.20044
G1 X121.421 Y72.91 E.27626
G1 X121.542 Y72.866 E.00404
G1 X121.61 Y72.721 E.00502
G1 X121.61 Y66.91 E.1822
G1 X128.39 Y66.91 E.21258
G1 X128.39 Y72.721 E.1822
G1 X128.435 Y72.832 E.00376
M204 S1000
;WIPE_START
G1 F8640
G1 X128.477 Y72.868 E-.01277
G1 X128.579 Y72.91 E-.02547
G1 X132.744 Y72.91 E-.96176
;WIPE_END
G1 Z.4 F720
G1 X136.843 Y74.22 F10800
G1 Z.2 F720
G1 E1 F2100
M204 S800
;TYPE:Solid infill
;WIDTH:0.42024
G1 F1200
G1 X136.25 Y73.626 E.02633
G1 X135.717 Y73.626 E.01672
G1 X136.674 Y74.583 E.04246
G1 X136.674 Y75.117 E.01675
G1 X135.183 Y73.626 E.06616
G1 X134.649 Y73.626 E.01675
G1 X136.674 Y75.651 E.08985
G1 X136.674 Y76.184 E.01672
G1 X134.116 Y73.626 E.1135
G1 X133.582 Y73.626 E.01675
G1 X136.674 Y76.718 E.13719
G1 X136.674 Y77.252 E.01675
G1 X133.048 Y73.626 E.16089
G1 X132.515 Y73.626 E.01672
G1 X136.674 Y77.785 E.18453
G1 X136.674 Y78.319 E.01675
G1 X131.981 Y73.626 E.20823
G1 X131.448 Y73.626 E.01672
G1 X136.674 Y78.852 E.23188
G1 X136.674 Y79.386 E.01675
G1 X130.914 Y73.626 E.25557
G1 X130.38 Y73.626 E.01675
G1 X136.674 Y79.92 E.27926
G1 X136.674 Y80.453 E.01672
G1 X129.847 Y73.626 E.30291
G1 X129.313 Y73.626 E.01675
G1 X136.674 Y80.987 E.32661
G1 X136.674 Y81.52 E.01672
G1 X128.61 Y73.457 E.35778
M204 S1000
;WIPE_START
G1 F8640
G1 X131.672 Y76.519 E-1
;WIPE_END
G1 Z.4 F720
G1 X127.843 Y67.888 F10800
G1 Z.2 F720
G1 E1 F2100
M204 S800
G1 F1200
G1 X127.582 Y67.626 E.0116
G1 X127.048 Y67.626 E.01675
G1 X127.674 Y68.252 E.02778
G1 X127.674 Y68.785 E.01672
G1 X126.515 Y67.626 E.05142
G1 X126.402 Y67.626 E.00355
G1 X126.668 Y67.844 E.01079
G1 X126.845 Y68.043 E.00836
G1 X127.107 Y68.458 E.0154
G1 X127.211 Y68.703 E.00835
G1 X127.262 Y68.907 E.0066
G1 X127.674 Y69.319 E.01828
G1 X127.674 Y69.852 E.01672
G1 X127.341 Y69.52 E.01475
G1 X127.299 Y70.012 E.01549
G1 X127.674 Y70.386 E.01662
G1 X127.674 Y70.92 E.01675
G1 X127.157 Y70.403 E.02294
G1 X127.055 Y70.642 E.00815
G1 X126.98 Y70.76 E.00439
G1 X127.674 Y71.453 E.03077
G1 X127.674 Y71.987 E.01675
G1 X126.744 Y71.057 E.04126
G1 X126.587 Y71.234 E.00742
G1 X126.477 Y71.324 E.00446
G1 X127.843 Y72.69 E.06061
M204 S1000
;WIPE_START
G1 F8640
G1 X126.477 Y71.324 E-.44606
G1 X126.587 Y71.234 E-.03282
G1 X126.744 Y71.057 E-.05463
G1 X127.674 Y71.987 E-.30369
G1 X127.674 Y71.453 E-.1233
G1 X127.553 Y71.332 E-.0395
;WIPE_END
G1 Z.4 F720
G1 X126.029 Y71.409 F10800
G1 Z.2 F720
G1 E1 F2100
M204 S800
G1 F1200
G1 X136.674 Y82.054 E.47232
G1 X136.674 Y82.588 E.01675
G1 X125.796 Y71.71 E.48266
G1 X125.364 Y71.812 E.01393
G1 X136.674 Y83.121 E.5018
G1 X136.674 Y83.655 E.01675
G1 X124.66 Y71.642 E.53304
M204 S1000
;WIPE_START
G1 F8640
G1 X127.722 Y74.704 E-1
;WIPE_END
G1 Z.4 F720
G1 X123.562 Y67.875 F10800
G1 Z.2 F720
G1 E1 F2100
M204 S800
G1 F1200
G1 X123.313 Y67.626 E.01105
G1 X122.78 Y67.626 E.01672
G1 X123.175 Y68.022 E.01755
G1 X123.05 Y68.184 E.00642
G1 X122.965 Y68.346 E.00574
G1 X122.326 Y67.707 E.02835
G1 X122.326 Y68.24 E.01672
G1 X122.791 Y68.705 E.02063
G1 X122.731 Y68.884 E.00592
G1 X122.694 Y69.142 E.00818
G1 X122.326 Y68.774 E.01633
G1 X122.326 Y69.307 E.01672
G1 X122.863 Y69.845 E.02385
M204 S1000
G1 X122.863 Y69.845 F10800
G1 X122.156 Y69.671
M204 S800
G1 F1200
G1 X122.796 Y70.311 E.0284
G1 X123.044 Y70.803 E.01729
G1 X123.204 Y71.016 E.00836
G1 X123.557 Y71.356 E.01538
G1 X123.776 Y71.507 E.00835
G1 X124.187 Y71.702 E.01427
G1 X136.674 Y84.188 E.55403
G1 X136.674 Y84.722 E.01675
G1 X122.325 Y70.374 E.63664
G1 X122.325 Y70.907 E.01672
M73 P3 R41
M73 Q3 S41
G1 X136.674 Y85.256 E.63666
G1 X136.674 Y85.789 E.01672
G1 X122.324 Y71.44 E.63669
G1 X122.324 Y71.974 E.01675
G1 X136.674 Y86.323 E.63669
G1 X136.674 Y86.857 E.01675
G1 X122.324 Y72.507 E.63671
G1 X122.324 Y72.803 E.00929
G1 X122.276 Y72.993 E.00615
G1 X136.674 Y87.39 E.63882
G1 X136.674 Y87.924 E.01675
G1 X122.081 Y73.331 E.64749
G1 X122.004 Y73.415 E.00358
G1 X121.85 Y73.52 E.00585
G1 X121.767 Y73.551 E.00278
G1 X136.674 Y88.457 E.6614
G1 X136.674 Y88.991 E.01675
G1 X121.309 Y73.626 E.68174
G1 X120.775 Y73.626 E.01675
G1 X136.674 Y89.525 E.70544
G1 X136.674 Y90.058 E.01672
M73 P3 R40
G1 X120.242 Y73.626 E.72909
G1 X119.708 Y73.626 E.01675
G1 X136.674 Y90.592 E.75278
G1 X136.674 Y91.125 E.01672
G1 X119.175 Y73.626 E.77643
G1 X118.641 Y73.626 E.01675
G1 X136.674 Y91.659 E.80012
G1 X136.674 Y92.193 E.01675
G1 X118.107 Y73.626 E.82382
G1 X117.574 Y73.626 E.01672
G1 X136.674 Y92.726 E.84747
G1 X136.674 Y93.26 E.01675
G1 X117.04 Y73.626 E.87116
G1 X116.507 Y73.626 E.01672
G1 X136.674 Y93.793 E.89481
G1 X136.674 Y94.327 E.01675
G1 X115.973 Y73.626 E.9185
G1 X115.439 Y73.626 E.01675
G1 X136.674 Y94.861 E.9422
G1 X136.674 Y95.394 E.01672
M73 Q3 S40
G1 X114.906 Y73.626 E.96584
G1 X114.372 Y73.626 E.01675
M73 P4 R40
G1 X136.674 Y95.928 E.98954
G1 X136.674 Y96.462 E.01675
M73 Q4 S40
G1 X113.838 Y73.626 E1.01323
G1 X113.326 Y73.626 E.01606
G1 X113.326 Y73.648 E.00069
G1 X136.674 Y96.995 E1.03593
G1 X136.674 Y97.529 E.01675
G1 X113.326 Y74.182 E1.03593
G1 X113.326 Y74.715 E.01672
G1 X136.674 Y98.062 E1.03593
G1 X136.674 Y98.596 E.01675
