; generated by PrusaSlicer 2.8.1+win64 on 2025-01-29 at 18:56:15 UTC


;
;
; 

; external perimeters extrusion width = 0.60mm
; perimeters extrusion width = 0.50mm
; infill extrusion width = 0.50mm
; solid infill extrusion width = 0.50mm
; top infill extrusion width = 0.45mm
; support material extrusion width = 0.38mm
; first layer extrusion width = 0.42mm

; external perimeters extrusion width = 0.60mm
; perimeters extrusion width = 0.50mm
; infill extrusion width = 0.50mm
; solid infill extrusion width = 0.50mm
; top infill extrusion width = 0.45mm
; support material extrusion width = 0.38mm
; first layer extrusion width = 0.42mm

M73 P0 R13
M73 Q0 S13
M201 X1000 Y1000 Z200 E5000 ; sets maximum accelerations, mm/sec^2
M203 X200 Y200 Z12 E120 ; sets maximum feedrates, mm / sec
M204 S1250 T1250 ; sets acceleration (S) and retract acceleration (R), mm/sec^2
M205 X8.00 Y8.00 Z0.40 E4.50 ; sets the jerk limits, mm/sec
M205 S0 T0 ; sets the minimum extruding and travel feed rate, mm/sec

; printing object SchubstangeAPressB.stl id:0 copy 0
; stop printing object SchubstangeAPressB.stl id:0 copy 0
; printing object SchubstangeAPressB.stl id:1 copy 0
; stop printing object SchubstangeAPressB.stl id:1 copy 0

;TYPE:Custom
M862.3 P "MK3S" ; printer model check
M862.1 P0.4 ; nozzle diameter check
M115 U3.14.0 ; tell printer latest fw version
G90 ; use absolute coordinates
M83 ; extruder relative mode
M104 S235 ; set extruder temp
M140 S80 ; set bed temp
M190 S80 ; wait for bed temp
M109 S235 ; wait for extruder temp
G28 W ; home all without mesh bed level
G80 X108.097 Y82.9555 W33.8058 H57.0163 ; mesh bed levelling

G1 Z0.2 F720
G1 Y-3 F1000 ; go outside print area
G92 E0
G1 X60 E9 F1000 ; intro line
G1 X100 E12.5 F1000 ; intro line

G92 E0
M221 S95

; Don't change E values below. Excessive value can damage the printer.

M907 E538 ; set extruder motor current
G21 ; set units to millimeters
G90 ; use absolute coordinates
M83 ; use relative distances for extrusion

M900 K0.08 ; Filament gcode LA 1.5
M900 K45 ; Filament gcode LA 1.0




M107
;LAYER_CHANGE
;Z:0.2
;HEIGHT:0.2
G1 E-1 F2100
G1 Z.4 F720
G1 X108.677 Y84.084 F10800
G1 Z.2 F720
G1 E1 F2100
M204 S800
;TYPE:Skirt/Brim
;WIDTH:0.42
G1 F1200
G1 X109.709 Y83.282 E.04098
G1 X110.474 Y83.144 E.02437
G1 X139.526 Y83.144 E.91091
G1 X140.774 Y83.535 E.04101
M73 P1 R13
M73 Q1 S13
G1 X141.576 Y84.568 E.041
G1 X141.714 Y85.333 E.02437
G1 X141.702 Y93.772 E.2646
G1 X139.956 Y110.367 E.5232
G1 X135.149 Y137.97 E.8785
G1 X134.549 Y139.133 E.04103
G1 X132.992 Y139.783 E.0529
G1 X114.992 Y139.783 E.56438
G1 X113.744 Y139.392 E.04101
G1 X112.815 Y137.818 E.05731
G1 X108.297 Y93.767 E1.38843
G1 X108.286 Y85.333 E.26444
G1 X108.659 Y84.142 E.03913
M204 S1000
;WIPE_START
G1 F8640
G1 X108.677 Y84.084 E-.01402
G1 X109.709 Y83.282 E-.30179
G1 X110.474 Y83.144 E-.17949
G1 X112.66 Y83.144 E-.5047
;WIPE_END
G1 Z.4 F720
; printing object SchubstangeAPressB.stl id:0 copy 0
G1 X119.864 Y136.386 F10800
G1 Z.2 F720
G1 E1 F2100
M204 S800
;TYPE:Perimeter
;WIDTH:0.419999
G1 F1200
G1 X119.705 Y136.808 E.01414
G1 X115.78 Y136.808 E.12307
M73 Q2 S13
G1 X115.78 Y133.382 E.10742
G1 X119.705 Y133.382 E.12307
M73 P2 R13
G1 X119.882 Y133.852 E.01575
G1 X120.029 Y133.953 E.00559
G1 X120.271 Y134.007 E.00777
G1 X127.714 Y134.007 E.23337
G1 X127.956 Y133.953 E.00777
G1 X128.103 Y133.852 E.00559
G1 X128.28 Y133.382 E.01575
G1 X132.205 Y133.382 E.12307
G1 X132.205 Y135.095 E.05371
G1 X132.205 Y136.808 E.05371
G1 X128.28 Y136.808 E.12307
G1 X128.103 Y136.337 E.01578
G1 X127.956 Y136.237 E.00557
G1 X127.714 Y136.182 E.00778
G1 X120.271 Y136.182 E.23337
G1 X120.029 Y136.237 E.00778
G1 X119.889 Y136.333 E.00532
M204 S1000
G1 X119.889 Y136.333 F10800
G1 X120.148 Y136.645
M204 S800
;TYPE:External perimeter
G1 F1200
G1 X120.082 Y136.748 E.00384
G1 X120.082 Y137.185 E.0137
G1 X115.402 Y137.185 E.14674
G1 X115.402 Y133.005 E.13106
G1 X120.082 Y133.005 E.14674
G1 X120.082 Y133.442 E.0137
G1 X120.141 Y133.578 E.00465
G1 X120.271 Y133.63 E.00439
G1 X127.714 Y133.63 E.23337
G1 X127.795 Y133.612 E.0026
G1 X127.902 Y133.442 E.0063
G1 X127.902 Y133.005 E.0137
G1 X132.582 Y133.005 E.14674
G1 X132.582 Y135.095 E.06553
G1 X132.582 Y137.185 E.06553
G1 X127.902 Y137.185 E.14674
G1 X127.902 Y136.748 E.0137
G1 X127.844 Y136.611 E.00466
G1 X127.714 Y136.559 E.00439
G1 X120.271 Y136.559 E.23337
G1 X120.19 Y136.577 E.0026
G1 X120.18 Y136.594 E.00062
M204 S1000
;WIPE_START
G1 F8640
G1 X120.148 Y136.645 E-.0139
G1 X120.082 Y136.748 E-.02825
G1 X120.082 Y137.185 E-.1009
G1 X116.371 Y137.185 E-.85695
;WIPE_END
G1 Z.4 F720
G1 X132.036 Y134.316 F10800
G1 Z.2 F720
G1 E1 F2100
M204 S800
;TYPE:Solid infill
;WIDTH:0.420993
G1 F1200
G1 X131.441 Y133.721 E.02645
G1 X130.906 Y133.721 E.01682
G1 X131.866 Y134.681 E.04268
G1 X131.866 Y135.216 E.01682
G1 X130.372 Y133.721 E.06644
G1 X129.837 Y133.721 E.01682
G1 X131.866 Y135.75 E.09021
G1 X131.866 Y136.285 E.01682
G1 X129.302 Y133.721 E.11399
G1 X128.768 Y133.721 E.01679
G1 X131.515 Y136.468 E.12213
G1 X130.98 Y136.468 E.01682
G1 X128.428 Y133.916 E.11346
G1 X128.354 Y134.089 E.00592
G1 X128.183 Y134.206 E.00651
G1 X130.445 Y136.468 E.10057
G1 X129.911 Y136.468 E.01679
G1 X127.778 Y134.336 E.09481
G1 X127.254 Y134.347 E.01648
G1 X129.376 Y136.468 E.09432
G1 X128.841 Y136.468 E.01682
G1 X126.72 Y134.347 E.0943
G1 X126.185 Y134.347 E.01682
G1 X127.681 Y135.843 E.06651
G1 X127.147 Y135.843 E.01679
G1 X125.65 Y134.347 E.06653
G1 X125.116 Y134.347 E.01679
G1 X126.612 Y135.843 E.06651
G1 X126.078 Y135.843 E.01679
G1 X124.581 Y134.347 E.06653
G1 X124.046 Y134.347 E.01682
G1 X125.543 Y135.844 E.06655
G1 X125.009 Y135.844 E.01679
G1 X123.512 Y134.347 E.06655
G1 X122.977 Y134.347 E.01682
G1 X124.474 Y135.844 E.06655
G1 X123.94 Y135.844 E.01679
G1 X122.442 Y134.347 E.06658
G1 X121.908 Y134.347 E.01679
G1 X123.405 Y135.844 E.06655
G1 X122.871 Y135.845 E.01679
G1 X121.373 Y134.347 E.0666
G1 X120.838 Y134.347 E.01682
M73 Q3 S13
G1 X122.336 Y135.845 E.0666
G1 X121.802 Y135.845 E.01679
G1 X120.304 Y134.347 E.0666
M73 P3 R13
G1 X119.886 Y134.264 E.0134
G1 X119.631 Y134.089 E.00972
G1 X119.473 Y133.721 E.01259
G1 X119.143 Y133.721 E.01037
G1 X121.267 Y135.845 E.09443
G1 X120.733 Y135.845 E.01679
G1 X118.609 Y133.721 E.09443
G1 X118.074 Y133.721 E.01682
G1 X120.199 Y135.846 E.09447
G1 X119.884 Y135.928 E.01023
G1 X119.802 Y135.984 E.00312
G1 X117.539 Y133.721 E.10061
G1 X117.005 Y133.721 E.01679
G1 X119.557 Y136.273 E.11346
G1 X119.473 Y136.468 E.00667
G1 X119.217 Y136.468 E.00805
G1 X116.47 Y133.721 E.12213
G1 X116.119 Y133.721 E.01103
G1 X116.119 Y133.905 E.00578
G1 X118.682 Y136.468 E.11395
G1 X118.148 Y136.468 E.01679
G1 X116.119 Y134.439 E.09021
G1 X116.119 Y134.974 E.01682
G1 X117.613 Y136.468 E.06642
G1 X117.078 Y136.468 E.01682
G1 X116.119 Y135.509 E.04264
G1 X116.119 Y136.043 E.01679
G1 X116.713 Y136.638 E.02643
M204 S1000
;WIPE_START
G1 F8640
G1 X116.119 Y136.043 E-.19413
G1 X116.119 Y135.509 E-.1233
G1 X117.078 Y136.468 E-.31316
G1 X117.613 Y136.468 E-.12353
G1 X116.86 Y135.715 E-.24588
;WIPE_END
G1 Z.4 F720
; stop printing object SchubstangeAPressB.stl id:0 copy 0
; printing object SchubstangeAPressB.stl id:1 copy 0
G1 X139.526 Y93.544 F10800
G1 Z.2 F720
G1 E1 F2100
M204 S800
;TYPE:Support material
;WIDTH:0.42
G1 F1200
G1 X138.37 Y93.544 E.03625
G1 X138.37 Y92.756 E.02471
G1 X138.036 Y92.422 E.01481
G1 X126.684 Y92.422 E.35593
G1 X126.684 Y85.333 E.22227
G1 X139.526 Y85.333 E.40265
G1 X139.526 Y93.487 E.25566
M204 S1000
G1 X139.526 Y93.487 F10800
G1 X138.826 Y93.374
M204 S800
G1 F1200
G1 X138.826 Y85.672 E.24149
G1 X138.407 Y85.672 E.01314
G1 X138.407 Y92.313 E.20822
G1 X138.177 Y92.082 E.01022
G1 X137.988 Y92.082 E.00593
G1 X137.988 Y85.672 E.20098
G1 X137.569 Y85.672 E.01314
G1 X137.569 Y92.082 E.20098
G1 X137.15 Y92.082 E.01314
G1 X137.15 Y85.672 E.20098
G1 X136.731 Y85.672 E.01314
G1 X136.731 Y92.082 E.20098
G1 X136.312 Y92.082 E.01314
G1 X136.312 Y85.672 E.20098
G1 X135.893 Y85.672 E.01314
G1 X135.893 Y92.082 E.20098
G1 X135.474 Y92.082 E.01314
M73 Q4 S13
G1 X135.474 Y85.672 E.20098
G1 X135.055 Y85.672 E.01314
M73 P4 R13
G1 X135.055 Y92.082 E.20098
G1 X134.636 Y92.082 E.01314
G1 X134.636 Y85.672 E.20098
G1 X134.217 Y85.672 E.01314
G1 X134.217 Y92.082 E.20098
G1 X133.799 Y92.082 E.01311
G1 X133.799 Y85.672 E.20098
G1 X133.38 Y85.672 E.01314
G1 X133.38 Y92.082 E.20098
G1 X132.961 Y92.082 E.01314
G1 X132.961 Y85.672 E.20098
G1 X132.542 Y85.672 E.01314
G1 X132.542 Y92.082 E.20098
G1 X132.123 Y92.082 E.01314
G1 X132.123 Y85.672 E.20098
G1 X131.704 Y85.672 E.01314
G1 X131.704 Y92.082 E.20098
G1 X131.285 Y92.082 E.01314
G1 X131.285 Y85.672 E.20098
G1 X130.866 Y85.672 E.01314
G1 X130.866 Y92.082 E.20098
G1 X130.447 Y92.082 E.01314
G1 X130.447 Y85.672 E.20098
G1 X130.028 Y85.672 E.01314
G1 X130.028 Y92.082 E.20098
G1 X129.609 Y92.082 E.01314
G1 X129.609 Y85.672 E.20098
G1 X129.19 Y85.672 E.01314
G1 X129.19 Y92.082 E.20098
G1 X128.771 Y92.082 E.01314
G1 X128.771 Y85.672 E.20098
G1 X128.352 Y85.672 E.01314
G1 X128.352 Y92.082 E.20098
G1 X127.933 Y92.082 E.01314
G1 X127.933 Y85.672 E.20098
G1 X127.514 Y85.672 E.01314
G1 X127.514 Y92.082 E.20098
G1 X127.095 Y92.082 E.01314
G1 X127.095 Y85.502 E.20631
M204 S1000
;WIPE_START
G1 F8640
G1 X127.095 Y89.833 E-1
;WIPE_END
G1 Z.4 F720
G1 X123.316 Y92.422 F10800
G1 Z.2 F720
G1 E1 F2100
M204 S800
G1 F1200
G1 X111.964 Y92.422 E.35593
G1 X111.63 Y92.756 E.01481
M73 P5 R13
M73 Q5 S13
G1 X111.63 Y93.544 E.02471
G1 X110.474 Y93.544 E.03625
G1 X110.474 Y85.333 E.25745
G1 X123.316 Y85.333 E.40265
G1 X123.316 Y92.365 E.22048
M204 S1000
G1 X123.316 Y92.365 F10800
G1 X122.905 Y92.252
M204 S800
G1 F1200
G1 X122.905 Y85.672 E.20631
G1 X122.486 Y85.672 E.01314
G1 X122.486 Y92.082 E.20098
G1 X122.067 Y92.082 E.01314
G1 X122.067 Y85.672 E.20098
G1 X121.648 Y85.672 E.01314
G1 X121.648 Y92.082 E.20098
G1 X121.229 Y92.082 E.01314
G1 X121.229 Y85.672 E.20098
G1 X120.81 Y85.672 E.01314
G1 X120.81 Y92.082 E.20098
G1 X120.391 Y92.082 E.01314
G1 X120.391 Y85.672 E.20098
G1 X119.972 Y85.672 E.01314
G1 X119.972 Y92.082 E.20098
M73 P5 R12
G1 X119.553 Y92.082 E.01314
G1 X119.553 Y85.672 E.20098
G1 X119.134 Y85.672 E.01314
G1 X119.134 Y92.082 E.20098
G1 X118.715 Y92.082 E.01314
G1 X118.715 Y85.672 E.20098
G1 X118.296 Y85.672 E.01314
G1 X118.296 Y92.082 E.20098
G1 X117.877 Y92.082 E.01314
G1 X117.877 Y85.672 E.20098
G1 X117.458 Y85.672 E.01314
G1 X117.458 Y92.082 E.20098
G1 X117.039 Y92.082 E.01314
G1 X117.039 Y85.672 E.20098
G1 X116.62 Y85.672 E.01314
G1 X116.62 Y92.082 E.20098
G1 X116.201 Y92.082 E.01314
G1 X116.201 Y85.672 E.20098
G1 X115.783 Y85.672 E.01311
G1 X115.783 Y92.082 E.20098
G1 X115.364 Y92.082 E.01314
M73 Q6 S13
G1 X115.364 Y85.672 E.20098
G1 X114.945 Y85.672 E.01314
M73 P6 R12
G1 X114.945 Y92.082 E.20098
G1 X114.526 Y92.082 E.01314
G1 X114.526 Y85.672 E.20098
G1 X114.107 Y85.672 E.01314
G1 X114.107 Y92.082 E.20098
G1 X113.688 Y92.082 E.01314
G1 X113.688 Y85.672 E.20098
G1 X113.269 Y85.672 E.01314
G1 X113.269 Y92.082 E.20098
G1 X112.85 Y92.082 E.01314
G1 X112.85 Y85.672 E.20098
G1 X112.431 Y85.672 E.01314
M73 Q6 S12
G1 X112.431 Y92.082 E.20098
G1 X112.012 Y92.082 E.01314
G1 X112.012 Y85.672 E.20098
G1 X111.593 Y85.672 E.01314
G1 X111.593 Y92.313 E.20822
G1 X111.291 Y92.615 E.01339
G1 X111.291 Y93.204 E.01847
G1 X111.174 Y93.204 E.00367
G1 X111.174 Y85.502 E.24149
M204 S1000
;WIPE_START
G1 F8640
G1 X111.174 Y89.833 E-1
;WIPE_END
G1 Z.4 F720
G1 X134.181 Y109.384 F10800
G1 Z.2 F720
G1 E1 F2100
M204 S800
;TYPE:Perimeter
;WIDTH:0.419999
G1 F1200
G1 X134.073 Y109.516 E.00535
G1 X134.013 Y109.77 E.00818
G1 X134.013 Y119.205 E.29583
G1 X115.987 Y119.205 E.56519
G1 X115.981 Y109.69 E.29834
G1 X115.867 Y109.422 E.00913
G1 X115.648 Y109.252 E.00869
G1 X115.421 Y109.205 E.00727
G1 X112.987 Y109.205 E.07632
G1 X112.987 Y93.779 E.48367
G1 X137.013 Y93.779 E.75332
G1 X137.013 Y102.803 E.28294
M73 P7 R12
M73 Q7 S12
G1 X137.013 Y109.205 E.20073
G1 X134.579 Y109.205 E.07632
G1 X134.448 Y109.22 E.00413
G1 X134.229 Y109.326 E.00763
G1 X134.219 Y109.338 E.00049
M204 S1000
G1 X134.219 Y109.338 F10800
G1 X134.434 Y109.669
M204 S800
;TYPE:External perimeter
G1 F1200
G1 X134.39 Y109.77 E.00345
G1 X134.39 Y119.582 E.30765
G1 X115.61 Y119.582 E.58883
G1 X115.61 Y109.77 E.30765
G1 X115.57 Y109.654 E.00385
G1 X115.421 Y109.582 E.00519
G1 X112.61 Y109.582 E.08814
G1 X112.61 Y93.402 E.50731
G1 X137.39 Y93.402 E.77696
G1 X137.39 Y102.803 E.29476
G1 X137.39 Y109.582 E.21255
G1 X134.579 Y109.582 E.08814
G1 X134.469 Y109.625 E.0037
M204 S1000
;WIPE_START
G1 F8640
G1 X134.434 Y109.669 E-.01298
G1 X134.39 Y109.77 E-.02544
G1 X134.39 Y113.934 E-.96158
;WIPE_END
G1 Z.4 F720
G1 X136.843 Y94.72 F10800
G1 Z.2 F720
G1 E1 F2100
M204 S800
;TYPE:Solid infill
;WIDTH:0.424328
G1 F1200
G1 X136.241 Y94.118 E.027
G1 X135.702 Y94.118 E.01709
G1 X136.674 Y95.09 E.04359
G1 X136.674 Y95.629 E.01709
G1 X135.163 Y94.118 E.06777
G1 X134.623 Y94.118 E.01713
G1 X136.674 Y96.168 E.09197
G1 X136.674 Y96.708 E.01713
G1 X134.084 Y94.118 E.11616
G1 X133.545 Y94.118 E.01709
G1 X136.674 Y97.247 E.14034
G1 X136.674 Y97.787 E.01713
G1 X133.005 Y94.118 E.16456
G1 X132.466 Y94.118 E.01709
M73 P8 R12
M73 Q8 S12
G1 X136.674 Y98.326 E.18873
G1 X136.674 Y98.865 E.01709
G1 X131.926 Y94.118 E.21293
G1 X131.387 Y94.118 E.01709
G1 X136.674 Y99.405 E.23713
G1 X136.674 Y99.944 E.01709
G1 X130.848 Y94.118 E.2613
G1 X130.308 Y94.118 E.01713
G1 X136.674 Y100.484 E.28552
G1 X136.674 Y101.023 E.01709
G1 X129.769 Y94.118 E.30969
G1 X129.229 Y94.118 E.01713
G1 X136.674 Y101.562 E.33389
G1 X136.674 Y102.102 E.01713
G1 X128.69 Y94.118 E.35809
G1 X128.151 Y94.118 E.01709
G1 X136.674 Y102.641 E.38226
G1 X136.674 Y103.181 E.01713
G1 X127.611 Y94.118 E.40648
G1 X127.072 Y94.118 E.01709
G1 X136.674 Y103.72 E.43066
G1 X136.674 Y104.259 E.01709
G1 X126.532 Y94.118 E.45485
G1 X125.993 Y94.118 E.01709
G1 X136.674 Y104.799 E.47905
G1 X136.674 Y105.338 E.01709
G1 X125.454 Y94.118 E.50322
G1 X124.914 Y94.118 E.01713
M73 P9 R12
G1 X136.674 Y105.878 E.52744
M73 Q9 S12
G1 X136.674 Y106.417 E.01709
G1 X124.375 Y94.118 E.55162
G1 X123.835 Y94.118 E.01713
G1 X136.674 Y106.956 E.57582
G1 X136.674 Y107.496 E.01713
G1 X123.296 Y94.118 E.60001
G1 X122.757 Y94.118 E.01709
G1 X136.674 Y108.035 E.62419
G1 X136.674 Y108.574 E.01709
G1 X122.217 Y94.118 E.64838
G1 X121.678 Y94.118 E.01709
G1 X136.425 Y108.865 E.66141
G1 X135.886 Y108.865 E.01709
G1 X121.138 Y94.118 E.66144
G1 X120.599 Y94.118 E.01709
G1 X135.346 Y108.865 E.66141
G1 X134.807 Y108.865 E.01709
M73 P10 R12
M73 Q10 S12
G1 X120.06 Y94.118 E.66141
G1 X119.52 Y94.118 E.01713
G1 X134.313 Y108.911 E.66348
G1 X134.106 Y108.997 E.00711
G1 X133.967 Y109.104 E.00556
G1 X118.981 Y94.118 E.67213
G1 X118.442 Y94.118 E.01709
G1 X133.748 Y109.425 E.68651
G1 X133.707 Y109.521 E.00331
G1 X133.674 Y109.89 E.01175
G1 X117.902 Y94.118 E.70738
G1 X117.363 Y94.118 E.01709
G1 X133.674 Y110.429 E.73156
G1 X133.674 Y110.968 E.01709
G1 X116.823 Y94.118 E.75576
G1 X116.284 Y94.118 E.01709
M73 P11 R12
M73 Q11 S12
G1 X133.674 Y111.508 E.77995
G1 X133.674 Y112.047 E.01709
G1 X115.745 Y94.118 E.80413
G1 X115.205 Y94.118 E.01713
G1 X133.674 Y112.587 E.82835
G1 X133.674 Y113.126 E.01709
G1 X114.666 Y94.118 E.85252
G1 X114.126 Y94.118 E.01713
G1 X133.674 Y113.665 E.87672
G1 X133.674 Y114.205 E.01713
G1 X113.587 Y94.118 E.90092
G1 X113.326 Y94.118 E.00828
M73 P12 R12
M73 Q12 S12
G1 X113.326 Y94.397 E.00885
G1 X133.674 Y114.744 E.9126
G1 X133.674 Y115.284 E.01713
G1 X113.326 Y94.936 E.91262
G1 X113.326 Y95.476 E.01713
G1 X133.674 Y115.823 E.9126
G1 X133.674 Y116.362 E.01709
G1 X113.326 Y96.015 E.9126
G1 X113.326 Y96.555 E.01713
G1 X133.674 Y116.902 E.9126
G1 X133.674 Y117.441 E.01709
M73 P12 R11
G1 X113.326 Y97.094 E.9126
G1 X113.326 Y97.633 E.01709
M73 P13 R11
M73 Q13 S12
G1 X133.674 Y117.981 E.91262
G1 X133.674 Y118.52 E.01709
G1 X113.326 Y98.173 E.9126
G1 X113.326 Y98.712 E.01709
G1 X133.48 Y118.865 E.9039
G1 X132.94 Y118.865 E.01713
M73 Q13 S11
G1 X113.326 Y99.252 E.87968
G1 X113.326 Y99.791 E.01709
G1 X132.401 Y118.865 E.8555
G1 X131.861 Y118.865 E.01713
