; generated by PrusaSlicer 2.8.1+win64 on 2025-01-29 at 18:41:44 UTC


;
;
; 

; external perimeters extrusion width = 0.60mm
; perimeters extrusion width = 0.50mm
; infill extrusion width = 0.50mm
; solid infill extrusion width = 0.50mm
; top infill extrusion width = 0.45mm
; support material extrusion width = 0.38mm
; first layer extrusion width = 0.42mm

M73 P0 R39
M73 Q0 S39
M201 X1000 Y1000 Z200 E5000 ; sets maximum accelerations, mm/sec^2
M203 X200 Y200 Z12 E120 ; sets maximum feedrates, mm / sec
M204 S1250 T1250 ; sets acceleration (S) and retract acceleration (R), mm/sec^2
M205 X8.00 Y8.00 Z0.40 E4.50 ; sets the jerk limits, mm/sec
M205 S0 T0 ; sets the minimum extruding and travel feed rate, mm/sec

; printing object SchubstangeAPress.stl id:0 copy 0
; stop printing object SchubstangeAPress.stl id:0 copy 0

;TYPE:Custom
M862.3 P "MK3S" ; printer model check
M862.1 P0.4 ; nozzle diameter check
M115 U3.14.0 ; tell printer latest fw version
G90 ; use absolute coordinates
M83 ; extruder relative mode
M104 S235 ; set extruder temp
M140 S80 ; set bed temp
M190 S80 ; wait for bed temp
M109 S235 ; wait for extruder temp
G28 W ; home all without mesh bed level
G80 X108.097 Y62.6253 W32.08 H83.2518 ; mesh bed levelling

G1 Z0.2 F720
G1 Y-3 F1000 ; go outside print area
G92 E0
G1 X60 E9 F1000 ; intro line
G1 X100 E12.5 F1000 ; intro line

G92 E0
M221 S95

; Don't change E values below. Excessive value can damage the printer.

M907 E538 ; set extruder motor current
G21 ; set units to millimeters
G90 ; use absolute coordinates
M83 ; use relative distances for extrusion

M900 K0.08 ; Filament gcode LA 1.5
M900 K45 ; Filament gcode LA 1.0




M107
;LAYER_CHANGE
;Z:0.2
;HEIGHT:0.2
G1 E-1 F2100
G1 Z.4 F720
G1 X108.677 Y63.754 F10800
G1 Z.2 F720
G1 E1 F2100
M204 S800
;TYPE:Skirt/Brim
;WIDTH:0.42
G1 F1200
G1 X109.709 Y62.952 E.04098
G1 X110.474 Y62.814 E.02437
G1 X137.21 Y62.814 E.83829
G1 X138.458 Y63.205 E.04101
G1 X139.392 Y64.831 E.05879
G1 X139.989 Y72.5 E.24118
G1 X139.989 Y143.5 E2.22616
G1 X139.598 Y144.748 E.04101
G1 X138.565 Y145.551 E.04102
G1 X137.8 Y145.689 E.02437
G1 X112.2 Y145.689 E.80267
G1 X110.952 Y145.298 E.04101
G1 X110.149 Y144.265 E.04102
G1 X110.012 Y143.554 E.0227
G1 X108.286 Y73.267 E2.20446
G1 X108.286 Y65.002 E.25914
G1 X108.659 Y63.811 E.03913
M204 S1000
;WIPE_START
G1 F8640
G1 X108.677 Y63.754 E-.0138
G1 X109.709 Y62.952 E-.30179
G1 X110.474 Y62.814 E-.17949
G1 X112.661 Y62.814 E-.50492
;WIPE_END
G1 Z.4 F720
; printing object SchubstangeAPress.stl id:0 copy 0
G1 X137.21 Y71.93 F10800
G1 Z.2 F720
G1 E1 F2100
M204 S800
;TYPE:Support material
G1 F1200
G1 X129.37 Y71.93 E.24582
G1 X129.37 Y66.264 E.17765
G1 X129.036 Y65.93 E.01481
G1 X126.915 Y65.93 E.0665
G1 X125.987 Y65.002 E.04115
G1 X137.21 Y65.002 E.35189
G1 X137.21 Y71.873 E.21544
M204 S1000
G1 X137.21 Y71.873 F10800
G1 X136.731 Y71.76
M204 S800
G1 F1200
G1 X136.731 Y65.342 E.20123
G1 X136.312 Y65.342 E.01314
G1 X136.312 Y71.591 E.19593
G1 X135.893 Y71.591 E.01314
G1 X135.893 Y65.342 E.19593
G1 X135.474 Y65.342 E.01314
G1 X135.474 Y71.591 E.19593
G1 X135.055 Y71.591 E.01314
G1 X135.055 Y65.342 E.19593
G1 X134.636 Y65.342 E.01314
G1 X134.636 Y71.591 E.19593
G1 X134.217 Y71.591 E.01314
G1 X134.217 Y65.342 E.19593
G1 X133.799 Y65.342 E.01311
G1 X133.799 Y71.591 E.19593
G1 X133.38 Y71.591 E.01314
G1 X133.38 Y65.342 E.19593
G1 X132.961 Y65.342 E.01314
M73 Q1 S39
G1 X132.961 Y71.591 E.19593
G1 X132.542 Y71.591 E.01314
M73 P1 R39
G1 X132.542 Y65.342 E.19593
G1 X132.123 Y65.342 E.01314
G1 X132.123 Y71.591 E.19593
G1 X131.704 Y71.591 E.01314
G1 X131.704 Y65.342 E.19593
G1 X131.285 Y65.342 E.01314
G1 X131.285 Y71.591 E.19593
G1 X130.866 Y71.591 E.01314
G1 X130.866 Y65.342 E.19593
G1 X130.447 Y65.342 E.01314
G1 X130.447 Y71.591 E.19593
G1 X130.028 Y71.591 E.01314
G1 X130.028 Y65.342 E.19593
G1 X129.609 Y65.342 E.01314
G1 X129.609 Y66.023 E.02135
G1 X129.19 Y65.604 E.01858
G1 X129.19 Y65.342 E.00821
G1 X128.771 Y65.342 E.01314
G1 X128.771 Y65.591 E.00781
G1 X128.352 Y65.591 E.01314
G1 X128.352 Y65.342 E.00781
G1 X127.933 Y65.342 E.01314
G1 X127.933 Y65.591 E.00781
G1 X127.514 Y65.591 E.01314
G1 X127.514 Y65.342 E.00781
G1 X127.095 Y65.342 E.01314
G1 X127.095 Y65.76 E.01311
M204 S1000
;WIPE_START
G1 F8640
G1 X127.095 Y65.342 E-.09652
G1 X127.514 Y65.342 E-.09675
G1 X127.514 Y65.591 E-.05749
G1 X127.933 Y65.591 E-.09675
G1 X127.933 Y65.342 E-.05749
G1 X128.352 Y65.342 E-.09675
G1 X128.352 Y65.591 E-.05749
G1 X128.771 Y65.591 E-.09675
G1 X128.771 Y65.342 E-.05749
G1 X129.19 Y65.342 E-.09675
G1 X129.19 Y65.604 E-.0605
G1 X129.586 Y66 E-.12927
;WIPE_END
G1 Z.4 F720
G1 X123.085 Y65.93 F10800
G1 Z.2 F720
G1 E1 F2100
M204 S800
G1 F1200
G1 X120.964 Y65.93 E.0665
G1 X120.63 Y66.264 E.01481
G1 X120.63 Y71.93 E.17765
G1 X111.964 Y71.93 E.27172
G1 X111.63 Y72.264 E.01481
G1 X111.63 Y73.213 E.02976
G1 X110.474 Y73.213 E.03625
G1 X110.474 Y65.002 E.25745
G1 X124.013 Y65.002 E.42451
G1 X123.125 Y65.89 E.03938
M204 S1000
G1 X123.125 Y65.89 F10800
G1 X122.905 Y65.76
M204 S800
G1 F1200
G1 X122.905 Y65.342 E.01311
G1 X122.486 Y65.342 E.01314
G1 X122.486 Y65.591 E.00781
G1 X122.067 Y65.591 E.01314
G1 X122.067 Y65.342 E.00781
G1 X121.648 Y65.342 E.01314
G1 X121.648 Y65.591 E.00781
G1 X121.229 Y65.591 E.01314
G1 X121.229 Y65.342 E.00781
G1 X120.81 Y65.342 E.01314
G1 X120.81 Y65.604 E.00821
G1 X120.391 Y66.023 E.01858
G1 X120.391 Y65.342 E.02135
G1 X119.972 Y65.342 E.01314
G1 X119.972 Y71.591 E.19593
G1 X119.553 Y71.591 E.01314
G1 X119.553 Y65.342 E.19593
G1 X119.134 Y65.342 E.01314
G1 X119.134 Y71.591 E.19593
G1 X118.715 Y71.591 E.01314
G1 X118.715 Y65.342 E.19593
G1 X118.296 Y65.342 E.01314
G1 X118.296 Y71.591 E.19593
G1 X117.877 Y71.591 E.01314
G1 X117.877 Y65.342 E.19593
G1 X117.458 Y65.342 E.01314
G1 X117.458 Y71.591 E.19593
G1 X117.039 Y71.591 E.01314
G1 X117.039 Y65.342 E.19593
G1 X116.62 Y65.342 E.01314
G1 X116.62 Y71.591 E.19593
G1 X116.201 Y71.591 E.01314
G1 X116.201 Y65.342 E.19593
G1 X115.783 Y65.342 E.01311
G1 X115.783 Y71.591 E.19593
G1 X115.364 Y71.591 E.01314
G1 X115.364 Y65.342 E.19593
G1 X114.945 Y65.342 E.01314
G1 X114.945 Y71.591 E.19593
G1 X114.526 Y71.591 E.01314
G1 X114.526 Y65.342 E.19593
G1 X114.107 Y65.342 E.01314
G1 X114.107 Y71.591 E.19593
G1 X113.688 Y71.591 E.01314
G1 X113.688 Y65.342 E.19593
G1 X113.269 Y65.342 E.01314
G1 X113.269 Y71.591 E.19593
G1 X112.85 Y71.591 E.01314
G1 X112.85 Y65.342 E.19593
G1 X112.431 Y65.342 E.01314
G1 X112.431 Y71.591 E.19593
G1 X112.012 Y71.591 E.01314
G1 X112.012 Y65.342 E.19593
G1 X111.593 Y65.342 E.01314
G1 X111.593 Y71.821 E.20314
G1 X111.291 Y72.123 E.01339
G1 X111.291 Y72.874 E.02355
G1 X111.174 Y72.874 E.00367
G1 X111.174 Y65.172 E.24149
M204 S1000
;WIPE_START
G1 F8640
G1 X111.174 Y69.503 E-1
;WIPE_END
G1 Z.4 F720
G1 X123.453 Y70.019 F10800
G1 Z.2 F720
G1 E1 F2100
M204 S800
;TYPE:External perimeter
;WIDTH:0.419999
G1 F1200
G1 X123.363 Y69.542 E.01522
G1 X123.441 Y69 E.01717
G1 X123.68 Y68.531 E.0165
G1 X124.036 Y68.176 E.01576
G1 X124.526 Y67.933 E.01715
G1 X125.025 Y67.863 E.0158
G1 X125.345 Y67.899 E.0101
G1 X125.835 Y68.092 E.01651
G1 X126.253 Y68.446 E.01717
G1 X126.522 Y68.896 E.01644
G1 X126.633 Y69.388 E.01581
G1 X126.592 Y69.89 E.01579
G1 X126.373 Y70.391 E.01714
G1 X126.003 Y70.795 E.01718
G1 X125.565 Y71.039 E.01572
G1 X125.083 Y71.137 E.01542
G1 X124.563 Y71.078 E.01641
G1 X124.104 Y70.87 E.0158
G1 X123.717 Y70.517 E.01642
G1 X123.471 Y70.076 E.01583
M204 S1000
;WIPE_START
G1 F8640
G1 X123.453 Y70.019 E-.0138
G1 X123.363 Y69.542 E-.11208
G1 X123.441 Y69 E-.12644
G1 X123.68 Y68.531 E-.12154
G1 X124.036 Y68.176 E-.11609
G1 X124.526 Y67.933 E-.12629
G1 X125.025 Y67.863 E-.11635
G1 X125.345 Y67.899 E-.07435
G1 X125.835 Y68.092 E-.1216
G1 X126.071 Y68.292 E-.07146
;WIPE_END
G1 Z.4 F720
G1 X124.486 Y67.418 F10800
G1 Z.2 F720
G1 E1 F2100
M204 S800
;TYPE:Perimeter
;WIDTH:0.681184
G1 F1200
G1 X124.767 Y67.402 E.01494
;WIDTH:0.649156
G1 X125.048 Y67.386 E.01419
;WIDTH:0.647924
G1 X125.357 Y67.401 E.01556
M204 S1000
;WIPE_START
G1 F8640
G1 X124.486 Y67.418 E-.20115
G1 X124.767 Y67.402 E-.06499
G1 X125.048 Y67.386 E-.06499
G1 X125.357 Y67.401 E-.07143
;WIPE_END
G1 E-.59744 F2100
G1 Z.4 F720
G1 X128.193 Y73.11 F10800
G1 Z.2 F720
G1 E1 F2100
M204 S800
;WIDTH:0.419999
G1 F1200
G1 X128.309 Y73.219 E.00499
G1 X128.579 Y73.287 E.00873
G1 X137.013 Y73.287 E.26444
G1 X137.013 Y81.721 E.26444
G1 X137.013 Y142.713 E1.91236
G1 X112.987 Y142.713 E.75332
M73 P1 R38
G1 X112.987 Y73.287 E2.1768
G1 X121.421 Y73.287 E.26444
M73 P2 R38
M73 Q2 S39
G1 X121.548 Y73.273 E.00401
G1 X121.784 Y73.155 E.00827
G1 X121.942 Y72.942 E.00832
G1 X121.987 Y72.721 E.00707
G1 X121.987 Y67.287 E.17038
G1 X123.527 Y67.287 E.04829
;WIDTH:0.464986
G1 X123.783 Y67.31 E.00902
;WIDTH:0.509973
G1 X124.039 Y67.332 E.00998
;WIDTH:0.55496
G1 X124.295 Y67.355 E.01094
;WIDTH:0.597035
G1 X124.359 Y67.376 E.0031
;WIDTH:0.63911
G1 X124.423 Y67.397 E.00334
;WIDTH:0.681184
G1 X124.486 Y67.418 E.00352
G1 X124.436 Y67.456 E.00333
;WIDTH:0.63911
G1 X124.385 Y67.494 E.00315
;WIDTH:0.597035
G1 X124.335 Y67.531 E.00287
;WIDTH:0.55496
G1 X124.148 Y67.656 E.00958
;WIDTH:0.509973
G1 X123.962 Y67.78 E.00868
;WIDTH:0.464986
G1 X123.775 Y67.904 E.00787
;WIDTH:0.419999
G1 X123.348 Y68.353 E.01943
G1 X123.069 Y68.94 E.02038
G1 X122.991 Y69.605 E.02099
G1 X123.128 Y70.236 E.02025
G1 X123.458 Y70.791 E.02025
G1 X123.942 Y71.211 E.02009
G1 X124.518 Y71.452 E.01958
G1 X125.182 Y71.504 E.02088
G1 X125.784 Y71.352 E.01947
G1 X126.333 Y71.006 E.02035
G1 X126.752 Y70.488 E.02089
G1 X126.97 Y69.903 E.01957
G1 X126.995 Y69.237 E.0209
G1 X126.819 Y68.642 E.01945
G1 X126.451 Y68.108 E.02033
G1 X125.913 Y67.708 E.02102
;WIDTH:0.465584
G1 X125.802 Y67.646 E.00447
;WIDTH:0.511169
G1 X125.69 Y67.585 E.00497
;WIDTH:0.556754
G1 X125.579 Y67.524 E.00541
;WIDTH:0.602339
G1 X125.468 Y67.462 E.00591
;WIDTH:0.647924
G1 X125.357 Y67.401 E.00637
G1 X125.483 Y67.378 E.00644
;WIDTH:0.602339
G1 X125.609 Y67.355 E.00596
;WIDTH:0.556754
G1 X125.736 Y67.333 E.00551
;WIDTH:0.511169
G1 X125.862 Y67.31 E.00499
;WIDTH:0.465584
G1 X125.988 Y67.287 E.0045
;WIDTH:0.419999
G1 X128.013 Y67.287 E.06349
G1 X128.02 Y72.81 E.17317
G1 X128.1 Y73.023 E.00713
G1 X128.15 Y73.069 E.00213
M204 S1000
G1 X128.15 Y73.069 F10800
G1 X128.477 Y72.868
M204 S800
;TYPE:External perimeter
G1 F1200
G1 X128.579 Y72.91 E.00346
G1 X137.39 Y72.91 E.27626
G1 X137.39 Y81.721 E.27626
G1 X137.39 Y143.09 E1.92418
G1 X112.61 Y143.09 E.77696
G1 X112.61 Y72.91 E2.20044
M73 Q2 S38
G1 X121.421 Y72.91 E.27626
G1 X121.542 Y72.866 E.00404
G1 X121.61 Y72.721 E.00502
G1 X121.61 Y66.91 E.1822
G1 X128.39 Y66.91 E.21258
G1 X128.39 Y72.721 E.1822
G1 X128.435 Y72.832 E.00376
M204 S1000
;WIPE_START
G1 F8640
G1 X128.477 Y72.868 E-.01277
G1 X128.579 Y72.91 E-.02547
G1 X132.744 Y72.91 E-.96176
;WIPE_END
G1 Z.4 F720
G1 X136.843 Y74.22 F10800
G1 Z.2 F720
G1 E1 F2100
M204 S800
;TYPE:Solid infill
;WIDTH:0.42024
G1 F1200
G1 X136.25 Y73.626 E.02633
G1 X135.717 Y73.626 E.01672
G1 X136.674 Y74.583 E.04246
G1 X136.674 Y75.117 E.01675
G1 X135.183 Y73.626 E.06616
G1 X134.649 Y73.626 E.01675
G1 X136.674 Y75.651 E.08985
G1 X136.674 Y76.184 E.01672
G1 X134.116 Y73.626 E.1135
G1 X133.582 Y73.626 E.01675
G1 X136.674 Y76.718 E.13719
G1 X136.674 Y77.252 E.01675
G1 X133.048 Y73.626 E.16089
G1 X132.515 Y73.626 E.01672
G1 X136.674 Y77.785 E.18453
G1 X136.674 Y78.319 E.01675
G1 X131.981 Y73.626 E.20823
G1 X131.448 Y73.626 E.01672
G1 X136.674 Y78.852 E.23188
G1 X136.674 Y79.386 E.01675
G1 X130.914 Y73.626 E.25557
G1 X130.38 Y73.626 E.01675
G1 X136.674 Y79.92 E.27926
G1 X136.674 Y80.453 E.01672
G1 X129.847 Y73.626 E.30291
G1 X129.313 Y73.626 E.01675
G1 X136.674 Y80.987 E.32661
G1 X136.674 Y81.52 E.01672
G1 X128.61 Y73.457 E.35778
M204 S1000
;WIPE_START
G1 F8640
G1 X131.672 Y76.519 E-1
;WIPE_END
G1 Z.4 F720
G1 X127.843 Y67.888 F10800
G1 Z.2 F720
G1 E1 F2100
M204 S800
G1 F1200
G1 X127.582 Y67.626 E.0116
G1 X127.048 Y67.626 E.01675
G1 X127.674 Y68.252 E.02778
G1 X127.674 Y68.785 E.01672
G1 X126.515 Y67.626 E.05142
G1 X126.398 Y67.626 E.00367
G1 X126.675 Y67.853 E.01124
G1 X126.855 Y68.057 E.00854
G1 X127.114 Y68.473 E.01537
G1 X127.215 Y68.713 E.00817
G1 X127.263 Y68.908 E.0063
G1 X127.674 Y69.319 E.01824
G1 X127.674 Y69.852 E.01672
G1 X127.34 Y69.519 E.0148
G1 X127.292 Y70.004 E.01529
G1 X127.674 Y70.386 E.01695
G1 X127.674 Y70.92 E.01675
G1 X127.157 Y70.403 E.02294
G1 X127.06 Y70.632 E.0078
G1 X126.98 Y70.759 E.00471
G1 X127.674 Y71.453 E.03079
G1 X127.674 Y71.987 E.01675
G1 X126.742 Y71.055 E.04135
G1 X126.579 Y71.24 E.00774
G1 X126.476 Y71.323 E.00415
G1 X127.843 Y72.69 E.06065
M204 S1000
;WIPE_START
G1 F8640
G1 X126.476 Y71.323 E-.44639
G1 X126.579 Y71.24 E-.03054
G1 X126.742 Y71.055 E-.05693
G1 X127.674 Y71.987 E-.30434
G1 X127.674 Y71.453 E-.1233
G1 X127.556 Y71.335 E-.0385
;WIPE_END
G1 Z.4 F720
G1 X126.028 Y71.409 F10800
G1 Z.2 F720
G1 E1 F2100
M204 S800
G1 F1200
G1 X136.674 Y82.054 E.47234
G1 X136.674 Y82.588 E.01675
G1 X125.796 Y71.71 E.48266
G1 X125.365 Y71.813 E.0139
G1 X136.674 Y83.121 E.50176
G1 X136.674 Y83.655 E.01675
G1 X124.658 Y71.639 E.53315
M204 S1000
;WIPE_START
G1 F8640
G1 X127.72 Y74.701 E-1
;WIPE_END
G1 Z.4 F720
G1 X123.561 Y67.874 F10800
G1 Z.2 F720
G1 E1 F2100
M204 S800
G1 F1200
G1 X123.313 Y67.626 E.011
G1 X122.78 Y67.626 E.01672
M73 P3 R38
G1 X123.175 Y68.022 E.01755
G1 X123.054 Y68.182 E.00629
G1 X122.966 Y68.347 E.00587
M73 Q3 S38
G1 X122.326 Y67.707 E.0284
G1 X122.326 Y68.24 E.01672
G1 X122.792 Y68.706 E.02068
G1 X122.735 Y68.874 E.00557
G1 X122.696 Y69.144 E.00856
G1 X122.326 Y68.774 E.01642
G1 X122.326 Y69.307 E.01672
G1 X122.865 Y69.846 E.02392
M204 S1000
G1 X122.865 Y69.846 F10800
G1 X122.156 Y69.671
M204 S800
G1 F1200
G1 X122.798 Y70.313 E.02849
G1 X123.054 Y70.817 E.01774
G1 X123.215 Y71.029 E.00835
G1 X123.571 Y71.366 E.01538
G1 X123.786 Y71.513 E.00817
G1 X124.189 Y71.704 E.01399
G1 X136.674 Y84.188 E.55394
G1 X136.674 Y84.722 E.01675
G1 X122.325 Y70.374 E.63664
G1 X122.325 Y70.907 E.01672
G1 X136.674 Y85.256 E.63666
G1 X136.674 Y85.789 E.01672
G1 X122.325 Y71.44 E.63666
G1 X122.324 Y71.974 E.01675
G1 X136.674 Y86.323 E.63669
G1 X136.674 Y86.857 E.01675
G1 X122.324 Y72.507 E.63671
G1 X122.324 Y72.799 E.00916
G1 X122.277 Y72.993 E.00626
G1 X136.674 Y87.39 E.63879
G1 X136.674 Y87.924 E.01675
G1 X122.081 Y73.331 E.64749
G1 X122.005 Y73.415 E.00355
G1 X121.85 Y73.52 E.00587
G1 X121.767 Y73.551 E.00278
G1 X136.674 Y88.457 E.6614
G1 X136.674 Y88.991 E.01675
G1 X121.309 Y73.626 E.68174
G1 X120.775 Y73.626 E.01675
G1 X136.674 Y89.525 E.70544
G1 X136.674 Y90.058 E.01672
G1 X120.242 Y73.626 E.72909
G1 X119.708 Y73.626 E.01675
G1 X136.674 Y90.592 E.75278
G1 X136.674 Y91.125 E.01672
G1 X119.175 Y73.626 E.77643
G1 X118.641 Y73.626 E.01675
G1 X136.674 Y91.659 E.80012
G1 X136.674 Y92.193 E.01675
G1 X118.107 Y73.626 E.82382
G1 X117.574 Y73.626 E.01672
G1 X136.674 Y92.726 E.84747
G1 X136.674 Y93.26 E.01675
G1 X117.04 Y73.626 E.87116
G1 X116.507 Y73.626 E.01672
G1 X136.674 Y93.793 E.89481
G1 X136.674 Y94.327 E.01675
G1 X115.973 Y73.626 E.9185
G1 X115.439 Y73.626 E.01675
M73 P4 R38
M73 Q4 S38
G1 X136.674 Y94.861 E.9422
G1 X136.674 Y95.394 E.01672
G1 X114.906 Y73.626 E.96584
G1 X114.372 Y73.626 E.01675
G1 X136.674 Y95.928 E.98954
G1 X136.674 Y96.462 E.01675
G1 X113.838 Y73.626 E1.01323
G1 X113.326 Y73.626 E.01606
G1 X113.326 Y73.648 E.00069
G1 X136.674 Y96.995 E1.03593
G1 X136.674 Y97.529 E.01675
M73 P4 R37
G1 X113.326 Y74.182 E1.03593
G1 X113.326 Y74.715 E.01672
G1 X136.674 Y98.062 E1.03593
G1 X136.674 Y98.596 E.01675
G1 X113.326 Y75.249 E1.03593
G1 X113.326 Y75.782 E.01672
G1 X136.674 Y99.13 E1.03595
G1 X136.674 Y99.663 E.01672
G1 X113.326 Y76.316 E1.03593
G1 X113.326 Y76.85 E.01675
G1 X136.674 Y100.197 E1.03593
G1 X136.674 Y100.73 E.01672
G1 X113.326 Y77.383 E1.03593
G1 X113.326 Y77.917 E.01675
M73 Q4 S37
G1 X136.674 Y101.264 E1.03593
G1 X136.674 Y101.798 E.01675
G1 X113.326 Y78.451 E1.03593
G1 X113.326 Y78.984 E.01672
M73 P5 R37
G1 X136.674 Y102.331 E1.03593
G1 X136.674 Y102.865 E.01675
M73 Q5 S37
G1 X113.326 Y79.518 E1.03593
