; generated by PrusaSlicer 2.8.1+win64 on 2025-01-29 at 19:11:43 UTC


;
;
; 

; external perimeters extrusion width = 0.60mm
; perimeters extrusion width = 0.50mm
; infill extrusion width = 0.50mm
; solid infill extrusion width = 0.50mm
; top infill extrusion width = 0.45mm
; support material extrusion width = 0.38mm
; first layer extrusion width = 0.42mm

M73 P0 R16
M73 Q0 S16
M201 X1000 Y1000 Z200 E5000 ; sets maximum accelerations, mm/sec^2
M203 X200 Y200 Z12 E120 ; sets maximum feedrates, mm / sec
M204 S1250 T1250 ; sets acceleration (S) and retract acceleration (R), mm/sec^2
M205 X8.00 Y8.00 Z0.40 E4.50 ; sets the jerk limits, mm/sec
M205 S0 T0 ; sets the minimum extruding and travel feed rate, mm/sec

; printing object SliderhalterpressB.stl id:0 copy 0
; stop printing object SliderhalterpressB.stl id:0 copy 0

;TYPE:Custom
M862.3 P "MK3S" ; printer model check
M862.1 P0.4 ; nozzle diameter check
M115 U3.14.0 ; tell printer latest fw version
G90 ; use absolute coordinates
M83 ; extruder relative mode
M104 S235 ; set extruder temp
M140 S80 ; set bed temp
M190 S80 ; wait for bed temp
M109 S235 ; wait for extruder temp
G28 W ; home all without mesh bed level
G80 X105.623 Y77.1229 W38.7542 H55.7542 ; mesh bed levelling

G1 Z0.2 F720
G1 Y-3 F1000 ; go outside print area
G92 E0
G1 X60 E9 F1000 ; intro line
G1 X100 E12.5 F1000 ; intro line

G92 E0
M221 S95

; Don't change E values below. Excessive value can damage the printer.

M907 E538 ; set extruder motor current
G21 ; set units to millimeters
G90 ; use absolute coordinates
M83 ; use relative distances for extrusion

M900 K0.08 ; Filament gcode LA 1.5
M900 K45 ; Filament gcode LA 1.0




M107
;LAYER_CHANGE
;Z:0.2
;HEIGHT:0.2
G1 E-1 F2100
G1 Z.4 F720
G1 X106.202 Y78.252 F10800
G1 Z.2 F720
G1 E1 F2100
M204 S800
;TYPE:Skirt/Brim
;WIDTH:0.42
G1 F1200
G1 X107.235 Y77.449 E.04102
G1 X108 Y77.311 E.02437
G1 X142 Y77.311 E1.06605
G1 X143.248 Y77.702 E.04101
G1 X144.051 Y78.735 E.04102
G1 X144.189 Y79.5 E.02437
G1 X144.189 Y130.5 E1.59907
G1 X143.798 Y131.748 E.04101
M73 P1 R16
M73 Q1 S16
G1 X142.765 Y132.551 E.04102
G1 X142 Y132.689 E.02437
G1 X108 Y132.689 E1.06605
G1 X106.752 Y132.298 E.04101
G1 X105.949 Y131.265 E.04102
G1 X105.811 Y130.5 E.02437
G1 X105.811 Y79.5 E1.59907
G1 X106.184 Y78.309 E.03913
M204 S1000
;WIPE_START
G1 F8640
G1 X106.202 Y78.252 E-.0138
G1 X107.235 Y77.449 E-.30211
G1 X108 Y77.311 E-.17949
G1 X110.185 Y77.311 E-.5046
;WIPE_END
G1 Z.4 F720
; printing object SliderhalterpressB.stl id:0 copy 0
G1 X141.838 Y130.284 F10800
G1 Z.2 F720
G1 E1 F2100
M204 S800
;TYPE:External perimeter
;WIDTH:0.38292
G1 F1200
G1 X141.774 Y130.321 E.00209
G1 X141.838 Y130.358 E.00209
G1 X141.859 Y130.321 E.0012
M204 S1000
;WIPE_START
G1 F8640
G1 X141.838 Y130.284 E-.00982
G1 X141.774 Y130.321 E-.01707
G1 X141.838 Y130.358 E-.01707
G1 X141.859 Y130.321 E-.00982
;WIPE_END
G1 E-.94622 F2100
G1 Z.4 F720
G1 X108.201 Y130.283 F10800
G1 Z.2 F720
G1 E1 F2100
M204 S800
G1 F1200
G1 X108.137 Y130.32 E.00209
G1 X108.201 Y130.357 E.00209
G1 X108.222 Y130.32 E.0012
M204 S1000
;WIPE_START
G1 F8640
G1 X108.201 Y130.283 E-.00982
G1 X108.137 Y130.32 E-.01707
G1 X108.201 Y130.357 E-.01707
G1 X108.222 Y130.32 E-.00982
;WIPE_END
G1 E-.94622 F2100
G1 Z.4 F720
G1 X112.799 Y97.008 F10800
G1 Z.2 F720
G1 E1 F2100
M204 S800
;TYPE:Perimeter
;WIDTH:0.416901
G1 F1200
G1 X112.646 Y96.74 E.0096
;WIDTH:0.419999
G1 X112.325 Y96.323 E.0165
G1 X111.949 Y95.981 E.01594
G1 X111.594 Y95.743 E.0134
G1 X111.135 Y95.524 E.01595
G1 X110.726 Y95.399 E.01341
G1 X110.106 Y95.318 E.0196
G1 X109.447 Y95.378 E.02075
G1 X108.953 Y95.552 E.01642
G1 X108.692 Y95.706 E.0095
G1 X108.783 Y94.72 E.03105
G1 X108.787 Y80.287 E.45254
G1 X112.713 Y80.287 E.1231
G1 X112.713 Y96.623 E.5122
M73 Q2 S16
G1 X112.786 Y96.949 E.01047
M73 P2 R15
M204 S1000
G1 X112.786 Y96.949 F10800
G1 X112.799 Y97.008
M204 S800
;WIDTH:0.41503
G1 F1200
G1 X112.854 Y97.092 E.00311
M204 S1000
;WIPE_START
G1 F8640
G1 X112.799 Y97.008 E-.02318
G1 X112.854 Y97.092 E-.02318
;WIPE_END
G1 E-.95364 F2100
G1 Z.4 F720
G1 X137.201 Y97.008 F10800
G1 Z.2 F720
G1 E1 F2100
M204 S800
;WIDTH:0.419999
G1 F1200
G1 X137.287 Y96.623 E.01237
G1 X137.287 Y80.287 E.5122
G1 X141.213 Y80.287 E.1231
G1 X141.22 Y94.773 E.4542
G1 X141.308 Y95.713 E.0296
G1 X140.729 Y95.426 E.02026
G1 X140.23 Y95.329 E.01594
G1 X139.776 Y95.323 E.01424
G1 X139.274 Y95.399 E.01592
G1 X138.865 Y95.524 E.01341
G1 X138.406 Y95.743 E.01595
G1 X138.051 Y95.981 E.0134
G1 X137.675 Y96.323 E.01594
G1 X137.451 Y96.587 E.01086
G1 X137.232 Y96.956 E.01345
M204 S1000
G1 X137.232 Y96.956 F10800
G1 X137.097 Y97.122
M204 S800
;WIDTH:0.41957
G1 F1200
G1 X137.148 Y97.089 E.0019
;WIDTH:0.414561
G1 X137.146 Y97.092 E.00011
;WIDTH:0.419999
G1 X136.955 Y97.587 E.01664
G1 X136.842 Y98.088 E.0161
G1 X136.816 Y98.593 E.01585
G1 X136.858 Y99.021 E.01348
G1 X136.98 Y99.513 E.01589
G1 X137.144 Y99.91 E.01347
G1 X137.404 Y100.345 E.01589
G1 X137.675 Y100.677 E.01344
G1 X138.051 Y101.019 E.01594
G1 X138.406 Y101.257 E.0134
G1 X138.865 Y101.476 E.01595
G1 X139.274 Y101.601 E.01341
G1 X139.894 Y101.682 E.0196
G1 X140.399 Y101.653 E.01586
G1 X140.937 Y101.487 E.01765
G1 X141.304 Y101.297 E.01296
G1 X141.231 Y102.116 E.02578
G1 X141.213 Y102.809 E.02174
G1 X141.213 Y123.659 E.65374
G1 X141.24 Y125.202 E.04839
G1 X141.306 Y125.714 E.01619
G1 X140.732 Y125.427 E.02012
G1 X140.233 Y125.329 E.01594
G1 X139.779 Y125.323 E.01424
G1 X139.17 Y125.425 E.01936
G1 X138.596 Y125.642 E.01924
G1 X138.054 Y125.979 E.02001
G1 X137.604 Y126.401 E.01934
G1 X137.246 Y126.901 E.01928
G1 X136.982 Y127.481 E.01998
G1 X136.842 Y128.086 E.01947
G1 X136.821 Y128.614 E.01657
G1 X136.924 Y129.221 E.0193
G1 X137.219 Y129.818 E.02088
G1 X136.779 Y129.745 E.01398
G1 X136.266 Y129.718 E.01611
G1 X130.787 Y129.713 E.17179
G1 X130.787 Y100.821 E.90589
G1 X130.764 Y100.12 E.02199
G1 X130.674 Y99.939 E.00634
G1 X130.488 Y99.779 E.00769
G1 X130.221 Y99.713 E.00862
G1 X119.779 Y99.713 E.3274
G1 X119.512 Y99.779 E.00862
G1 X119.326 Y99.939 E.00769
G1 X119.236 Y100.12 E.00634
G1 X119.213 Y100.279 E.00504
G1 X119.213 Y129.713 E.92288
G1 X113.678 Y129.721 E.17355
G1 X112.785 Y129.81 E.02814
M73 Q3 S16
G1 X113.076 Y129.221 E.0206
G1 X113.179 Y128.614 E.0193
G1 X113.141 Y127.972 E.02016
G1 X112.98 Y127.377 E.01933
G1 X112.697 Y126.806 E.01998
G1 X112.322 Y126.319 E.01927
G1 X111.945 Y125.978 E.01594
M73 P3 R15
G1 X111.59 Y125.74 E.0134
G1 X111.027 Y125.485 E.01938
G1 X110.323 Y125.338 E.02255
G1 X109.767 Y125.329 E.01744
G1 X109.154 Y125.462 E.01967
G1 X108.694 Y125.714 E.01645
G1 X108.76 Y125.197 E.01634
G1 X108.787 Y123.693 E.04716
G1 X108.787 Y102.794 E.65527
G1 X108.76 Y101.798 E.03124
G1 X108.695 Y101.289 E.01609
G1 X109.271 Y101.574 E.02015
G1 X109.77 Y101.671 E.01594
G1 X110.224 Y101.677 E.01424
G1 X110.726 Y101.601 E.01592
G1 X111.135 Y101.476 E.01341
G1 X111.594 Y101.257 E.01595
G1 X111.949 Y101.019 E.0134
G1 X112.325 Y100.677 E.01594
G1 X112.596 Y100.345 E.01344
G1 X112.856 Y99.91 E.01589
G1 X113.02 Y99.513 E.01347
G1 X113.142 Y99.021 E.01589
G1 X113.184 Y98.593 E.01348
G1 X113.158 Y98.088 E.01585
G1 X113.045 Y97.587 E.0161
G1 X112.854 Y97.092 E.01664
;WIDTH:0.419574
G1 X113.123 Y97.265 E.01002
;WIDTH:0.419999
G1 X113.279 Y97.287 E.00494
G1 X136.317 Y97.287 E.72234
G1 X136.877 Y97.265 E.01757
M73 Q3 S15
;WIDTH:0.41957
G1 X137.047 Y97.155 E.00634
M204 S1000
G1 X137.047 Y97.155 F10800
G1 X137.148 Y97.089
M204 S800
;WIDTH:0.414522
G1 F1200
G1 X137.201 Y97.008 E.00299
M204 S1000
G1 X137.201 Y97.008 F10800
G1 X136.863 Y96.824
M204 S800
;TYPE:External perimeter
;WIDTH:0.419999
G1 F1200
G1 X136.91 Y96.721 E.00355
G1 X136.91 Y79.91 E.5271
G1 X141.59 Y79.91 E.14674
G1 X141.595 Y94.738 E.46492
G1 X141.688 Y95.723 E.03102
G1 X141.788 Y96.234 E.01633
G1 X141.769 Y96.608 E.01174
G1 X141.154 Y96.058 E.02587
G1 X140.657 Y95.796 E.01762
G1 X140.123 Y95.696 E.01703
G1 X139.601 Y95.731 E.0164
G1 X139.027 Y95.865 E.01848
G1 X138.568 Y96.083 E.01593
G1 X138.305 Y96.26 E.00994
G1 X137.91 Y96.622 E.0168
G1 X137.519 Y97.198 E.02183
G1 X137.346 Y97.578 E.01309
G1 X137.218 Y98.107 E.01707
G1 X137.193 Y98.612 E.01585
G1 X137.224 Y98.93 E.01002
G1 X137.346 Y99.422 E.01589
G1 X137.468 Y99.716 E.00998
G1 X137.727 Y100.152 E.0159
G1 X137.929 Y100.398 E.00998
G1 X138.305 Y100.74 E.01594
G1 X138.568 Y100.917 E.00994
G1 X139.027 Y101.135 E.01593
G1 X139.33 Y101.228 E.00994
G1 X139.872 Y101.306 E.01717
G1 X140.377 Y101.276 E.01586
G1 X140.812 Y101.131 E.01438
G1 X141.142 Y100.951 E.01179
G1 X141.369 Y100.718 E.0102
G1 X141.769 Y100.393 E.01616
G1 X141.788 Y100.777 E.01205
G1 X141.657 Y101.501 E.02307
G1 X141.608 Y102.126 E.01966
G1 X141.59 Y102.809 E.02142
G1 X141.59 Y123.982 E.66386
G1 X141.619 Y125.212 E.03858
G1 X141.784 Y126.172 E.03054
G1 X141.769 Y126.607 E.01365
G1 X141.165 Y126.067 E.0254
G1 X140.659 Y125.797 E.01798
G1 X140.16 Y125.699 E.01594
G1 X139.835 Y125.696 E.01019
G1 X139.297 Y125.78 E.01707
G1 X138.789 Y125.965 E.01695
G1 X138.307 Y126.258 E.01769
G1 X137.907 Y126.626 E.01704
G1 X137.586 Y127.063 E.017
G1 X137.348 Y127.573 E.01765
G1 X137.219 Y128.102 E.01707
G1 X137.201 Y128.674 E.01794
G1 X137.314 Y129.202 E.01693
G1 X137.563 Y129.661 E.01637
G1 X137.781 Y129.865 E.00936
G1 X138.11 Y130.27 E.01636
G1 X137.724 Y130.289 E.01212
G1 X136.781 Y130.124 E.03002
G1 X136.265 Y130.095 E.0162
G1 X130.41 Y130.09 E.18358
G1 X130.41 Y100.279 E.9347
G1 X130.372 Y100.165 E.00377
G1 X130.221 Y100.09 E.00529
G1 X119.779 Y100.09 E.3274
G1 X119.628 Y100.165 E.00529
M73 P4 R15
M73 Q4 S15
G1 X119.59 Y100.279 E.00377
G1 X119.59 Y130.09 E.9347
G1 X113.716 Y130.096 E.18417
G1 X112.787 Y130.189 E.02927
G1 X112.296 Y130.284 E.01568
G1 X111.89 Y130.27 E.01274
G1 X112.437 Y129.661 E.02567
G1 X112.706 Y129.148 E.01816
G1 X112.803 Y128.63 E.01652
G1 X112.775 Y128.064 E.01777
G1 X112.639 Y127.538 E.01703
G1 X112.394 Y127.031 E.01766
G1 X112.068 Y126.599 E.01697
G1 X111.692 Y126.257 E.01594
G1 X111.429 Y126.081 E.00992
G1 X110.935 Y125.851 E.01709
G1 X110.346 Y125.716 E.01895
G1 X109.84 Y125.699 E.01587
G1 X109.286 Y125.817 E.01776
G1 X108.835 Y126.067 E.01617
G1 X108.63 Y126.284 E.00936
G1 X108.231 Y126.607 E.0161
G1 X108.212 Y126.223 E.01205
G1 X108.314 Y125.711 E.01637
G1 X108.383 Y125.19 E.01648
G1 X108.41 Y123.697 E.04682
G1 X108.41 Y103.022 E.64825
G1 X108.381 Y101.788 E.0387
G1 X108.216 Y100.828 E.03054
G1 X108.231 Y100.393 E.01365
G1 X108.846 Y100.942 E.02585
G1 X109.343 Y101.204 E.01762
G1 X109.842 Y101.301 E.01594
G1 X110.167 Y101.304 E.01019
G1 X110.67 Y101.228 E.01595
G1 X110.973 Y101.135 E.00994
G1 X111.432 Y100.917 E.01593
G1 X111.695 Y100.74 E.00994
G1 X112.071 Y100.398 E.01594
G1 X112.273 Y100.152 E.00998
G1 X112.532 Y99.716 E.0159
G1 X112.654 Y99.422 E.00998
G1 X112.776 Y98.93 E.01589
G1 X112.807 Y98.612 E.01002
G1 X112.776 Y98.07 E.01702
G1 X112.645 Y97.552 E.01675
G1 X112.323 Y96.933 E.02188
G1 X112.071 Y96.602 E.01304
G1 X111.695 Y96.26 E.01594
G1 X111.432 Y96.083 E.00994
G1 X110.973 Y95.865 E.01593
G1 X110.67 Y95.772 E.00994
G1 X110.128 Y95.694 E.01717
G1 X109.572 Y95.734 E.01748
G1 X109.078 Y95.908 E.01642
G1 X108.86 Y96.048 E.00812
G1 X108.631 Y96.282 E.01027
G1 X108.231 Y96.608 E.01618
G1 X108.212 Y96.234 E.01174
G1 X108.288 Y95.842 E.01252
G1 X108.406 Y94.72 E.03537
G1 X108.41 Y79.91 E.46436
G1 X113.09 Y79.91 E.14674
G1 X113.09 Y96.623 E.52402
G1 X113.136 Y96.845 E.00711
G1 X113.279 Y96.91 E.00493
G1 X136.721 Y96.91 E.73501
G1 X136.83 Y96.87 E.00364
M204 S1000
;WIPE_START
G1 F8640
G1 X136.863 Y96.824 E-.01307
G1 X136.91 Y96.721 E-.02614
G1 X136.91 Y92.56 E-.96079
;WIPE_END
G1 Z.4 F720
G1 X136.696 Y97.976 F10800
G1 Z.2 F720
G1 E1 F2100
M204 S800
;TYPE:Solid infill
;WIDTH:0.420458
G1 F1200
G1 X136.342 Y97.622 E.01572
G1 X135.808 Y97.622 E.01676
G1 X136.491 Y98.305 E.03032
G1 X136.477 Y98.588 E.00889
G1 X136.502 Y98.85 E.00826
G1 X135.274 Y97.622 E.05452
G1 X134.74 Y97.622 E.01676
G1 X136.904 Y99.786 E.09607
M204 S1000
;WIPE_START
G1 F8640
G1 X134.74 Y97.622 E-.70665
G1 X135.274 Y97.622 E-.1233
G1 X135.795 Y98.143 E-.17005
;WIPE_END
G1 Z.4 F720
G1 X140.519 Y101.8 F10800
G1 Z.2 F720
G1 E1 F2100
M204 S800
G1 F1200
G1 X140.897 Y102.177 E.01676
G1 X140.878 Y102.692 E.01618
G1 X140.185 Y101.999 E.03077
G1 X139.739 Y102.015 E.01401
G1 X139.652 Y102 E.00277
G1 X140.874 Y103.222 E.05425
G1 X140.874 Y103.756 E.01676
G1 X138.704 Y101.586 E.09634
M204 S1000
;WIPE_START
G1 F8640
G1 X140.874 Y103.756 E-.7086
G1 X140.874 Y103.222 E-.1233
G1 X140.359 Y102.707 E-.1681
;WIPE_END
G1 Z.4 F720
G1 X141.043 Y104.459 F10800
G1 Z.2 F720
G1 E1 F2100
M204 S800
G1 F1200
G1 X134.207 Y97.622 E.30351
G1 X133.673 Y97.622 E.01676
M73 P5 R15
M73 Q5 S15
G1 X140.874 Y104.824 E.31971
G1 X140.874 Y105.358 E.01676
G1 X133.139 Y97.623 E.3434
G1 X132.605 Y97.623 E.01676
G1 X140.874 Y105.891 E.36708
G1 X140.874 Y106.425 E.01676
G1 X132.071 Y97.623 E.39079
G1 X131.537 Y97.623 E.01676
G1 X140.874 Y106.959 E.4145
G1 X140.874 Y107.493 E.01676
G1 X131.004 Y97.623 E.43818
G1 X130.47 Y97.623 E.01676
G1 X140.874 Y108.027 E.46189
G1 X140.874 Y108.561 E.01676
G1 X129.936 Y97.623 E.4856
G1 X129.402 Y97.623 E.01676
G1 X140.874 Y109.095 E.50931
G1 X140.874 Y109.629 E.01676
G1 X128.868 Y97.623 E.53301
G1 X128.335 Y97.624 E.01673
G1 X130.085 Y99.374 E.07769
G1 X130.24 Y99.374 E.00487
G1 X130.647 Y99.475 E.01316
G1 X130.946 Y99.731 E.01236
G1 X131.091 Y100.022 E.01021
G1 X131.126 Y100.268 E.0078
G1 X131.126 Y100.415 E.00461
G1 X140.874 Y110.163 E.43277
G1 X140.874 Y110.697 E.01676
G1 X131.126 Y100.949 E.43277
G1 X131.126 Y101.483 E.01676
G1 X140.874 Y111.231 E.43277
G1 X140.874 Y111.765 E.01676
M73 P6 R15
M73 Q6 S15
G1 X131.126 Y102.017 E.43277
G1 X131.126 Y102.551 E.01676
G1 X140.874 Y112.298 E.43275
G1 X140.874 Y112.832 E.01676
G1 X131.126 Y103.085 E.43275
G1 X131.126 Y103.619 E.01676
G1 X140.874 Y113.366 E.43275
G1 X140.874 Y113.9 E.01676
G1 X131.126 Y104.153 E.43275
G1 X131.126 Y104.687 E.01676
G1 X140.874 Y114.434 E.43275
G1 X140.874 Y114.968 E.01676
G1 X131.126 Y105.221 E.43275
G1 X131.126 Y105.755 E.01676
G1 X140.874 Y115.502 E.43275
G1 X140.874 Y116.036 E.01676
G1 X131.126 Y106.289 E.43275
G1 X131.126 Y106.822 E.01673
G1 X140.874 Y116.57 E.43277
G1 X140.874 Y117.104 E.01676
G1 X131.126 Y107.356 E.43277
G1 X131.126 Y107.89 E.01676
G1 X140.874 Y117.638 E.43277
G1 X140.874 Y118.172 E.01676
G1 X131.126 Y108.424 E.43277
G1 X131.126 Y108.958 E.01676
G1 X140.874 Y118.705 E.43275
G1 X140.874 Y119.239 E.01676
M73 P7 R15
M73 Q7 S15
G1 X131.126 Y109.492 E.43275
G1 X131.126 Y110.026 E.01676
G1 X140.874 Y119.773 E.43275
G1 X140.874 Y120.307 E.01676
G1 X131.126 Y110.56 E.43275
G1 X131.126 Y111.094 E.01676
G1 X140.874 Y120.841 E.43275
G1 X140.874 Y121.375 E.01676
G1 X131.126 Y111.628 E.43275
G1 X131.126 Y112.162 E.01676
G1 X140.874 Y121.909 E.43275
G1 X140.874 Y122.443 E.01676
G1 X131.126 Y112.696 E.43275
G1 X131.126 Y113.229 E.01673
G1 X140.874 Y122.977 E.43277
G1 X140.874 Y123.511 E.01676
G1 X131.126 Y113.763 E.43277
G1 X131.126 Y114.297 E.01676
G1 X140.874 Y124.045 E.43277
G1 X140.889 Y124.594 E.01724
G1 X131.126 Y114.831 E.43343
G1 X131.126 Y115.365 E.01676
G1 X140.88 Y125.119 E.43303
G1 X140.22 Y124.993 E.02109
G1 X131.126 Y115.899 E.40373
G1 X131.126 Y116.433 E.01676
M73 P8 R15
G1 X139.687 Y124.994 E.38007
G1 X139.223 Y125.063 E.01473
M73 Q8 S15
G1 X131.126 Y116.967 E.35945
G1 X131.126 Y117.501 E.01676
M73 P8 R14
G1 X138.82 Y125.195 E.34158
G1 X138.434 Y125.343 E.01298
G1 X131.126 Y118.035 E.32444
G1 X131.126 Y118.569 E.01676
G1 X138.1 Y125.543 E.30961
G1 X137.958 Y125.628 E.0052
G1 X137.794 Y125.77 E.00681
G1 X131.126 Y119.103 E.29601
G1 X131.126 Y119.637 E.01676
G1 X137.508 Y126.018 E.28331
G1 X137.442 Y126.076 E.00276
G1 X137.262 Y126.306 E.00917
G1 X131.126 Y120.17 E.27241
G1 X131.126 Y120.704 E.01676
G1 X137.028 Y126.606 E.26202
G1 X136.846 Y126.958 E.01244
G1 X131.126 Y121.238 E.25394
G1 X131.126 Y121.772 E.01676
G1 X136.678 Y127.324 E.24648
G1 X136.566 Y127.746 E.01371
G1 X131.126 Y122.306 E.24151
G1 X131.126 Y122.84 E.01676
G1 X136.506 Y128.22 E.23885
G1 X136.481 Y128.608 E.01221
G1 X136.491 Y128.739 E.00412
