; generated by PrusaSlicer 2.8.1+win64 on 2025-01-29 at 18:31:17 UTC


;
;
; 

; external perimeters extrusion width = 0.60mm
; perimeters extrusion width = 0.50mm
; infill extrusion width = 0.50mm
; solid infill extrusion width = 0.50mm
; top infill extrusion width = 0.45mm
; first layer extrusion width = 0.42mm

M73 P0 R10
M73 Q0 S10
M201 X1000 Y1000 Z200 E5000 ; sets maximum accelerations, mm/sec^2
M203 X200 Y200 Z12 E120 ; sets maximum feedrates, mm / sec
M204 S1250 T1250 ; sets acceleration (S) and retract acceleration (R), mm/sec^2
M205 X8.00 Y8.00 Z0.40 E4.50 ; sets the jerk limits, mm/sec
M205 S0 T0 ; sets the minimum extruding and travel feed rate, mm/sec

; printing object Sliderhalterpress.stl id:0 copy 0
; stop printing object Sliderhalterpress.stl id:0 copy 0

;TYPE:Custom
M862.3 P "MK3S" ; printer model check
M862.1 P0.4 ; nozzle diameter check
M115 U3.14.0 ; tell printer latest fw version
G90 ; use absolute coordinates
M83 ; extruder relative mode
M104 S235 ; set extruder temp
M140 S80 ; set bed temp
M190 S80 ; wait for bed temp
M109 S235 ; wait for extruder temp
G28 W ; home all without mesh bed level
G80 X109.746 Y87.9958 W30.5083 H34.0083 ; mesh bed levelling

G1 Z0.2 F720
G1 Y-3 F1000 ; go outside print area
G92 E0
G1 X60 E9 F1000 ; intro line
G1 X100 E12.5 F1000 ; intro line

G92 E0
M221 S95

; Don't change E values below. Excessive value can damage the printer.

M907 E538 ; set extruder motor current
G21 ; set units to millimeters
G90 ; use absolute coordinates
M83 ; use relative distances for extrusion

M900 K0.08 ; Filament gcode LA 1.5
M900 K45 ; Filament gcode LA 1.0




M107
;LAYER_CHANGE
;Z:0.2
;HEIGHT:0.2
G1 E-1 F2100
M73 P1 R10
G1 Z.4 F720
M73 Q1 S10
G1 X110.327 Y89.387 F10800
G1 Z.2 F720
G1 E1 F2100
M204 S800
;TYPE:Skirt/Brim
;WIDTH:0.42
G1 F1200
G1 X111.383 Y88.44 E.04447
G1 X112.5 Y88.184 E.03593
G1 X137.5 Y88.184 E.78386
G1 X138.863 Y88.577 E.04448
G1 X139.81 Y89.633 E.04447
G1 X140.066 Y90.75 E.03593
G1 X140.063 Y117.362 E.8344
G1 X139.974 Y118.153 E.02496
G1 X139.75 Y118.916 E.02493
G1 X139.396 Y119.629 E.02496
G1 X138.924 Y120.269 E.02493
G1 X138.209 Y120.924 E.0304
G1 X137.327 Y121.433 E.03193
G1 X136.403 Y121.724 E.03037
G1 X135.5 Y121.816 E.02846
G1 X114.214 Y121.806 E.66741
G1 X113.427 Y121.687 E.02496
G1 X112.673 Y121.433 E.02495
G1 X112.106 Y121.136 E.02007
G1 X111.481 Y120.674 E.02437
G1 X110.826 Y119.959 E.0304
G1 X110.317 Y119.077 E.03193
G1 X110.026 Y118.153 E.03037
G1 X109.937 Y117.362 E.02496
G1 X109.934 Y90.75 E.8344
G1 X110.31 Y89.444 E.04261
M73 P2 R10
M73 Q2 S10
M204 S1000
G1 X110.31 Y89.444 F10800
G1 X110.684 Y89.561
M204 S800
G1 F1200
G1 X110.702 Y89.502 E.00193
G1 X111.735 Y88.699 E.04102
G1 X112.5 Y88.561 E.02437
G1 X137.5 Y88.561 E.78386
G1 X138.748 Y88.952 E.04101
G1 X139.551 Y89.985 E.04102
G1 X139.689 Y90.75 E.02437
G1 X139.689 Y117.25 E.83089
G1 X139.606 Y118.071 E.02587
G1 X139.401 Y118.772 E.0229
G1 X139.078 Y119.426 E.02287
G1 X138.646 Y120.014 E.02288
G1 X137.979 Y120.625 E.02836
G1 X137.183 Y121.085 E.02883
G1 X136.321 Y121.356 E.02833
G1 X135.5 Y121.439 E.02587
G1 X114.23 Y121.429 E.66691
G1 X113.509 Y121.319 E.02287
G1 X112.817 Y121.085 E.0229
G1 X111.736 Y120.396 E.04019
G1 X111.125 Y119.729 E.02836
G1 X110.665 Y118.933 E.02883
G1 X110.394 Y118.071 E.02833
G1 X110.314 Y117.345 E.0229
G1 X110.311 Y90.75 E.83387
G1 X110.666 Y89.619 E.03717
M73 P3 R10
M73 Q3 S10
M204 S1000
;WIPE_START
G1 F8640
G1 X110.684 Y89.561 E-.01402
G1 X110.702 Y89.502 E-.01424
G1 X111.735 Y88.699 E-.30211
G1 X112.5 Y88.561 E-.17949
G1 X114.623 Y88.561 E-.49014
;WIPE_END
G1 Z.4 F720
; printing object Sliderhalterpress.stl id:0 copy 0
G1 X134.819 Y112.787 F10800
G1 Z.2 F720
G1 E1 F2100
M204 S800
;TYPE:External perimeter
;WIDTH:0.419999
G1 F1200
G1 X134.989 Y112.869 E.00592
G1 X135.487 Y113.264 E.01993
G1 X135.891 Y113.775 E.02042
G1 X136.11 Y114.212 E.01533
G1 X136.269 Y114.782 E.01855
G1 X136.31 Y115.265 E.0152
G1 X136.269 Y115.718 E.01426
G1 X136.11 Y116.287 E.01852
G1 X135.801 Y116.861 E.02044
G1 X135.409 Y117.298 E.01841
G1 X134.996 Y117.628 E.01658
G1 X134.599 Y117.836 E.01405
G1 X134.175 Y117.977 E.01401
G1 X133.763 Y118.046 E.0131
G1 X133.137 Y118.035 E.01963
G1 X132.504 Y117.876 E.02046
G1 X131.94 Y117.585 E.0199
G1 X131.561 Y117.283 E.01519
G1 X131.263 Y116.95 E.01401
G1 X131.037 Y116.599 E.01309
G1 X130.799 Y116.02 E.01963
G1 X130.694 Y115.375 E.02049
G1 X130.738 Y114.742 E.0199
G1 X130.914 Y114.178 E.01852
G1 X131.141 Y113.725 E.01589
G1 X131.438 Y113.343 E.01517
G1 X131.719 Y113.077 E.01213
G1 X132.273 Y112.723 E.02061
G1 X132.889 Y112.508 E.02046
G1 X133.52 Y112.441 E.0199
G1 X134.002 Y112.486 E.01518
G1 X134.425 Y112.598 E.01372
G1 X134.765 Y112.761 E.01182
M204 S1000
;WIPE_START
G1 F8640
G1 X134.819 Y112.787 E-.01384
G1 X134.989 Y112.869 E-.04358
G1 X135.487 Y113.264 E-.14677
G1 X135.891 Y113.775 E-.15041
G1 X136.11 Y114.212 E-.11287
G1 X136.269 Y114.782 E-.13664
G1 X136.31 Y115.265 E-.11193
G1 X136.269 Y115.718 E-.10503
G1 X136.11 Y116.287 E-.13642
G1 X136.023 Y116.449 E-.04251
;WIPE_END
G1 Z.4 F720
G1 X114.297 Y113.532 F10800
G1 Z.2 F720
G1 E1 F2100
M204 S800
G1 F1200
G1 X114.414 Y113.37 E.00627
G1 X114.889 Y112.949 E.0199
G1 X115.463 Y112.64 E.02044
G1 X115.931 Y112.499 E.01533
G1 X116.52 Y112.441 E.01856
G1 X117.009 Y112.487 E.0154
G1 X117.592 Y112.662 E.01909
G1 X118.026 Y112.892 E.0154
G1 X118.487 Y113.264 E.01857
G1 X118.82 Y113.685 E.01683
G1 X119.097 Y114.178 E.01773
G1 X119.269 Y114.782 E.01969
G1 X119.31 Y115.265 E.0152
G1 X119.271 Y115.71 E.01401
M73 P3 R9
G1 X119.172 Y116.116 E.0131
G1 X118.914 Y116.686 E.01962
G1 X118.517 Y117.205 E.02049
G1 X118.026 Y117.608 E.01992
G1 X117.599 Y117.836 E.01518
G1 X117.175 Y117.977 E.01401
G1 X116.763 Y118.046 E.0131
G1 X116.137 Y118.035 E.01963
G1 X115.504 Y117.876 E.02046
G1 X114.94 Y117.585 E.0199
G1 X114.544 Y117.265 E.01596
G1 X114.182 Y116.826 E.01784
G1 X114.037 Y116.599 E.00845
G1 X113.799 Y116.02 E.01963
G1 X113.694 Y115.375 E.02049
G1 X113.738 Y114.742 E.0199
G1 X113.865 Y114.275 E.01517
G1 X114.049 Y113.878 E.01372
G1 X114.262 Y113.581 E.01146
M204 S1000
;WIPE_START
G1 F8640
G1 X114.297 Y113.532 E-.0139
G1 X114.414 Y113.37 E-.04614
G1 X114.889 Y112.949 E-.14656
G1 X115.463 Y112.64 E-.15052
G1 X115.931 Y112.499 E-.11286
G1 X116.52 Y112.441 E-.13666
G1 X117.009 Y112.487 E-.11341
G1 X117.592 Y112.662 E-.14055
G1 X118.026 Y112.892 E-.11341
G1 X118.114 Y112.963 E-.02599
;WIPE_END
G1 Z.4 F720
G1 X113.352 Y116.057 F10800
G1 Z.2 F720
G1 E1 F2100
M204 S800
;TYPE:Perimeter
;WIDTH:0.549924
G1 F1200
G1 X113.411 Y116.179 E.00571
;WIDTH:0.504605
G1 X113.549 Y116.461 E.01205
;WIDTH:0.462302
G1 X113.688 Y116.742 E.01093
;WIDTH:0.419999
G1 X114.001 Y117.225 E.01805
G1 X114.347 Y117.598 E.01595
G1 X114.764 Y117.919 E.0165
G1 X115.409 Y118.241 E.0226
;WIDTH:0.454664
G1 X115.699 Y118.334 E.01043
;WIDTH:0.489328
G1 X115.989 Y118.428 E.01132
G1 X115.606 Y118.445 E.01423
;WIDTH:0.454664
G1 X115.222 Y118.463 E.01316
;WIDTH:0.419999
G1 X114.435 Y118.455 E.02468
G1 X114.054 Y118.373 E.01222
G1 X113.646 Y118.104 E.01532
G1 X113.377 Y117.696 E.01532
G1 X113.301 Y117.382 E.01013
G1 X113.287 Y116.821 E.0176
;WIDTH:0.463308
G1 X113.309 Y116.567 E.00891
;WIDTH:0.506616
G1 X113.33 Y116.312 E.00987
;WIDTH:0.549924
G1 X113.347 Y116.117 E.00825
M204 S1000
G1 X113.352 Y116.057 F10800
M204 S800
G1 F1200
G1 X113.328 Y115.746 E.01315
;WIDTH:0.502165
G1 X113.304 Y115.436 E.01187
;WIDTH:0.494704
G1 X113.324 Y114.71 E.02728
;WIDTH:0.514846
G1 X113.335 Y114.594 E.00457
M204 S1000
;WIPE_START
G1 F8640
G1 X113.352 Y116.057 E-.33783
G1 X113.328 Y115.746 E-.07202
G1 X113.304 Y115.436 E-.07179
G1 X113.324 Y114.71 E-.1677
G1 X113.335 Y114.594 E-.0269
;WIPE_END
G1 E-.32376 F2100
G1 Z.4 F720
G1 X136.679 Y115.77 F10800
G1 Z.2 F720
M73 Q3 S9
G1 E1 F2100
M204 S800
;WIDTH:0.488436
G1 F1200
G1 X136.684 Y115.83 E.00223
;WIDTH:0.478189
G1 X136.698 Y116.206 E.01362
;WIDTH:0.449094
G1 X136.713 Y116.583 E.01274
;WIDTH:0.419999
G1 X136.684 Y117.492 E.02852
G1 X136.527 Y117.885 E.01327
G1 X136.248 Y118.199 E.01317
G1 X135.84 Y118.405 E.01433
G1 X135.605 Y118.456 E.00754
G1 X134.763 Y118.456 E.0264
;WIDTH:0.456273
G1 X134.592 Y118.438 E.00591
;WIDTH:0.492547
G1 X134.421 Y118.42 E.00643
;WIDTH:0.52882
G1 X134.25 Y118.402 E.00695
G1 X134.337 Y118.366 E.0038
;WIDTH:0.502788
G1 X134.57 Y118.262 E.00976
;WIDTH:0.461394
G1 X134.804 Y118.157 E.00892
;WIDTH:0.419999
G1 X135.353 Y117.829 E.02005
G1 X135.802 Y117.452 E.01838
G1 X136.131 Y117.043 E.01646
G1 X136.473 Y116.389 E.02314
;WIDTH:0.454218
G1 X136.576 Y116.08 E.01114
;WIDTH:0.488436
G1 X136.66 Y115.827 E.00988
M204 S1000
;WIPE_START
G1 F8640
G1 X136.679 Y115.77 E-.01387
G1 X136.684 Y115.83 E-.0139
G1 X136.698 Y116.206 E-.08688
G1 X136.713 Y116.583 E-.08712
G1 X136.684 Y117.492 E-.21
G1 X136.527 Y117.885 E-.09772
G1 X136.248 Y118.199 E-.09699
G1 X135.84 Y118.405 E-.10554
G1 X135.605 Y118.456 E-.05553
G1 X134.763 Y118.456 E-.19442
G1 X134.599 Y118.439 E-.03803
;WIPE_END
G1 Z.4 F720
G1 X134.25 Y118.402 F10800
G1 Z.2 F720
G1 E1 F2100
M204 S800
;WIDTH:0.52882
G1 F1200
G1 X134.003 Y118.421 E.01001
;WIDTH:0.491068
G1 X133.756 Y118.44 E.00923
M73 Q4 S9
;WIDTH:0.464442
G1 X133.13 Y118.435 E.02194
;WIDTH:0.483578
G1 X132.99 Y118.425 E.00514
M204 S1000
;WIPE_START
G1 F8640
G1 X134.25 Y118.402 E-.29099
G1 X134.003 Y118.421 E-.0572
G1 X133.756 Y118.44 E-.0572
G1 X133.13 Y118.435 E-.14455
G1 X132.99 Y118.425 E-.03241
;WIPE_END
G1 E-.41765 F2100
G1 Z.4 F720
G1 X117.25 Y118.405 F10800
G1 Z.2 F720
M73 P4 R9
G1 E1 F2100
M204 S800
;WIDTH:0.53452
G1 F1200
G1 X117.003 Y118.424 E.01013
;WIDTH:0.496747
G1 X116.756 Y118.443 E.00935
;WIDTH:0.470096
G1 X116.13 Y118.437 E.02224
;WIDTH:0.489328
G1 X115.989 Y118.428 E.00524
M204 S1000
;WIPE_START
G1 F8640
G1 X117.25 Y118.405 E-.29122
G1 X117.003 Y118.424 E-.0572
G1 X116.756 Y118.443 E-.0572
G1 X116.13 Y118.437 E-.14455
G1 X115.989 Y118.428 E-.03262
;WIPE_END
G1 E-.41721 F2100
G1 Z.4 F720
G1 X136.682 Y114.785 F10800
G1 Z.2 F720
G1 E1 F2100
M204 S800
;WIDTH:0.481368
G1 F1200
G1 X136.699 Y115.297 E.01868
;WIDTH:0.488436
G1 X136.679 Y115.77 E.01754
M204 S1000
;WIPE_START
G1 F8640
G1 X136.682 Y114.785 E-.22744
G1 X136.699 Y115.297 E-.11829
G1 X136.679 Y115.77 E-.10931
;WIPE_END
G1 E-.54496 F2100
G1 Z.4 F720
G1 X136.713 Y91.537 F10800
G1 Z.2 F720
G1 E1 F2100
M204 S800
;WIDTH:0.419999
G1 F1200
G1 X136.713 Y103.103 E.36264
G1 X136.713 Y114.078 E.34411
;WIDTH:0.450684
G1 X136.698 Y114.431 E.01198
;WIDTH:0.481368
G1 X136.682 Y114.785 E.01292
G1 X136.654 Y114.675 E.00414
;WIDTH:0.463656
G1 X136.434 Y114.009 E.02454
;WIDTH:0.419999
G1 X136.188 Y113.544 E.01649
G1 X135.724 Y112.971 E.02312
G1 X135.153 Y112.529 E.02264
G1 X134.588 Y112.258 E.01965
G1 X134.008 Y112.105 E.01881
G1 X133.484 Y112.066 E.01648
G1 X132.768 Y112.151 E.02261
G1 X132.071 Y112.405 E.02326
G1 X131.501 Y112.769 E.02121
G1 X131.121 Y113.132 E.01648
G1 X130.763 Y113.637 E.01941
G1 X130.491 Y114.204 E.01972
G1 X130.362 Y114.713 E.01646
G1 X130.321 Y115.433 E.02261
G1 X130.45 Y116.163 E.02324
G1 X130.688 Y116.742 E.01963
G1 X131.001 Y117.225 E.01805
G1 X131.347 Y117.598 E.01595
G1 X131.764 Y117.919 E.0165
G1 X132.409 Y118.241 E.0226
;WIDTH:0.451789
G1 X132.7 Y118.333 E.01038
;WIDTH:0.483578
G1 X132.99 Y118.425 E.01115
G1 X132.686 Y118.441 E.01115
;WIDTH:0.451789
G1 X132.381 Y118.457 E.01038
;WIDTH:0.419999
G1 X117.764 Y118.462 E.45831
;WIDTH:0.458173
G1 X117.593 Y118.443 E.00594
;WIDTH:0.496347
G1 X117.422 Y118.424 E.00649
;WIDTH:0.53452
G1 X117.25 Y118.405 E.00707
G1 X117.338 Y118.368 E.0039
;WIDTH:0.506997
G1 X117.571 Y118.263 E.00986
;WIDTH:0.463498
G1 X117.804 Y118.157 E.00895
;WIDTH:0.419999
G1 X118.263 Y117.901 E.01648
G1 X118.814 Y117.437 E.02259
G1 X119.257 Y116.842 E.02326
G1 X119.515 Y116.272 E.01962
G1 X119.652 Y115.713 E.01805
G1 X119.685 Y115.204 E.01599
G1 X119.633 Y114.681 E.01648
G1 X119.434 Y114.009 E.02197
G1 X119.118 Y113.453 E.02005
G1 X118.724 Y112.971 E.01952
G1 X118.173 Y112.539 E.02195
G1 X117.701 Y112.301 E.01657
G1 X117.008 Y112.105 E.02258
G1 X116.484 Y112.066 E.01648
G1 X115.787 Y112.145 E.02199
G1 X115.287 Y112.306 E.01647
G1 X114.642 Y112.664 E.02313
G1 X114.107 Y113.15 E.02266
G1 X113.742 Y113.659 E.01964
G1 X113.521 Y114.12 E.01603
;WIDTH:0.467423
G1 X113.428 Y114.357 E.00899
;WIDTH:0.514846
G1 X113.335 Y114.594 E.00999
G1 X113.311 Y114.385 E.00826
;WIDTH:0.467423
G1 X113.287 Y114.176 E.00743
;WIDTH:0.419999
G1 X113.287 Y91.537 E.70983
G1 X136.653 Y91.537 E.73262
M73 Q5 S9
M204 S1000
G1 X137.09 Y91.16 F10800
M73 P5 R9
M204 S800
;TYPE:External perimeter
G1 F1200
G1 X137.09 Y103.103 E.37446
G1 X137.087 Y117.266 E.44407
G1 X136.993 Y117.793 E.01678
G1 X136.717 Y118.271 E.01731
G1 X136.369 Y118.574 E.01447
G1 X135.985 Y118.754 E.0133
G1 X135.638 Y118.833 E.01116
G1 X115.222 Y118.84 E.64013
G1 X114.224 Y118.815 E.0313
G1 X113.788 Y118.664 E.01447
G1 X113.481 Y118.452 E.0117
G1 X113.175 Y118.11 E.01439
G1 X113.007 Y117.793 E.01125
G1 X112.91 Y117.237 E.0177
G1 X112.91 Y91.16 E.81762
G1 X137.03 Y91.16 E.75626
M204 S1000
;WIPE_START
G1 F8640
M73 Q6 S9
G1 X137.09 Y91.16 E-.01385
G1 X137.09 Y95.431 E-.98615
;WIPE_END
G1 Z.4 F720
M73 P6 R9
G1 X135.779 Y91.707 F10800
G1 Z.2 F720
G1 E1 F2100
M204 S800
;TYPE:Solid infill
;WIDTH:0.420899
G1 F1200
G1 X136.374 Y92.301 E.02642
G1 X136.374 Y92.836 E.01681
G1 X135.414 Y91.876 E.04267
G1 X134.88 Y91.876 E.01678
G1 X136.374 Y93.37 E.0664
G1 X136.374 Y93.905 E.01681
G1 X134.345 Y91.876 E.09018
G1 X133.811 Y91.876 E.01678
G1 X136.374 Y94.439 E.11392
G1 X136.374 Y94.974 E.01681
G1 X133.276 Y91.876 E.1377
G1 X132.742 Y91.876 E.01678
G1 X136.374 Y95.509 E.16146
G1 X136.374 Y96.043 E.01678
G1 X132.207 Y91.876 E.18521
G1 X131.672 Y91.876 E.01681
G1 X136.374 Y96.578 E.20899
G1 X136.374 Y97.112 E.01678
G1 X131.138 Y91.876 E.23273
G1 X130.603 Y91.876 E.01681
G1 X136.374 Y97.647 E.25651
G1 X136.374 Y98.181 E.01678
G1 X130.069 Y91.876 E.28024
G1 X129.534 Y91.876 E.01681
G1 X136.374 Y98.716 E.30402
G1 X136.374 Y99.25 E.01678
G1 X129 Y91.876 E.32776
G1 X128.465 Y91.876 E.01681
G1 X136.374 Y99.785 E.35153
G1 X136.374 Y100.319 E.01678
G1 X127.931 Y91.876 E.37527
G1 X127.396 Y91.876 E.01681
M73 Q7 S9
G1 X136.374 Y100.854 E.39905
G1 X136.374 Y101.388 E.01678
M73 P7 R9
G1 X126.862 Y91.876 E.42278
G1 X126.327 Y91.876 E.01681
G1 X136.374 Y101.923 E.44656
G1 X136.374 Y102.458 E.01681
G1 X125.792 Y91.876 E.47034
G1 X125.258 Y91.876 E.01678
G1 X136.374 Y102.992 E.49408
G1 X136.374 Y103.527 E.01681
G1 X124.723 Y91.876 E.51786
G1 X124.189 Y91.876 E.01678
G1 X136.374 Y104.061 E.54159
G1 X136.374 Y104.596 E.01681
G1 X123.654 Y91.876 E.56537
G1 X123.12 Y91.876 E.01678
M73 P8 R9
M73 Q8 S9
G1 X136.374 Y105.13 E.58911
G1 X136.374 Y105.665 E.01681
G1 X122.585 Y91.876 E.61289
G1 X122.051 Y91.876 E.01678
G1 X136.374 Y106.199 E.63662
G1 X136.374 Y106.734 E.01681
G1 X121.516 Y91.876 E.6604
G1 X120.982 Y91.876 E.01678
G1 X136.374 Y107.268 E.68413
G1 X136.374 Y107.803 E.01681
G1 X120.447 Y91.876 E.70791
G1 X119.912 Y91.876 E.01681
M73 P9 R9
M73 Q9 S9
G1 X136.374 Y108.338 E.73169
G1 X136.374 Y108.872 E.01678
G1 X119.378 Y91.876 E.75543
G1 X118.843 Y91.876 E.01681
G1 X136.374 Y109.407 E.77921
G1 X136.374 Y109.941 E.01678
G1 X118.309 Y91.876 E.80294
G1 X117.774 Y91.876 E.01681
G1 X136.374 Y110.476 E.82672
G1 X136.374 Y111.01 E.01678
M73 P10 R9
M73 Q10 S9
G1 X117.24 Y91.876 E.85046
G1 X116.705 Y91.876 E.01681
G1 X136.374 Y111.545 E.87424
G1 X136.374 Y112.079 E.01678
G1 X116.171 Y91.876 E.89797
G1 X115.636 Y91.876 E.01681
G1 X136.374 Y112.614 E.92175
G1 X136.374 Y113.148 E.01678
M73 P11 R9
M73 Q11 S9
G1 X115.102 Y91.876 E.94549
G1 X114.567 Y91.876 E.01681
G1 X134.588 Y111.898 E.8899
G1 X134.049 Y111.768 E.01743
G1 X133.914 Y111.758 E.00425
G1 X114.032 Y91.876 E.8837
G1 X113.626 Y91.876 E.01276
G1 X113.626 Y92.005 E.00405
G1 X133.359 Y111.737 E.87706
G1 X132.872 Y111.785 E.01538
G1 X113.626 Y92.539 E.85544
M73 Q12 S9
G1 X113.626 Y93.074 E.01681
M73 P12 R9
G1 X132.453 Y111.9 E.83679
G1 X132.055 Y112.038 E.01324
G1 X113.626 Y93.609 E.81912
G1 X113.626 Y94.143 E.01678
G1 X131.713 Y112.23 E.80392
