; generated by PrusaSlicer 2.8.1+win64 on 2025-01-30 at 08:19:43 UTC


;
;
; 

; external perimeters extrusion width = 0.60mm
; perimeters extrusion width = 0.50mm
; infill extrusion width = 0.50mm
; solid infill extrusion width = 0.50mm
; top infill extrusion width = 0.45mm
; support material extrusion width = 0.38mm
; first layer extrusion width = 0.42mm

M73 P0 R75
M73 Q0 S77
M201 X1000 Y1000 Z200 E5000 ; sets maximum accelerations, mm/sec^2
M203 X200 Y200 Z12 E120 ; sets maximum feedrates, mm / sec
M204 S1250 T1250 ; sets acceleration (S) and retract acceleration (R), mm/sec^2
M205 X8.00 Y8.00 Z0.40 E4.50 ; sets the jerk limits, mm/sec
M205 S0 T0 ; sets the minimum extruding and travel feed rate, mm/sec

; printing object verkleidungBremse.stl id:0 copy 0
; stop printing object verkleidungBremse.stl id:0 copy 0

;TYPE:Custom
M862.3 P "MK3S" ; printer model check
M862.1 P0.4 ; nozzle diameter check
M115 U3.14.0 ; tell printer latest fw version
G90 ; use absolute coordinates
M83 ; extruder relative mode
M104 S235 ; set extruder temp
M140 S80 ; set bed temp
M190 S80 ; wait for bed temp
M109 S235 ; wait for extruder temp
G28 W ; home all without mesh bed level
G80 X99.2701 Y45.5439 W61.8247 H101.307 ; mesh bed levelling

G1 Z0.2 F720
G1 Y-3 F1000 ; go outside print area
G92 E0
G1 X60 E9 F1000 ; intro line
G1 X100 E12.5 F1000 ; intro line

G92 E0
M221 S95

; Don't change E values below. Excessive value can damage the printer.

M907 E538 ; set extruder motor current
G21 ; set units to millimeters
G90 ; use absolute coordinates
M83 ; use relative distances for extrusion

M900 K0.08 ; Filament gcode LA 1.5
M900 K45 ; Filament gcode LA 1.0




M107
;LAYER_CHANGE
;Z:0.2
;HEIGHT:0.2
G1 E-1 F2100
G1 Z.4 F720
G1 X106.165 Y52.148 F10800
G1 Z.2 F720
G1 E1 F2100
M204 S800
;TYPE:Skirt/Brim
;WIDTH:0.42
G1 F1200
G1 X106.828 Y50.935 E.04334
G1 X107.709 Y49.815 E.04468
G1 X108.835 Y48.81 E.04732
G1 X109.598 Y48.308 E.02864
G1 X110.599 Y47.795 E.03527
G1 X111.65 Y47.425 E.03494
G1 X116.283 Y46.191 E.15033
G1 X117.631 Y45.961 E.04288
G1 X130.247 Y45.733 E.39563
G1 X137.119 Y45.99 E.21562
G1 X147.827 Y46.632 E.33634
G1 X149.244 Y46.901 E.04522
G1 X150.778 Y47.484 E.05145
G1 X152.361 Y48.502 E.05901
G1 X153.205 Y49.289 E.03618
G1 X154.158 Y50.513 E.04864
G1 X155.011 Y52.251 E.0607
G1 X155.329 Y53.388 E.03702
G1 X155.506 Y54.968 E.04985
G1 X160.907 Y136.629 E2.56602
G1 X160.797 Y138.121 E.04691
M73 Q0 S76
G1 X160.413 Y139.624 E.04864
G1 X159.555 Y141.372 E.06105
G1 X158.635 Y142.559 E.04709
G1 X157.431 Y143.632 E.05057
G1 X156.116 Y144.427 E.04818
G1 X154.756 Y144.954 E.04573
G1 X148.168 Y146.597 E.21289
G1 X147.638 Y146.662 E.01674
G1 X112.696 Y146.662 E1.09558
G1 X112.18 Y146.6 E.0163
G1 X105.615 Y144.995 E.2119
G1 X104.168 Y144.433 E.04867
G1 X102.847 Y143.617 E.04868
G1 X101.696 Y142.575 E.04868
G1 X100.974 Y141.674 E.0362
G1 X100.241 Y140.385 E.04649
G1 X99.693 Y138.812 E.05223
G1 X99.468 Y137.275 E.04871
G1 X99.464 Y136.395 E.02759
G1 X105.511 Y54.401 E2.57785
G1 X105.813 Y53.08 E.04249
G1 X106.143 Y52.204 E.02935
M204 S1000
;WIPE_START
G1 F8640
G1 X106.165 Y52.148 E-.01389
G1 X106.828 Y50.935 E-.31919
G1 X107.709 Y49.815 E-.32903
G1 X108.8 Y48.841 E-.33789
;WIPE_END
G1 Z.4 F720
; printing object verkleidungBremse.stl id:0 copy 0
G1 X147.431 Y74.037 F10800
G1 Z.2 F720
G1 E1 F2100
M204 S800
;TYPE:Support material interface
;WIDTH:0.38
G1 F1200
G1 X147.568 Y73.956 E.00446
G1 X147.714 Y73.986 E.00418
G1 X147.477 Y74.028 E.00675
M204 S1000
;WIPE_START
G1 F8640
G1 X147.714 Y73.986 E-.05558
G1 X147.568 Y73.956 E-.03442
G1 X147.431 Y74.037 E-.03675
;WIPE_END
G1 E-.87325 F2100
G1 Z.4 F720
G1 X147.561 Y72.173 F10800
G1 Z.2 F720
G1 E1 F2100
M204 S800
G1 F1200
G1 X147.396 Y71.524 E.01877
G1 X147.211 Y71.754 E.00827
M204 S1000
G1 X147.211 Y71.754 F10800
G1 X147.047 Y70.919
M204 S800
;TYPE:Support material
;WIDTH:0.42
G1 F1200
G1 X147.154 Y71.246 E.01079
G1 X146.967 Y70.823 E.0145
G1 X147.011 Y70.875 E.00214
M204 S1000
G1 X147.011 Y70.875 F10800
G1 X146.653 Y71.022
M204 S800
;TYPE:Support material interface
;WIDTH:0.38
G1 F1200
G1 X146.351 Y70.567 E.01531
G1 X146.134 Y70.473 E.00663
G1 X145.747 Y70.473 E.01085
G1 X146.886 Y71.612 E.04515
G1 X146.944 Y71.837 E.00651
G1 X147.12 Y71.846 E.00494
G1 X147.6 Y72.326 E.01903
G1 X147.76 Y73.215 E.02532
G1 X147.53 Y72.985 E.00912
G1 X147.458 Y72.416 E.01608
G1 X147.03 Y72.083 E.0152
G1 X147.05 Y72.192 E.00311
G1 X146.879 Y71.924 E.00891
G1 X146.315 Y71.635 E.01776
G1 X146.179 Y71.635 E.00381
G1 X145.017 Y70.473 E.04606
G1 X144.288 Y70.473 E.02043
G1 X145.45 Y71.635 E.04606
G1 X144.721 Y71.635 E.02043
G1 X143.559 Y70.473 E.04606
G1 X142.83 Y70.473 E.02043
G1 X143.992 Y71.635 E.04606
G1 X143.262 Y71.635 E.02046
G1 X142.101 Y70.473 E.04604
G1 X141.371 Y70.473 E.02046
G1 X142.533 Y71.635 E.04606
G1 X141.804 Y71.635 E.02043
G1 X140.642 Y70.473 E.04606
G1 X139.913 Y70.473 E.02043
G1 X141.075 Y71.635 E.04606
G1 X140.346 Y71.635 E.02043
G1 X139.184 Y70.473 E.04606
G1 X138.455 Y70.473 E.02043
G1 X139.617 Y71.635 E.04606
G1 X138.887 Y71.635 E.02046
G1 X137.725 Y70.473 E.04606
G1 X136.996 Y70.473 E.02043
G1 X138.158 Y71.635 E.04606
G1 X137.429 Y71.635 E.02043
G1 X136.267 Y70.473 E.04606
G1 X135.538 Y70.473 E.02043
G1 X136.7 Y71.635 E.04606
G1 X135.971 Y71.635 E.02043
G1 X134.809 Y70.473 E.04606
G1 X134.079 Y70.473 E.02046
G1 X135.241 Y71.635 E.04606
G1 X134.512 Y71.635 E.02043
G1 X133.35 Y70.473 E.04606
G1 X132.621 Y70.473 E.02043
G1 X133.783 Y71.635 E.04606
G1 X133.054 Y71.635 E.02043
G1 X131.892 Y70.473 E.04606
G1 X131.163 Y70.473 E.02043
G1 X132.325 Y71.635 E.04606
G1 X131.595 Y71.635 E.02046
G1 X130.433 Y70.473 E.04606
G1 X129.704 Y70.473 E.02043
G1 X130.866 Y71.635 E.04606
G1 X130.137 Y71.635 E.02043
G1 X128.975 Y70.473 E.04606
M73 P0 R74
G1 X128.246 Y70.473 E.02043
G1 X129.408 Y71.635 E.04606
G1 X128.679 Y71.635 E.02043
G1 X127.517 Y70.473 E.04606
G1 X126.788 Y70.473 E.02043
G1 X127.949 Y71.635 E.04604
G1 X127.22 Y71.635 E.02043
G1 X126.058 Y70.473 E.04606
G1 X125.329 Y70.473 E.02043
G1 X126.491 Y71.635 E.04606
G1 X125.762 Y71.635 E.02043
G1 X124.6 Y70.473 E.04606
G1 X123.871 Y70.473 E.02043
G1 X125.033 Y71.635 E.04606
G1 X124.303 Y71.635 E.02046
G1 X123.142 Y70.473 E.04604
G1 X122.412 Y70.473 E.02046
G1 X123.574 Y71.635 E.04606
G1 X122.845 Y71.635 E.02043
G1 X121.683 Y70.473 E.04606
G1 X120.954 Y70.473 E.02043
G1 X122.116 Y71.635 E.04606
G1 X121.387 Y71.635 E.02043
G1 X120.225 Y70.473 E.04606
G1 X119.496 Y70.473 E.02043
G1 X120.657 Y71.635 E.04604
G1 X119.928 Y71.635 E.02043
G1 X118.766 Y70.473 E.04606
G1 X118.037 Y70.473 E.02043
G1 X119.199 Y71.635 E.04606
G1 X118.47 Y71.635 E.02043
G1 X117.308 Y70.473 E.04606
G1 X116.579 Y70.473 E.02043
G1 X117.741 Y71.635 E.04606
G1 X117.011 Y71.635 E.02046
G1 X115.85 Y70.473 E.04604
G1 X115.12 Y70.473 E.02046
G1 X116.282 Y71.635 E.04606
G1 X115.553 Y71.635 E.02043
G1 X114.391 Y70.473 E.04606
G1 X114.2 Y70.473 E.00535
G1 X113.886 Y70.696 E.01079
G1 X114.824 Y71.635 E.0372
G1 X114.095 Y71.635 E.02043
G1 X113.621 Y71.16 E.01881
G1 X113.427 Y71.696 E.01598
G1 X113.587 Y71.856 E.00634
G1 X113.456 Y71.924 E.00414
G1 X113.284 Y72.192 E.00893
G1 X113.301 Y72.101 E.00259
G1 X113.184 Y72.183 E.004
G1 X112.855 Y71.853 E.01306
G1 X112.718 Y72.446 E.01706
M204 S1000
;WIPE_START
G1 F8640
G1 X112.855 Y71.853 E-.14053
G1 X113.184 Y72.183 E-.1076
G1 X113.301 Y72.101 E-.03299
G1 X113.284 Y72.192 E-.02138
G1 X113.456 Y71.924 E-.07353
G1 X113.587 Y71.856 E-.03408
G1 X113.427 Y71.696 E-.05225
G1 X113.621 Y71.16 E-.13162
G1 X114.095 Y71.635 E-.15495
G1 X114.824 Y71.635 E-.16833
G1 X114.571 Y71.382 E-.08274
;WIPE_END
G1 Z.4 F720
G1 X112.526 Y73.532 F10800
G1 Z.2 F720
G1 E1 F2100
M204 S800
G1 F1200
G1 X112.535 Y73.473 E.00167
G1 X112.779 Y73.518 E.00695
G1 X112.962 Y73.757 E.00844
G1 X112.922 Y74.04 E.00801
G1 X112.502 Y73.688 E.01536
G1 X112.461 Y73.957 E.00763
G1 X112.684 Y73.997 E.00635
M204 S1000
;WIPE_START
G1 F8640
G1 X112.461 Y73.957 E-.05231
G1 X112.502 Y73.688 E-.06283
G1 X112.922 Y74.04 E-.12653
G1 X112.962 Y73.757 E-.06599
G1 X112.779 Y73.518 E-.06951
G1 X112.535 Y73.473 E-.05729
G1 X112.526 Y73.532 E-.01378
;WIPE_END
G1 E-.55176 F2100
G1 Z.4 F720
G1 X113.603 Y69.892 F10800
G1 Z.2 F720
G1 E1 F2100
M204 S800
G1 F1200
G1 X113.345 Y70.134 E.00991
G1 X113.527 Y69.608 E.0156
G1 X113.748 Y69.829 E.00876
G1 X114.04 Y69.702 E.00892
G1 X114.35 Y69.702 E.00869
G1 X113.787 Y69.139 E.02232
G1 X113.976 Y68.922 E.00807
G1 X114.196 Y68.839 E.00659
G1 X115.079 Y69.702 E.03461
G1 X115.808 Y69.702 E.02043
G1 X114.945 Y68.839 E.03421
G1 X115.674 Y68.839 E.02043
G1 X116.537 Y69.702 E.03421
G1 X117.267 Y69.702 E.02046
G1 X116.403 Y68.839 E.03423
G1 X117.132 Y68.839 E.02043
G1 X117.996 Y69.702 E.03423
G1 X118.725 Y69.702 E.02043
G1 X117.861 Y68.839 E.03423
G1 X118.591 Y68.839 E.02046
G1 X119.454 Y69.702 E.03421
G1 X120.183 Y69.702 E.02043
G1 X119.32 Y68.839 E.03421
G1 X120.049 Y68.839 E.02043
G1 X120.913 Y69.702 E.03423
G1 X121.642 Y69.702 E.02043
G1 X120.778 Y68.839 E.03423
G1 X121.507 Y68.839 E.02043
G1 X122.371 Y69.702 E.03423
G1 X123.1 Y69.702 E.02043
G1 X122.237 Y68.839 E.03421
G1 X122.966 Y68.839 E.02043
G1 X123.829 Y69.702 E.03421
G1 X124.559 Y69.702 E.02046
G1 X123.695 Y68.839 E.03423
G1 X124.424 Y68.839 E.02043
G1 X125.288 Y69.702 E.03423
G1 X126.017 Y69.702 E.02043
G1 X125.153 Y68.839 E.03423
G1 X125.883 Y68.839 E.02046
G1 X126.746 Y69.702 E.03421
G1 X127.475 Y69.702 E.02043
G1 X126.612 Y68.839 E.03421
G1 X127.341 Y68.839 E.02043
G1 X128.205 Y69.702 E.03423
G1 X128.934 Y69.702 E.02043
G1 X128.07 Y68.839 E.03423
G1 X128.799 Y68.839 E.02043
G1 X129.663 Y69.702 E.03423
G1 X130.392 Y69.702 E.02043
G1 X129.529 Y68.839 E.03421
G1 X130.258 Y68.839 E.02043
G1 X131.121 Y69.702 E.03421
G1 X131.85 Y69.702 E.02043
G1 X130.987 Y68.839 E.03421
G1 X131.716 Y68.839 E.02043
G1 X132.58 Y69.702 E.03423
G1 X133.309 Y69.702 E.02043
G1 X132.445 Y68.839 E.03423
G1 X133.175 Y68.839 E.02046
G1 X134.038 Y69.702 E.03421
G1 X134.767 Y69.702 E.02043
G1 X133.904 Y68.839 E.03421
G1 X134.633 Y68.839 E.02043
G1 X135.496 Y69.702 E.03421
G1 X136.226 Y69.702 E.02046
G1 X135.362 Y68.839 E.03423
G1 X136.091 Y68.839 E.02043
G1 X136.955 Y69.702 E.03423
G1 X137.684 Y69.702 E.02043
G1 X136.821 Y68.839 E.03421
G1 X137.55 Y68.839 E.02043
G1 X138.413 Y69.702 E.03421
G1 X139.142 Y69.702 E.02043
G1 X138.279 Y68.839 E.03421
G1 X139.008 Y68.839 E.02043
G1 X139.872 Y69.702 E.03423
G1 X140.601 Y69.702 E.02043
G1 X139.737 Y68.839 E.03423
G1 X140.467 Y68.839 E.02046
G1 X141.33 Y69.702 E.03421
G1 X142.059 Y69.702 E.02043
G1 X141.196 Y68.839 E.03421
G1 X141.925 Y68.839 E.02043
G1 X142.788 Y69.702 E.03421
G1 X143.518 Y69.702 E.02046
G1 X142.654 Y68.839 E.03423
G1 X143.383 Y68.839 E.02043
G1 X144.247 Y69.702 E.03423
G1 X144.976 Y69.702 E.02043
G1 X144.113 Y68.839 E.03421
G1 X144.842 Y68.839 E.02043
G1 X145.705 Y69.702 E.03421
G1 X146.295 Y69.702 E.01654
G1 X146.542 Y69.81 E.00756
G1 X145.571 Y68.839 E.03849
G1 X146.138 Y68.839 E.01589
G1 X146.359 Y68.922 E.00662
G1 X146.599 Y69.197 E.01023
G1 X146.99 Y70.134 E.02846
G1 X146.844 Y69.941 E.00678
G1 X146.687 Y69.872 E.00481
M204 S1000
G1 X146.687 Y69.872 F10800
G1 X146.373 Y70.137
M204 S800
;TYPE:Support material
;WIDTH:0.42
G1 F1200
G1 X146.608 Y70.24 E.00804
G1 X146.841 Y70.605 E.01358
G1 X146.586 Y70.268 E.01325
G1 X146.211 Y70.105 E.01282
G1 X114.124 Y70.105 E1.00607
G1 X113.748 Y70.268 E.01285
G1 X113.168 Y71.189 E.03413
G1 X113.391 Y70.683 E.01734
G1 X113.726 Y70.24 E.01741
G1 X114.116 Y70.07 E.01334
G1 X146.321 Y70.115 E1.00977
M204 S1000
;WIPE_START
G1 F8640
G1 X141.99 Y70.109 E-1
;WIPE_END
G1 Z.4 F720
G1 X130.244 Y47.922 F10800
G1 Z.2 F720
G1 E1 F2100
M204 S800
G1 F1200
G1 X130.815 Y47.948 E.01792
G1 X131.91 Y48.174 E.03506
G1 X132.978 Y48.608 E.03615
G1 X133.37 Y48.858 E.01458
G1 X134.695 Y48.331 E.04471
G1 X135.805 Y48.15 E.03526
G1 X137.021 Y48.176 E.03814
G1 X138.118 Y48.403 E.03512
G1 X139.186 Y48.838 E.03616
G1 X140.145 Y49.451 E.03569
G1 X140.768 Y50.028 E.02662
G1 X141.02 Y50.034 E.0079
G1 X141.473 Y49.773 E.01639
G1 X142.56 Y49.388 E.03616
G1 X143.668 Y49.212 E.03518
G1 X144.692 Y49.233 E.03211
G1 X145.444 Y48.975 E.02493
G1 X146.541 Y48.794 E.03486
G1 X147.695 Y48.817 E.03619
G1 X148.804 Y49.044 E.03549
G1 X149.918 Y49.497 E.03771
G1 X150.869 Y50.103 E.03536
G1 X151.713 Y50.89 E.03618
G1 X152.4 Y51.817 E.03618
G1 X152.905 Y52.848 E.036
G1 X153.071 Y53.434 E.0191
G1 X153.219 Y53.969 E.0174
G1 X153.322 Y55.113 E.03601
G1 X153.216 Y56.261 E.03615
G1 X152.903 Y57.372 E.03619
G1 X152.55 Y58.089 E.02506
G1 X152.684 Y58.533 E.01454
G1 X152.792 Y59.673 E.0359
G1 X152.671 Y60.812 E.03591
G1 X152.325 Y61.905 E.03595
G1 X151.597 Y63.108 E.04409
G1 X151.749 Y63.587 E.01576
G1 X151.599 Y64.106 E.01694
G1 X151.606 Y65.521 E.04437
G1 X151.394 Y65.923 E.01425
G1 X151.518 Y66.807 E.02799
G1 X151.355 Y67.973 E.03691
G1 X151.039 Y68.756 E.02647
G1 X151.127 Y68.894 E.00513
G1 X151.38 Y70.226 E.04251
G1 X151.167 Y71.351 E.0359
G1 X151.21 Y72.512 E.03643
G1 X151.14 Y72.703 E.00638
G1 X151.398 Y74.341 E.05199
G1 X151.255 Y75.543 E.03795
G1 X150.954 Y76.332 E.02648
G1 X151.232 Y77.324 E.0323
G1 X151.243 Y77.528 E.00641
G1 X151.069 Y78.147 E.02016
G1 X151.328 Y79.112 E.03133
G1 X150.858 Y80.789 E.05461
G1 X149.635 Y81.93 E.05244
G1 X148.176 Y82.321 E.04736
G1 X147.352 Y82.15 E.02639
G1 X147.288 Y79.74 E.07559
G1 X147.006 Y78.119 E.05159
G1 X146.855 Y77.805 E.01092
G1 X146.512 Y77.408 E.01645
G1 X146.289 Y77.308 E.00766
G1 X144.725 Y77.308 E.04904
G1 X144.859 Y76.83 E.01557
G1 X144.581 Y75.808 E.03321
G1 X144.669 Y75.492 E.01028
G1 X143.863 Y72.006 E.11218
G1 X146.226 Y72.002 E.07409
G1 X146.622 Y72.206 E.01397
G1 X147.056 Y73 E.02837
G1 X147.258 Y73.694 E.02266
G1 X147.089 Y73.853 E.00728
G1 X147.007 Y74.148 E.0096
G1 X147.082 Y74.474 E.01049
G1 X148.291 Y74.255 E.03852
G1 X147.955 Y72.226 E.06448
G1 X147.192 Y69.552 E.08719
G1 X146.906 Y68.99 E.01977
G1 X146.576 Y68.61 E.01578
G1 X146.206 Y68.471 E.01239
G1 X114.129 Y68.471 E1.00575
G1 X113.759 Y68.61 E.01239
M73 P1 R74
G1 X113.428 Y68.99 E.0158
G1 X113.143 Y69.552 E.01976
G1 X112.633 Y71.235 E.05514
G1 X112.279 Y72.766 E.04927
G1 X112.796 Y72.806 E.01626
G1 X112.739 Y73.118 E.00994
G1 X112.427 Y73.105 E.00979
G1 X112.206 Y73.188 E.0074
G1 X112.044 Y74.255 E.03384
G1 X113.365 Y74.494 E.04209
G1 X113.274 Y74.151 E.01113
G1 X113.328 Y73.665 E.01533
M73 Q1 S76
G1 X113.17 Y73.368 E.01055
G1 X113.381 Y72.723 E.02128
G1 X113.712 Y72.206 E.01925
G1 X114.108 Y72.002 E.01397
G1 X115.675 Y72.002 E.04913
G1 X115.506 Y72.503 E.01658
G1 X115.957 Y74.202 E.05512
G1 X115.619 Y75.73 E.04907
G1 X115.724 Y76.108 E.0123
G1 X115.427 Y77.167 E.03449
G1 X115.466 Y77.308 E.00459
G1 X114.045 Y77.308 E.04455
G1 X113.822 Y77.408 E.00766
G1 X113.358 Y78.033 E.02441
G1 X113.047 Y79.74 E.0544
G1 X112.983 Y82.402 E.08349
G1 X112.174 Y82.573 E.02593
G1 X110.709 Y82.188 E.04749
G1 X109.479 Y81.045 E.05265
G1 X109.002 Y79.348 E.05527
G1 X109.257 Y78.439 E.0296
G1 X109.068 Y77.768 E.02186
G1 X109.369 Y76.695 E.03494
G1 X109.204 Y76.108 E.01912
G1 X109.446 Y75.245 E.0281
G1 X109.19 Y74.053 E.03823
G1 X109.304 Y72.875 E.03711
G1 X109.175 Y72.549 E.01099
G1 X109.308 Y70.53 E.06344
G1 X109.478 Y70.311 E.00869
G1 X109.129 Y68.99 E.04284
G1 X109.35 Y67.176 E.0573
G1 X109.544 Y66.972 E.00883
G1 X109.394 Y65.829 E.03615
G1 X109.493 Y64.827 E.03157
G1 X109.617 Y64.502 E.01091
G1 X109.397 Y63.928 E.01927
G1 X109.25 Y62.738 E.0376
G1 X108.61 Y61.625 E.04026
G1 X108.398 Y60.974 E.02147
G1 X108.218 Y59.846 E.03582
G1 X108.323 Y58.522 E.04164
G1 X107.944 Y57.647 E.0299
G1 X107.675 Y56.52 E.03633
G1 X107.617 Y55.932 E.01853
G1 X107.666 Y54.787 E.03593
G1 X107.921 Y53.669 E.03595
G1 X108.374 Y52.615 E.03597
G1 X108.709 Y52.054 E.02049
G1 X109.406 Y51.197 E.03464
G1 X110.252 Y50.478 E.03481
G1 X111.326 Y49.859 E.03887
G1 X112.378 Y49.489 E.03497
G1 X113.484 Y49.314 E.03511
G1 X114.685 Y49.345 E.03767
G1 X115.755 Y48.697 E.03922
G1 X116.843 Y48.307 E.03624
G1 X117.983 Y48.121 E.03622
G1 X119.11 Y48.145 E.03534
G1 X120.294 Y48.39 E.03791
G1 X121.454 Y48.89 E.03961
