; generated by PrusaSlicer 2.8.1+win64 on 2025-01-22 at 08:41:59 UTC


;
;
; 

; external perimeters extrusion width = 0.60mm
; perimeters extrusion width = 0.50mm
; infill extrusion width = 0.50mm
; solid infill extrusion width = 0.50mm
; top infill extrusion width = 0.45mm
; first layer extrusion width = 0.42mm

; external perimeters extrusion width = 0.60mm
; perimeters extrusion width = 0.50mm
; infill extrusion width = 0.50mm
; solid infill extrusion width = 0.50mm
; top infill extrusion width = 0.45mm
; first layer extrusion width = 0.42mm

M73 P0 R37
M73 Q0 S38
M201 X1000 Y1000 Z200 E5000 ; sets maximum accelerations, mm/sec^2
M203 X200 Y200 Z12 E120 ; sets maximum feedrates, mm / sec
M204 S1250 T1250 ; sets acceleration (S) and retract acceleration (R), mm/sec^2
M205 X8.00 Y8.00 Z0.40 E4.50 ; sets the jerk limits, mm/sec
M205 S0 T0 ; sets the minimum extruding and travel feed rate, mm/sec

; printing object HebelhalterBlockBlind.stl id:1 copy 0
; stop printing object HebelhalterBlockBlind.stl id:1 copy 0
; printing object HebelhalterBlock.stl id:0 copy 0
; stop printing object HebelhalterBlock.stl id:0 copy 0

;TYPE:Custom
M862.3 P "MK3S" ; printer model check
M862.1 P0.4 ; nozzle diameter check
M115 U3.14.0 ; tell printer latest fw version
G90 ; use absolute coordinates
M83 ; extruder relative mode
M104 S235 ; set extruder temp
M140 S80 ; set bed temp
M190 S80 ; wait for bed temp
M109 S235 ; wait for extruder temp
G28 W ; home all without mesh bed level
G80 X98.1061 Y80.7741 W44.8536 H50.6444 ; mesh bed levelling

G1 Z0.2 F720
G1 Y-3 F1000 ; go outside print area
G92 E0
G1 X60 E9 F1000 ; intro line
G1 X100 E12.5 F1000 ; intro line

G92 E0
M221 S95

; Don't change E values below. Excessive value can damage the printer.

M907 E538 ; set extruder motor current
G21 ; set units to millimeters
G90 ; use absolute coordinates
M83 ; use relative distances for extrusion

M900 K0.08 ; Filament gcode LA 1.5
M900 K45 ; Filament gcode LA 1.0




M107
;LAYER_CHANGE
;Z:0.2
;HEIGHT:0.2
G1 E-1 F2100
M73 Q0 S37
G1 Z.4 F720
G1 X99.298 Y82.685 F10800
G1 Z.2 F720
G1 E1 F2100
M204 S800
;TYPE:Skirt/Brim
;WIDTH:0.42
G1 F1200
G1 X99.946 Y81.974 E.03016
G1 X100.564 Y81.531 E.02384
G1 X101.423 Y81.152 E.02944
G1 X102.368 Y80.975 E.03015
G1 X138.927 Y80.975 E1.14628
G1 X139.678 Y81.096 E.02385
G1 X140.394 Y81.354 E.02386
G1 X141.212 Y81.86 E.03016
G1 X141.875 Y82.524 E.02942
G1 X142.401 Y83.385 E.03164
G1 X142.717 Y84.43 E.03423
G1 X142.771 Y85.088 E.0207
G1 X142.771 Y103.088 E.56438
G1 X142.542 Y129.061 E.8144
G1 X142.14 Y130.305 E.04099
G1 X141.1 Y131.099 E.04103
G1 X140.353 Y131.23 E.02378
G1 X100.483 Y131.23 E1.2501
G1 X99.235 Y130.839 E.04101
G1 X98.433 Y129.806 E.041
G1 X98.295 Y129.041 E.02437
G1 X98.295 Y111.041 E.56438
G1 X98.526 Y84.987 E.81694
G1 X98.711 Y83.863 E.03572
G1 X99.003 Y83.161 E.02384
G1 X99.266 Y82.736 E.01567
M204 S1000
;WIPE_START
G1 F8640
G1 X99.298 Y82.685 E-.0139
G1 X99.946 Y81.974 E-.22213
G1 X100.564 Y81.531 E-.17557
G1 X101.423 Y81.152 E-.21679
G1 X102.368 Y80.975 E-.222
G1 X103.016 Y80.975 E-.14961
;WIPE_END
G1 Z.4 F720
; printing object HebelhalterBlock.stl id:0 copy 0
G1 X121.721 Y113.425 F10800
G1 Z.2 F720
G1 E1 F2100
M204 S800
;TYPE:Perimeter
;WIDTH:0.419999
G1 F1200
G1 X121.919 Y113.519 E.00687
G1 X122.357 Y113.837 E.01697
G1 X122.728 Y114.231 E.01697
G1 X123.124 Y114.909 E.02462
G1 X123.294 Y115.451 E.01781
G1 X123.353 Y115.989 E.01697
G1 X123.313 Y116.529 E.01698
G1 X123.174 Y117.053 E.017
G1 X122.941 Y117.542 E.01698
G1 X122.451 Y118.155 E.02461
G1 X122.008 Y118.509 E.01778
G1 X121.527 Y118.759 E.017
G1 X121.009 Y118.917 E.01698
G1 X120.47 Y118.976 E.017
G1 X119.93 Y118.936 E.01698
G1 X119.407 Y118.797 E.01697
G1 X118.917 Y118.564 E.01701
G1 X118.48 Y118.246 E.01695
G1 X117.976 Y117.665 E.02412
G1 X117.701 Y117.153 E.01822
G1 X117.524 Y116.529 E.02034
G1 X117.483 Y115.989 E.01698
G1 X117.543 Y115.451 E.01697
G1 X117.7 Y114.933 E.01697
G1 X117.95 Y114.452 E.017
G1 X118.284 Y114.026 E.01697
G1 X118.691 Y113.668 E.017
G1 X119.157 Y113.391 E.017
G1 X119.671 Y113.203 E.01716
G1 X120.323 Y113.11 E.02065
G1 X120.903 Y113.147 E.01822
G1 X121.43 Y113.286 E.01709
G1 X121.667 Y113.399 E.00823
M204 S1000
G1 X121.667 Y113.399 F10800
G1 X121.554 Y113.76
M204 S800
;TYPE:External perimeter
G1 F1200
G1 X121.78 Y113.874 E.00794
G1 X122.155 Y114.162 E.01483
G1 X122.475 Y114.52 E.01506
G1 X122.794 Y115.093 E.02056
G1 X122.937 Y115.588 E.01616
G1 X122.978 Y116.059 E.01482
G1 X122.931 Y116.529 E.01481
G1 X122.799 Y116.982 E.01479
G1 X122.58 Y117.41 E.01507
G1 X122.161 Y117.915 E.02057
G1 X121.751 Y118.227 E.01615
G1 X121.327 Y118.434 E.01479
G1 X120.871 Y118.561 E.01484
G1 X120.401 Y118.601 E.01479
G1 X119.931 Y118.554 E.01481
G1 X119.477 Y118.422 E.01482
G1 X119.056 Y118.208 E.01481
G1 X118.676 Y117.915 E.01505
G1 X118.266 Y117.424 E.02006
G1 X118.03 Y116.965 E.01618
G1 X117.899 Y116.495 E.0153
G1 X117.859 Y116.024 E.01482
G1 X117.905 Y115.554 E.01481
G1 X118.038 Y115.101 E.0148
G1 X118.251 Y114.679 E.01482
G1 X118.538 Y114.304 E.01481
G1 X118.89 Y113.988 E.01483
G1 X119.293 Y113.742 E.0148
G1 X119.742 Y113.574 E.01503
G1 X120.376 Y113.484 E.02008
G1 X120.905 Y113.529 E.01665
G1 X121.359 Y113.661 E.01482
G1 X121.501 Y113.733 E.00499
M204 S1000
;WIPE_START
G1 F8640
G1 X121.554 Y113.76 E-.01373
G1 X121.78 Y113.874 E-.05845
G1 X122.155 Y114.162 E-.10918
G1 X122.475 Y114.52 E-.11087
G1 X122.794 Y115.093 E-.15143
G1 X122.937 Y115.588 E-.11897
G1 X122.978 Y116.059 E-.10917
G1 X122.931 Y116.529 E-.10907
G1 X122.799 Y116.982 E-.10895
G1 X122.582 Y117.407 E-.11018
;WIPE_END
G1 Z.4 F720
G1 X139.062 Y128.254 F10800
G1 Z.2 F720
G1 E1 F2100
M204 S800
;TYPE:Perimeter
G1 F1200
G1 X101.774 Y128.254 E1.16914
G1 X101.774 Y111.137 E.53669
G1 X101.781 Y111.036 E.00317
G1 X101.876 Y110.705 E.0108
G1 X102.134 Y110.47 E.01094
G1 X102.45 Y110.397 E.01017
G1 X138.335 Y110.4 E1.12515
G1 X138.643 Y110.448 E.00977
M73 P1 R37
M73 Q1 S37
G1 X138.845 Y110.573 E.00745
G1 X138.986 Y110.759 E.00732
G1 X139.057 Y111.107 E.01114
G1 X139.062 Y128.194 E.53575
M204 S1000
G1 X139.062 Y128.194 F10800
G1 X139.439 Y128.631
M204 S800
;TYPE:External perimeter
G1 F1200
G1 X101.397 Y128.631 E1.19278
G1 X101.397 Y111.137 E.54851
G1 X101.408 Y110.984 E.00481
G1 X101.495 Y110.633 E.01134
G1 X101.642 Y110.397 E.00872
G1 X101.848 Y110.209 E.00874
G1 X102.097 Y110.085 E.00872
G1 X102.432 Y110.02 E.0107
G1 X138.335 Y110.023 E1.12571
G1 X138.784 Y110.092 E.01424
G1 X139.104 Y110.289 E.01178
G1 X139.329 Y110.588 E.01173
G1 X139.38 Y110.768 E.00587
G1 X139.434 Y111.107 E.01076
G1 X139.439 Y128.571 E.54757
M204 S1000
;WIPE_START
G1 F8640
G1 X139.439 Y128.631 E-.01385
G1 X135.168 Y128.631 E-.98615
;WIPE_END
G1 Z.4 F720
G1 X137.819 Y110.569 F10800
G1 Z.2 F720
G1 E1 F2100
M204 S800
;TYPE:Solid infill
;WIDTH:0.422615
G1 F1200
G1 X138.717 Y111.468 E.04012
G1 X138.718 Y112.005 E.01695
G1 X137.452 Y110.739 E.05653
G1 X136.915 Y110.739 E.01695
G1 X138.718 Y112.542 E.0805
G1 X138.718 Y113.079 E.01695
G1 X136.378 Y110.739 E.10448
G1 X135.841 Y110.739 E.01695
G1 X138.718 Y113.616 E.12846
G1 X138.718 Y114.153 E.01695
G1 X135.304 Y110.739 E.15243
G1 X134.767 Y110.739 E.01695
G1 X138.718 Y114.69 E.17641
G1 X138.719 Y115.227 E.01695
G1 X134.23 Y110.739 E.20041
G1 X133.693 Y110.739 E.01695
G1 X138.719 Y115.765 E.22441
G1 X138.719 Y116.302 E.01695
G1 X133.156 Y110.739 E.24838
G1 X132.619 Y110.739 E.01695
G1 X138.719 Y116.839 E.27236
G1 X138.719 Y117.376 E.01695
G1 X132.082 Y110.739 E.29634
G1 X131.545 Y110.739 E.01695
G1 X138.719 Y117.913 E.32031
G1 X138.72 Y118.45 E.01695
G1 X131.008 Y110.739 E.34431
G1 X130.471 Y110.739 E.01695
G1 X138.72 Y118.987 E.36829
G1 X138.72 Y119.525 E.01699
G1 X129.934 Y110.739 E.39229
G1 X129.397 Y110.739 E.01695
G1 X138.72 Y120.062 E.41626
G1 X138.72 Y120.599 E.01695
G1 X128.86 Y110.739 E.44024
G1 X128.323 Y110.739 E.01695
G1 X138.72 Y121.136 E.46422
G1 X138.721 Y121.673 E.01695
G1 X127.786 Y110.738 E.48824
G1 X127.249 Y110.738 E.01695
G1 X138.721 Y122.21 E.51222
G1 X138.721 Y122.747 E.01695
G1 X126.712 Y110.738 E.53619
G1 X126.175 Y110.738 E.01695
G1 X138.721 Y123.284 E.56017
G1 X138.721 Y123.822 E.01699
G1 X125.638 Y110.738 E.58417
G1 X125.101 Y110.738 E.01695
G1 X138.721 Y124.359 E.60814
G1 X138.722 Y124.896 E.01695
G1 X124.564 Y110.738 E.63214
G1 X124.027 Y110.738 E.01695
M73 P2 R37
M73 Q2 S37
G1 X138.722 Y125.433 E.65612
G1 X138.722 Y125.97 E.01695
G1 X123.49 Y110.738 E.6801
G1 X122.953 Y110.738 E.01695
G1 X138.722 Y126.507 E.70407
G1 X138.722 Y127.044 E.01695
G1 X122.416 Y110.738 E.72805
G1 X121.879 Y110.738 E.01695
G1 X138.722 Y127.582 E.75205
G1 X138.723 Y127.915 E.01051
G1 X138.519 Y127.915 E.00644
G1 X121.342 Y110.738 E.76694
G1 X120.805 Y110.738 E.01695
G1 X137.982 Y127.915 E.76694
G1 X137.445 Y127.915 E.01695
M73 P2 R36
G1 X120.268 Y110.738 E.76694
G1 X119.731 Y110.738 E.01695
G1 X136.908 Y127.915 E.76694
G1 X136.371 Y127.915 E.01695
G1 X123.543 Y115.087 E.57276
G1 X123.623 Y115.37 E.00928
G1 X123.667 Y115.748 E.01201
G1 X135.834 Y127.915 E.54325
G1 X135.297 Y127.915 E.01695
G1 X123.666 Y116.284 E.51932
G1 X123.634 Y116.672 E.01229
G1 X123.608 Y116.763 E.00299
G1 X134.76 Y127.915 E.49793
G1 X134.223 Y127.915 E.01695
G1 X123.488 Y117.18 E.47931
G1 X123.315 Y117.544 E.01272
G1 X133.686 Y127.915 E.46306
G1 X133.149 Y127.915 E.01695
G1 X123.114 Y117.88 E.44805
G1 X122.871 Y118.174 E.01204
G1 X132.612 Y127.915 E.43493
G1 X132.075 Y127.915 E.01695
G1 X122.623 Y118.463 E.42202
G1 X122.32 Y118.697 E.01209
M73 Q2 S36
G1 X131.538 Y127.915 E.41158
G1 X131.001 Y127.915 E.01695
G1 X121.987 Y118.901 E.40247
G1 X121.629 Y119.08 E.01264
G1 X130.464 Y127.915 E.39448
G1 X129.927 Y127.915 E.01695
G1 X121.216 Y119.204 E.38894
G1 X121.013 Y119.264 E.00668
G1 X120.763 Y119.287 E.00793
G1 X129.39 Y127.915 E.38521
G1 X128.853 Y127.915 E.01695
G1 X120.238 Y119.3 E.38465
G1 X119.745 Y119.247 E.01565
G1 X119.605 Y119.203 E.00463
G1 X128.486 Y128.085 E.39655
M204 S1000
;WIPE_START
G1 F8640
M73 P3 R36
M73 Q3 S36
G1 X125.424 Y125.023 E-1
;WIPE_END
G1 Z.4 F720
G1 X119.024 Y110.568 F10800
G1 Z.2 F720
G1 E1 F2100
M204 S800
G1 F1200
G1 X121.378 Y112.922 E.1051
G1 X120.946 Y112.81 E.01409
G1 X120.708 Y112.789 E.00754
G1 X118.657 Y110.738 E.09158
G1 X118.12 Y110.738 E.01695
G1 X120.171 Y112.789 E.09158
G1 X119.701 Y112.856 E.01499
G1 X117.583 Y110.738 E.09457
G1 X117.046 Y110.738 E.01695
G1 X119.29 Y112.982 E.10019
G1 X119.024 Y113.078 E.00893
G1 X118.914 Y113.143 E.00403
G1 X116.509 Y110.738 E.10738
G1 X115.972 Y110.738 E.01695
G1 X118.576 Y113.342 E.11627
G1 X118.278 Y113.581 E.01206
G1 X115.435 Y110.738 E.12694
G1 X114.898 Y110.738 E.01695
G1 X118.001 Y113.841 E.13855
G1 X117.764 Y114.141 E.01207
G1 X114.361 Y110.738 E.15194
G1 X113.824 Y110.738 E.01695
G1 X117.559 Y114.472 E.16674
G1 X117.379 Y114.83 E.01265
G1 X113.287 Y110.737 E.18273
G1 X112.75 Y110.737 E.01695
G1 X117.253 Y115.24 E.20106
G1 X117.213 Y115.368 E.00423
G1 X117.175 Y115.7 E.01055
G1 X112.213 Y110.737 E.22157
G1 X111.676 Y110.737 E.01695
G1 X117.155 Y116.216 E.24463
G1 X117.203 Y116.675 E.01457
G1 X117.259 Y116.857 E.00601
G1 X111.139 Y110.737 E.27325
G1 X110.602 Y110.737 E.01695
G1 X127.779 Y127.915 E.76696
G1 X127.242 Y127.915 E.01695
G1 X110.065 Y110.737 E.76696
G1 X109.528 Y110.737 E.01695
G1 X126.706 Y127.915 E.76698
G1 X126.169 Y127.915 E.01695
G1 X108.991 Y110.737 E.76698
G1 X108.454 Y110.737 E.01695
G1 X125.632 Y127.915 E.76698
G1 X125.095 Y127.915 E.01695
G1 X107.917 Y110.737 E.76698
G1 X107.38 Y110.737 E.01695
G1 X124.558 Y127.915 E.76698
G1 X124.021 Y127.915 E.01695
G1 X106.843 Y110.737 E.76698
G1 X106.306 Y110.737 E.01695
G1 X123.484 Y127.915 E.76698
G1 X122.947 Y127.915 E.01695
G1 X105.769 Y110.737 E.76698
G1 X105.232 Y110.737 E.01695
G1 X122.41 Y127.915 E.76698
G1 X121.873 Y127.915 E.01695
G1 X104.695 Y110.737 E.76698
G1 X104.158 Y110.737 E.01695
G1 X121.336 Y127.915 E.76698
G1 X120.799 Y127.915 E.01695
G1 X103.621 Y110.737 E.76698
G1 X103.084 Y110.737 E.01695
G1 X120.262 Y127.915 E.76698
G1 X119.725 Y127.915 E.01695
M73 P4 R36
M73 Q4 S36
G1 X102.547 Y110.737 E.76698
G1 X102.383 Y110.745 E.00518
G1 X102.286 Y110.777 E.00322
G1 X102.164 Y110.891 E.00527
G1 X119.188 Y127.915 E.76011
G1 X118.651 Y127.915 E.01695
G1 X102.113 Y111.377 E.73841
G1 X102.113 Y111.914 E.01695
G1 X118.114 Y127.915 E.71443
G1 X117.577 Y127.915 E.01695
G1 X102.113 Y112.451 E.69046
G1 X102.113 Y112.988 E.01695
G1 X117.04 Y127.915 E.66648
G1 X116.503 Y127.915 E.01695
G1 X102.113 Y113.525 E.6425
G1 X102.113 Y114.062 E.01695
G1 X115.966 Y127.915 E.61853
G1 X115.429 Y127.915 E.01695
G1 X102.113 Y114.599 E.59455
G1 X102.113 Y115.136 E.01695
G1 X114.892 Y127.915 E.57057
G1 X114.355 Y127.915 E.01695
G1 X102.113 Y115.673 E.5466
G1 X102.113 Y116.21 E.01695
G1 X113.818 Y127.915 E.52262
G1 X113.281 Y127.915 E.01695
G1 X102.113 Y116.747 E.49864
G1 X102.113 Y117.284 E.01695
G1 X112.744 Y127.915 E.47467
G1 X112.207 Y127.915 E.01695
G1 X102.113 Y117.821 E.45069
G1 X102.113 Y118.358 E.01695
G1 X111.67 Y127.915 E.42671
G1 X111.133 Y127.915 E.01695
G1 X102.113 Y118.895 E.40274
G1 X102.113 Y119.432 E.01695
G1 X110.596 Y127.915 E.37876
G1 X110.059 Y127.915 E.01695
G1 X102.113 Y119.969 E.35478
G1 X102.113 Y120.506 E.01695
G1 X109.522 Y127.915 E.33081
G1 X108.986 Y127.915 E.01692
G1 X102.113 Y121.043 E.30685
G1 X102.113 Y121.58 E.01695
G1 X108.449 Y127.915 E.28288
G1 X107.912 Y127.915 E.01695
G1 X102.113 Y122.117 E.2589
G1 X102.113 Y122.654 E.01695
G1 X107.375 Y127.915 E.23492
G1 X106.838 Y127.915 E.01695
G1 X102.113 Y123.191 E.21095
G1 X102.113 Y123.728 E.01695
G1 X106.301 Y127.915 E.18697
G1 X105.764 Y127.915 E.01695
G1 X102.113 Y124.265 E.16299
G1 X102.113 Y124.802 E.01695
G1 X105.227 Y127.915 E.13902
G1 X104.69 Y127.915 E.01695
M73 P5 R35
G1 X102.113 Y125.339 E.11504
M73 Q5 S36
G1 X102.113 Y125.876 E.01695
G1 X104.153 Y127.915 E.09106
G1 X103.616 Y127.915 E.01695
G1 X102.113 Y126.413 E.06709
G1 X102.113 Y126.95 E.01695
G1 X103.079 Y127.915 E.04311
G1 X102.542 Y127.915 E.01695
G1 X101.944 Y127.317 E.0267
M204 S1000
;WIPE_START
G1 F8640
G1 X102.542 Y127.915 E-.19527
G1 X103.079 Y127.915 E-.12399
G1 X102.113 Y126.95 E-.31528
G1 X102.113 Y126.413 E-.12399
G1 X102.853 Y127.152 E-.24147
;WIPE_END
G1 Z.4 F720
; stop printing object HebelhalterBlock.stl id:0 copy 0
; printing object HebelhalterBlockBlind.stl id:1 copy 0
G1 X122.413 Y91.713 F10800
G1 Z.2 F720
G1 E1 F2100
M204 S800
;TYPE:Perimeter
;WIDTH:0.419999
G1 F1200
G1 X122.088 Y92.015 E.01391
G1 X121.648 Y92.276 E.01604
G1 X120.921 Y92.475 E.02363
G1 X120.378 Y92.478 E.01703
G1 X119.878 Y92.367 E.01606
G1 X119.377 Y92.134 E.01732
G1 X118.962 Y91.808 E.01655
G1 X118.555 Y91.268 E.0212
G1 X118.34 Y90.769 E.01704
G1 X118.248 Y90.266 E.01603
G1 X118.265 Y89.754 E.01606
G1 X118.389 Y89.258 E.01603
G1 X118.616 Y88.8 E.01603
G1 X119.005 Y88.33 E.01913
G1 X119.443 Y88.01 E.01701
G1 X119.998 Y87.775 E.0189
G1 X120.516 Y87.686 E.01648
G1 X121.024 Y87.712 E.01595
G1 X121.518 Y87.845 E.01604
G1 X121.972 Y88.079 E.01601
G1 X122.526 Y88.59 E.02363
G1 X122.817 Y89.049 E.01704
G1 X122.988 Y89.531 E.01604
G1 X123.056 Y90.082 E.01741
G1 X122.997 Y90.614 E.01678
G1 X122.758 Y91.236 E.02089
G1 X122.461 Y91.669 E.01646
G1 X122.457 Y91.672 E.00016
M204 S1000
G1 X122.457 Y91.672 F10800
G1 X122.14 Y91.461
M204 S800
;TYPE:External perimeter
G1 F1200
G1 X122.132 Y91.473 E.00045
G1 X121.805 Y91.756 E.01356
G1 X121.417 Y91.965 E.01382
G1 X120.831 Y92.108 E.01891
G1 X120.35 Y92.096 E.01509
G1 X119.933 Y91.988 E.01351
G1 X119.561 Y91.803 E.01303
G1 X119.217 Y91.526 E.01385
G1 X118.858 Y91.043 E.01887
G1 X118.692 Y90.633 E.01387
G1 X118.619 Y90.167 E.01479
G1 X118.648 Y89.737 E.01351
G1 X118.768 Y89.322 E.01355
G1 X118.971 Y88.942 E.01351
G1 X119.239 Y88.626 E.01299
G1 X119.59 Y88.357 E.01387
G1 X120.145 Y88.123 E.01889
G1 X120.605 Y88.058 E.01457
G1 X121.035 Y88.095 E.01353
G1 X121.447 Y88.222 E.01352
G1 X121.831 Y88.44 E.01384
G1 X122.263 Y88.86 E.01889
G1 X122.508 Y89.275 E.01511
G1 X122.638 Y89.686 E.01352
G1 X122.678 Y90.099 E.01301
G1 X122.593 Y90.621 E.01658
G1 X122.407 Y91.099 E.01608
