; generated by PrusaSlicer 2.8.1+win64 on 2025-01-21 at 15:06:06 UTC


;
;
; 

; external perimeters extrusion width = 0.60mm
; perimeters extrusion width = 0.50mm
; infill extrusion width = 0.50mm
; solid infill extrusion width = 0.50mm
; top infill extrusion width = 0.45mm
; support material extrusion width = 0.38mm
; first layer extrusion width = 0.42mm

M73 P0 R277
M73 Q0 S279
M201 X1000 Y1000 Z200 E5000 ; sets maximum accelerations, mm/sec^2
M203 X200 Y200 Z12 E120 ; sets maximum feedrates, mm / sec
M204 S1250 T1250 ; sets acceleration (S) and retract acceleration (R), mm/sec^2
M205 X8.00 Y8.00 Z0.40 E4.50 ; sets the jerk limits, mm/sec
M205 S0 T0 ; sets the minimum extruding and travel feed rate, mm/sec

; printing object SchlittenS.stl id:0 copy 0
; stop printing object SchlittenS.stl id:0 copy 0

;TYPE:Custom
M862.3 P "MK3S" ; printer model check
M862.1 P0.4 ; nozzle diameter check
M115 U3.14.0 ; tell printer latest fw version
G90 ; use absolute coordinates
M83 ; extruder relative mode
M104 S235 ; set extruder temp
M140 S80 ; set bed temp
M190 S80 ; wait for bed temp
M109 S235 ; wait for extruder temp
G28 W ; home all without mesh bed level
G80 X13.1553 Y40.6472 W223.689 H128.705 ; mesh bed levelling

G1 Z0.2 F720
G1 Y-3 F1000 ; go outside print area
G92 E0
G1 X60 E9 F1000 ; intro line
G1 X100 E12.5 F1000 ; intro line

G92 E0
M221 S95

; Don't change E values below. Excessive value can damage the printer.

M907 E538 ; set extruder motor current
G21 ; set units to millimeters
G90 ; use absolute coordinates
M83 ; use relative distances for extrusion

M900 K0.08 ; Filament gcode LA 1.5
M900 K45 ; Filament gcode LA 1.0




M107
;LAYER_CHANGE
;Z:0.2
;HEIGHT:0.2
G1 E-1 F2100
G1 Z.4 F720
G1 X15.867 Y41.021 F10800
G1 Z.2 F720
G1 E1 F2100
M204 S800
;TYPE:Skirt/Brim
;WIDTH:0.42
G1 F1200
G1 X17 Y40.836 E.03599
G1 X158.332 Y40.842 E4.43137
G1 X159.156 Y40.973 E.02616
M73 P0 R276
G1 X159.777 Y41.2 E.02073
G1 X234.629 Y78.726 E2.62535
G1 X235.086 Y79.001 E.01672
G1 X235.692 Y79.53 E.02522
G1 X235.996 Y79.912 E.01531
G1 X236.373 Y80.605 E.02474
G1 X236.589 Y81.328 E.02366
G1 X236.656 Y81.997 E.02108
G1 X236.656 Y128.003 E1.44249
G1 X236.507 Y129.025 E.03238
G1 X236.225 Y129.727 E.02372
G1 X235.964 Y130.135 E.01519
G1 X235.365 Y130.795 E.02795
G1 X234.665 Y131.258 E.02631
G1 X159.777 Y168.799 E2.62657
G1 X158.764 Y169.116 E.03328
M73 Q0 S278
G1 X17 Y169.164 E4.44491
G1 X16.332 Y169.097 E.02105
G1 X15.608 Y168.881 E.02369
G1 X14.915 Y168.504 E.02474
G1 X14.309 Y167.974 E.02524
G1 X14.004 Y167.593 E.0153
G1 X13.627 Y166.9 E.02474
G1 X13.411 Y166.176 E.02369
G1 X13.344 Y165.508 E.02105
G1 X13.344 Y44.492 E3.79437
G1 X13.493 Y43.47 E.03238
G1 X13.774 Y42.768 E.02371
G1 X14.036 Y42.36 E.0152
G1 X14.635 Y41.7 E.02795
G1 X15.105 Y41.37 E.01801
G1 X15.812 Y41.046 E.02438
M204 S1000
;WIPE_START
G1 F8640
G1 X15.867 Y41.021 E-.01395
G1 X17 Y40.836 E-.26508
G1 X20.122 Y40.836 E-.72097
;WIPE_END
G1 Z.4 F720
; printing object SchlittenS.stl id:0 copy 0
G1 X96.824 Y105 F10800
G1 Z.2 F720
G1 E1 F2100
M204 S800
;TYPE:Perimeter
;WIDTH:0.419999
G1 F1200
G1 X96.79 Y105.446 E.01402
G1 X96.618 Y105.919 E.01578
G1 X96.52 Y106.09 E.00618
G1 X96.196 Y106.476 E.0158
G1 X95.933 Y106.667 E.01019
G1 X95.493 Y106.905 E.01568
G1 X94.927 Y107.009 E.01804
G1 X94.731 Y107.009 E.00615
G1 X94.234 Y106.921 E.01583
G1 X94.05 Y106.854 E.00614
G1 X93.613 Y106.602 E.01582
G1 X93.462 Y106.476 E.00617
G1 X93.138 Y106.09 E.0158
G1 X93.04 Y105.919 E.00618
G1 X92.868 Y105.446 E.01578
G1 X92.834 Y105.252 E.00618
G1 X92.834 Y104.748 E.0158
G1 X92.868 Y104.554 E.00618
G1 X93.04 Y104.081 E.01578
G1 X93.138 Y103.91 E.00618
G1 X93.462 Y103.524 E.0158
G1 X93.613 Y103.398 E.00617
G1 X94.072 Y103.133 E.01662
G1 X94.704 Y102.994 E.02029
G1 X95.205 Y103.018 E.01573
G1 X95.608 Y103.146 E.01326
G1 X96.045 Y103.398 E.01582
G1 X96.196 Y103.524 E.00617
G1 X96.52 Y103.91 E.0158
G1 X96.618 Y104.081 E.00618
G1 X96.79 Y104.554 E.01578
G1 X96.82 Y104.94 E.01214
M204 S1000
G1 X96.82 Y104.94 F10800
G1 X96.442 Y105
M204 S800
;TYPE:External perimeter
G1 F1200
G1 X96.447 Y105.252 E.0079
G1 X96.263 Y105.79 E.01783
G1 X95.907 Y106.233 E.01782
G1 X95.42 Y106.528 E.01785
G1 X94.862 Y106.638 E.01783
G1 X94.3 Y106.55 E.01784
G1 X93.802 Y106.276 E.01782
G1 X93.427 Y105.847 E.01787
G1 X93.222 Y105.317 E.01782
G1 X93.211 Y104.748 E.01784
G1 X93.395 Y104.21 E.01783
G1 X93.751 Y103.767 E.01782
G1 X94.246 Y103.468 E.01813
G1 X94.771 Y103.365 E.01677
G1 X95.13 Y103.388 E.01128
G1 X95.42 Y103.472 E.00947
G1 X95.856 Y103.724 E.01579
G1 X96.231 Y104.153 E.01787
G1 X96.436 Y104.683 E.01782
G1 X96.441 Y104.94 E.00806
M204 S1000
;WIPE_START
G1 F8640
G1 X96.442 Y105 E-.01386
G1 X96.447 Y105.252 E-.0582
G1 X96.263 Y105.79 E-.13129
G1 X95.907 Y106.233 E-.13123
G1 X95.42 Y106.528 E-.13147
G1 X94.862 Y106.638 E-.13132
G1 X94.3 Y106.55 E-.13135
G1 X93.802 Y106.276 E-.13125
G1 X93.427 Y105.847 E-.13157
G1 X93.414 Y105.813 E-.00846
;WIPE_END
G1 Z.4 F720
G1 X88.12 Y106.539 F10800
G1 Z.2 F720
G1 E1 F2100
M204 S800
;TYPE:Perimeter
G1 F1200
G1 X88.045 Y106.602 E.00307
G1 X87.608 Y106.854 E.01582
G1 X87.424 Y106.921 E.00614
G1 X86.927 Y107.009 E.01583
G1 X86.731 Y107.009 E.00615
G1 X86.234 Y106.921 E.01583
G1 X86.05 Y106.854 E.00614
G1 X85.613 Y106.602 E.01582
G1 X85.462 Y106.476 E.00617
G1 X85.138 Y106.09 E.0158
G1 X85.04 Y105.919 E.00618
G1 X84.868 Y105.446 E.01578
G1 X84.834 Y105.001 E.01399
G1 X84.868 Y104.554 E.01406
G1 X85.04 Y104.081 E.01578
G1 X85.138 Y103.91 E.00618
G1 X85.462 Y103.524 E.0158
G1 X85.613 Y103.398 E.00617
G1 X86.05 Y103.146 E.01582
G1 X86.232 Y103.079 E.00608
G1 X86.735 Y102.989 E.01602
G1 X87.227 Y103.024 E.01547
G1 X87.608 Y103.146 E.01254
G1 X88.045 Y103.398 E.01582
G1 X88.196 Y103.524 E.00617
G1 X88.52 Y103.91 E.0158
G1 X88.618 Y104.081 E.00618
G1 X88.79 Y104.554 E.01578
G1 X88.824 Y104.748 E.00618
G1 X88.824 Y105.252 E.0158
G1 X88.79 Y105.446 E.00618
G1 X88.618 Y105.919 E.01578
G1 X88.52 Y106.09 E.00618
G1 X88.196 Y106.476 E.0158
G1 X88.166 Y106.5 E.0012
M204 S1000
G1 X88.166 Y106.5 F10800
G1 X87.878 Y106.251
M204 S800
;TYPE:External perimeter
G1 F1200
G1 X87.42 Y106.528 E.01678
G1 X86.862 Y106.638 E.01783
G1 X86.3 Y106.55 E.01784
G1 X85.802 Y106.276 E.01782
G1 X85.427 Y105.847 E.01787
G1 X85.222 Y105.317 E.01782
G1 X85.211 Y104.748 E.01784
G1 X85.395 Y104.21 E.01783
G1 X85.751 Y103.767 E.01782
G1 X86.238 Y103.472 E.01785
G1 X86.771 Y103.365 E.01705
G1 X87.13 Y103.388 E.01128
G1 X87.42 Y103.472 E.00947
G1 X87.856 Y103.724 E.01579
G1 X88.231 Y104.153 E.01787
G1 X88.436 Y104.683 E.01782
G1 X88.447 Y105.252 E.01784
G1 X88.263 Y105.79 E.01783
G1 X87.923 Y106.213 E.01702
M204 S1000
;WIPE_START
G1 F8640
G1 X87.878 Y106.251 E-.0136
G1 X87.42 Y106.528 E-.12359
G1 X86.862 Y106.638 E-.13132
G1 X86.3 Y106.55 E-.13135
G1 X85.802 Y106.276 E-.13125
G1 X85.427 Y105.847 E-.13157
G1 X85.222 Y105.317 E-.13121
G1 X85.211 Y104.748 E-.13141
G1 X85.315 Y104.442 E-.0747
;WIPE_END
G1 Z.4 F720
G1 X90.852 Y151.078 F10800
G1 Z.2 F720
G1 E1 F2100
M204 S800
;TYPE:Perimeter
G1 F1200
G1 X90.33 Y150.985 E.01662
G1 X89.488 Y150.729 E.02759
G1 X88.688 Y150.372 E.02747
G1 X88.376 Y150.212 E.01099
G1 X87.691 Y149.757 E.02578
G1 X87.285 Y149.415 E.01664
G1 X86.981 Y149.149 E.01267
G1 X86.425 Y148.54 E.02586
G1 X85.922 Y147.838 E.02708
G1 X85.482 Y147.03 E.02885
G1 X85.143 Y146.156 E.02939
G1 X84.942 Y145.359 E.02577
G1 X84.829 Y144.473 E.028
G1 X84.825 Y143.606 E.02718
G1 X84.929 Y142.72 E.02797
G1 X85.143 Y141.854 E.02797
G1 X85.452 Y141.045 E.02715
G1 X85.87 Y140.254 E.02805
G1 X86.38 Y139.525 E.0279
G1 X86.981 Y138.862 E.02806
G1 X87.636 Y138.295 E.02716
G1 X88.376 Y137.798 E.02795
G1 X89.174 Y137.397 E.028
G1 X89.99 Y137.105 E.02717
G1 X90.774 Y136.928 E.0252
G1 X91.443 Y136.85 E.02112
G1 X91.788 Y136.822 E.01085
G1 X92.64 Y136.847 E.02673
G1 X93.498 Y136.976 E.0272
G1 X94.356 Y137.215 E.02793
G1 X95.181 Y137.56 E.02804
G1 X95.933 Y137.99 E.02716
G1 X96.648 Y138.523 E.02796
G1 X97.291 Y139.141 E.02796
G1 X97.838 Y139.814 E.02719
G1 X98.313 Y140.571 E.02802
G1 X98.689 Y141.378 E.02791
G1 X98.956 Y142.203 E.02719
G1 X99.129 Y143.108 E.02889
G1 X99.181 Y143.877 E.02417
G1 X99.135 Y144.861 E.03089
G1 X98.98 Y145.714 E.02718
G1 X98.715 Y146.567 E.02801
G1 X98.347 Y147.377 E.0279
G1 X97.877 Y148.14 E.0281
G1 X97.338 Y148.818 E.02716
G1 X96.648 Y149.487 E.03013
G1 X95.991 Y149.982 E.02579
G1 X95.478 Y150.283 E.01865
G1 X94.657 Y150.672 E.02849
G1 X93.8 Y150.954 E.02829
G1 X92.947 Y151.118 E.02724
G1 X92.061 Y151.183 E.02785
G1 X91.173 Y151.135 E.02788
G1 X90.911 Y151.088 E.00835
M204 S1000
G1 X90.911 Y151.088 F10800
G1 X90.933 Y150.71
M204 S800
;TYPE:External perimeter
G1 F1200
G1 X90.411 Y150.616 E.01663
G1 X89.614 Y150.373 E.02613
G1 X88.856 Y150.034 E.02604
G1 X88.15 Y149.609 E.02584
G1 X87.531 Y149.129 E.02456
G1 X86.959 Y148.566 E.02516
G1 X86.469 Y147.958 E.02448
G1 X86.076 Y147.338 E.02302
G1 X85.813 Y146.851 E.01735
G1 X85.508 Y146.064 E.02646
G1 X85.307 Y145.264 E.02586
G1 X85.203 Y144.427 E.02645
G1 X85.202 Y143.606 E.02574
G1 X85.303 Y142.766 E.02653
G1 X85.508 Y141.947 E.02647
G1 X85.804 Y141.181 E.02575
G1 X86.202 Y140.432 E.02659
G1 X86.688 Y139.743 E.02644
G1 X87.259 Y139.116 E.02659
G1 X87.881 Y138.581 E.02572
G1 X88.585 Y138.112 E.02652
G1 X89.341 Y137.735 E.02649
G1 X90.115 Y137.461 E.02574
G1 X90.855 Y137.296 E.02377
G1 X91.477 Y137.226 E.01963
G1 X91.778 Y137.199 E.00948
G1 X92.629 Y137.224 E.02669
G1 X93.441 Y137.348 E.02575
G1 X94.253 Y137.578 E.02646
G1 X95.033 Y137.907 E.02654
G1 X95.745 Y138.316 E.02575
G1 X96.421 Y138.825 E.02653
G1 X97.028 Y139.412 E.02648
G1 X97.544 Y140.05 E.02573
G1 X97.993 Y140.77 E.0266
G1 X98.347 Y141.535 E.02643
G1 X98.597 Y142.317 E.02574
G1 X98.759 Y143.177 E.02744
G1 X98.805 Y143.9 E.02271
G1 X98.759 Y144.838 E.02945
G1 X98.61 Y145.645 E.02573
G1 X98.355 Y146.453 E.02657
G1 X98.004 Y147.22 E.02645
G1 X97.557 Y147.941 E.0266
G1 X97.044 Y148.581 E.02572
G1 X96.665 Y148.952 E.01663
G1 X96.019 Y149.489 E.02634
G1 X95.289 Y149.957 E.02719
G1 X94.51 Y150.325 E.02701
G1 X93.697 Y150.591 E.02682
G1 X92.889 Y150.745 E.02579
G1 X92.049 Y150.806 E.02641
G1 X91.207 Y150.76 E.02644
G1 X90.992 Y150.721 E.00685
M204 S1000
;WIPE_START
G1 F8640
G1 X90.933 Y150.71 E-.01386
G1 X90.411 Y150.616 E-.12247
G1 X89.614 Y150.373 E-.19239
G1 X88.856 Y150.034 E-.19173
G1 X88.15 Y149.609 E-.19028
G1 X87.531 Y149.129 E-.18087
G1 X87.196 Y148.799 E-.1084
;WIPE_END
G1 Z.4 F720
G1 X45.493 Y140.967 F10800
G1 Z.2 F720
G1 E1 F2100
M204 S800
;TYPE:Perimeter
G1 F1200
G1 X45.87 Y140.254 E.02529
G1 X46.38 Y139.525 E.0279
G1 X46.981 Y138.862 E.02806
G1 X47.636 Y138.295 E.02716
G1 X48.376 Y137.798 E.02795
G1 X49.174 Y137.397 E.028
G1 X49.99 Y137.105 E.02717
G1 X50.861 Y136.909 E.02799
G1 X51.72 Y136.824 E.02706
G1 X52.324 Y136.838 E.01894
G1 X52.71 Y136.853 E.01211
G1 X53.498 Y136.976 E.02501
G1 X54.356 Y137.215 E.02793
G1 X55.181 Y137.56 E.02804
G1 X55.933 Y137.99 E.02716
G1 X56.648 Y138.523 E.02796
G1 X57.291 Y139.141 E.02796
G1 X57.838 Y139.814 E.02719
G1 X58.313 Y140.571 E.02802
G1 X58.689 Y141.378 E.02791
G1 X58.956 Y142.203 E.02719
G1 X59.129 Y143.108 E.02889
G1 X59.187 Y143.97 E.02709
G1 X59.135 Y144.861 E.02798
G1 X58.98 Y145.714 E.02718
G1 X58.715 Y146.567 E.02801
G1 X58.347 Y147.377 E.0279
G1 X57.877 Y148.14 E.0281
G1 X57.338 Y148.818 E.02716
G1 X56.648 Y149.487 E.03013
G1 X55.991 Y149.982 E.02579
G1 X55.478 Y150.283 E.01865
G1 X54.657 Y150.672 E.02849
G1 X53.8 Y150.954 E.02829
G1 X52.947 Y151.118 E.02724
G1 X52.061 Y151.183 E.02785
G1 X51.173 Y151.135 E.02788
G1 X50.33 Y150.985 E.02685
G1 X49.488 Y150.729 E.02759
G1 X48.432 Y150.245 E.03642
G1 X47.941 Y149.923 E.01841
G1 X47.285 Y149.415 E.02601
G1 X46.981 Y149.149 E.01267
G1 X46.425 Y148.54 E.02586
G1 X45.922 Y147.838 E.02708
G1 X45.482 Y147.03 E.02885
G1 X45.164 Y146.222 E.02723
G1 X44.942 Y145.359 E.02794
G1 X44.829 Y144.473 E.028
G1 X44.825 Y143.606 E.02718
G1 X44.929 Y142.72 E.02797
G1 X45.143 Y141.854 E.02797
G1 X45.452 Y141.045 E.02715
G1 X45.465 Y141.02 E.00088
M204 S1000
G1 X45.465 Y141.02 F10800
G1 X45.823 Y141.144
M204 S800
;TYPE:External perimeter
G1 F1200
G1 X46.202 Y140.432 E.02529
G1 X46.688 Y139.743 E.02644
G1 X47.259 Y139.116 E.02659
G1 X47.881 Y138.581 E.02572
G1 X48.585 Y138.112 E.02652
G1 X49.341 Y137.735 E.02649
G1 X50.115 Y137.461 E.02574
G1 X50.942 Y137.277 E.02656
G1 X51.755 Y137.2 E.02561
G1 X52.313 Y137.215 E.0175
G1 X52.652 Y137.226 E.01063
G1 X53.441 Y137.348 E.02503
G1 X54.253 Y137.578 E.02646
G1 X55.033 Y137.907 E.02654
G1 X55.744 Y138.316 E.02572
G1 X56.421 Y138.825 E.02656
G1 X57.028 Y139.412 E.02648
G1 X57.544 Y140.05 E.02573
G1 X57.993 Y140.77 E.0266
G1 X58.347 Y141.535 E.02643
G1 X58.597 Y142.317 E.02574
G1 X58.759 Y143.177 E.02744
G1 X58.81 Y143.994 E.02567
G1 X58.759 Y144.838 E.02651
G1 X58.61 Y145.645 E.02573
G1 X58.355 Y146.453 E.02657
G1 X58.004 Y147.22 E.02645
G1 X57.557 Y147.941 E.0266
G1 X57.044 Y148.581 E.02572
G1 X56.665 Y148.951 E.01661
G1 X56.019 Y149.489 E.02636
G1 X55.289 Y149.957 E.02719
G1 X54.51 Y150.325 E.02701
G1 X53.697 Y150.591 E.02682
G1 X52.889 Y150.745 E.02579
G1 X52.049 Y150.806 E.02641
G1 X51.207 Y150.76 E.02644
G1 X50.411 Y150.616 E.02536
G1 X49.614 Y150.373 E.02613
G1 X48.603 Y149.909 E.03488
G1 X48.15 Y149.609 E.01704
G1 X47.531 Y149.129 E.02456
G1 X46.959 Y148.566 E.02516
G1 X46.469 Y147.958 E.02448
G1 X46.076 Y147.338 E.02302
G1 X45.813 Y146.851 E.01735
G1 X45.515 Y146.086 E.02574
G1 X45.308 Y145.267 E.02649
G1 X45.203 Y144.427 E.02654
G1 X45.202 Y143.606 E.02574
G1 X45.303 Y142.766 E.02653
G1 X45.508 Y141.947 E.02647
G1 X45.797 Y141.197 E.0252
M204 S1000
;WIPE_START
G1 F8640
G1 X45.823 Y141.144 E-.01363
G1 X46.202 Y140.432 E-.18624
G1 X46.688 Y139.743 E-.19469
G1 X47.259 Y139.116 E-.19581
G1 X47.881 Y138.581 E-.18944
G1 X48.585 Y138.112 E-.19532
G1 X48.681 Y138.064 E-.02487
;WIPE_END
G1 Z.4 F720
G1 X45.453 Y68.947 F10800
G1 Z.2 F720
G1 E1 F2100
M204 S800
;TYPE:Perimeter
G1 F1200
G1 X45.164 Y68.212 E.02476
G1 X44.942 Y67.349 E.02794
G1 X44.829 Y66.463 E.028
G1 X44.825 Y65.596 E.02718
G1 X44.929 Y64.71 E.02797
G1 X45.143 Y63.844 E.02797
G1 X45.452 Y63.034 E.02718
G1 X45.887 Y62.214 E.0291
G1 X46.38 Y61.515 E.02682
G1 X46.981 Y60.851 E.02808
G1 X47.636 Y60.285 E.02714
G1 X48.376 Y59.788 E.02795
G1 X49.174 Y59.387 E.028
G1 X49.99 Y59.095 E.02717
G1 X50.861 Y58.898 E.028
G1 X51.72 Y58.814 E.02706
G1 X52.64 Y58.837 E.02885
G1 X53.498 Y58.966 E.0272
G1 X54.356 Y59.205 E.02793
G1 X55.181 Y59.55 E.02804
G1 X55.933 Y59.98 E.02716
G1 X56.648 Y60.513 E.02796
G1 X57.291 Y61.131 E.02796
G1 X57.838 Y61.804 E.02719
G1 X58.347 Y62.623 E.03023
G1 X58.689 Y63.368 E.0257
G1 X58.956 Y64.192 E.02716
G1 X59.129 Y65.098 E.02892
G1 X59.186 Y65.96 E.02709
G1 X59.135 Y66.851 E.02798
G1 X58.98 Y67.704 E.02718
G1 X58.715 Y68.556 E.02798
G1 X58.347 Y69.367 E.02792
G1 X57.877 Y70.13 E.0281
G1 X57.338 Y70.807 E.02713
G1 X56.648 Y71.477 E.03016
G1 X55.99 Y71.972 E.02582
G1 X55.242 Y72.409 E.02716
G1 X54.423 Y72.761 E.02795
G1 X53.593 Y73.002 E.0271
G1 X52.684 Y73.149 E.02887
G1 X52.01 Y73.174 E.02115
G1 X50.93 Y73.102 E.03394
G1 X50.056 Y72.914 E.02803
G1 X49.237 Y72.63 E.02718
G1 X48.437 Y72.237 E.02795
G1 X47.691 Y71.747 E.02798
G1 X47.03 Y71.186 E.02718
G1 X46.425 Y70.53 E.02798
G1 X45.922 Y69.828 E.02708
G1 X45.482 Y69.02 E.02885
G1 X45.475 Y69.002 E.00061
M204 S1000
G1 X45.475 Y69.002 F10800
G1 X45.802 Y68.811
M204 S800
;TYPE:External perimeter
G1 F1200
G1 X45.516 Y68.075 E.02476
G1 X45.308 Y67.257 E.02646
G1 X45.203 Y66.417 E.02654
G1 X45.202 Y65.596 E.02574
G1 X45.304 Y64.756 E.02653
G1 X45.509 Y63.936 E.0265
G1 X45.804 Y63.171 E.02571
G1 X46.208 Y62.412 E.02696
G1 X46.688 Y61.733 E.02607
G1 X47.259 Y61.106 E.02659
G1 X47.881 Y60.571 E.02572
G1 X48.585 Y60.102 E.02652
G1 X49.341 Y59.725 E.02649
G1 X50.115 Y59.451 E.02574
G1 X50.942 Y59.267 E.02656
G1 X51.755 Y59.19 E.02561
G1 X52.629 Y59.214 E.02741
G1 X53.441 Y59.338 E.02575
G1 X54.253 Y59.568 E.02646
G1 X55.033 Y59.897 E.02654
G1 X55.744 Y60.306 E.02572
G1 X56.421 Y60.814 E.02654
G1 X57.028 Y61.402 E.0265
G1 X57.544 Y62.04 E.02573
