; generated by PrusaSlicer 2.8.1+win64 on 2025-01-21 at 13:00:06 UTC


;
;
; 

; external perimeters extrusion width = 0.60mm
; perimeters extrusion width = 0.50mm
; infill extrusion width = 0.50mm
; solid infill extrusion width = 0.50mm
; top infill extrusion width = 0.45mm
; first layer extrusion width = 0.42mm

M73 P0 R31
M73 Q0 S31
M201 X1000 Y1000 Z200 E5000 ; sets maximum accelerations, mm/sec^2
M203 X200 Y200 Z12 E120 ; sets maximum feedrates, mm / sec
M204 S1250 T1250 ; sets acceleration (S) and retract acceleration (R), mm/sec^2
M205 X8.00 Y8.00 Z0.40 E4.50 ; sets the jerk limits, mm/sec
M205 S0 T0 ; sets the minimum extruding and travel feed rate, mm/sec

; printing object SchubstangeAPress.stl id:0 copy 0
; stop printing object SchubstangeAPress.stl id:0 copy 0

;TYPE:Custom
M862.3 P "MK3S" ; printer model check
M862.1 P0.4 ; nozzle diameter check
M115 U3.14.0 ; tell printer latest fw version
G90 ; use absolute coordinates
M83 ; extruder relative mode
M104 S235 ; set extruder temp
M140 S80 ; set bed temp
M190 S80 ; wait for bed temp
M109 S235 ; wait for extruder temp
G28 W ; home all without mesh bed level
G80 X109.823 Y64.1229 W30.3542 H81.7542 ; mesh bed levelling

G1 Z0.2 F720
G1 Y-3 F1000 ; go outside print area
G92 E0
G1 X60 E9 F1000 ; intro line
G1 X100 E12.5 F1000 ; intro line

G92 E0
M221 S95

; Don't change E values below. Excessive value can damage the printer.

M907 E538 ; set extruder motor current
G21 ; set units to millimeters
G90 ; use absolute coordinates
M83 ; use relative distances for extrusion

M900 K0.08 ; Filament gcode LA 1.5
M900 K45 ; Filament gcode LA 1.0




M107
;LAYER_CHANGE
;Z:0.2
;HEIGHT:0.2
G1 E-1 F2100
G1 Z.4 F720
G1 X110.402 Y71.252 F10800
G1 Z.2 F720
G1 E1 F2100
M204 S800
;TYPE:Skirt/Brim
;WIDTH:0.42
G1 F1200
G1 X110.986 Y70.679 E.02565
G1 X119.986 Y64.679 E.33915
G1 X121.2 Y64.311 E.03977
G1 X128.8 Y64.311 E.23829
G1 X130.014 Y64.679 E.03977
G1 X139.014 Y70.679 E.33915
G1 X139.836 Y71.697 E.04103
G1 X139.989 Y72.5 E.02563
G1 X139.989 Y143.5 E2.22616
G1 X139.598 Y144.748 E.04101
G1 X138.565 Y145.551 E.04102
G1 X137.8 Y145.689 E.02437
G1 X112.2 Y145.689 E.80267
G1 X110.952 Y145.298 E.04101
G1 X110.149 Y144.265 E.04102
G1 X110.011 Y143.5 E.02437
G1 X110.011 Y72.5 E2.22616
G1 X110.384 Y71.309 E.03913
M204 S1000
;WIPE_START
G1 F8640
G1 X110.402 Y71.252 E-.0138
G1 X110.986 Y70.679 E-.18892
G1 X113.859 Y68.764 E-.79728
;WIPE_END
G1 Z.4 F720
; printing object SchubstangeAPress.stl id:0 copy 0
G1 X124.311 Y68.04 F10800
G1 Z.2 F720
G1 E1 F2100
M204 S800
;TYPE:External perimeter
;WIDTH:0.419999
G1 F1200
G1 X124.527 Y67.933 E.00756
G1 X125.049 Y67.863 E.01651
G1 X125.344 Y67.899 E.00932
G1 X125.835 Y68.092 E.01654
G1 X126.254 Y68.447 E.01722
G1 X126.522 Y68.897 E.01642
G1 X126.633 Y69.387 E.01575
G1 X126.592 Y69.891 E.01585
G1 X126.374 Y70.39 E.01707
G1 X126.022 Y70.779 E.01645
G1 X125.611 Y71.02 E.01494
G1 X125.109 Y71.134 E.01614
G1 X124.563 Y71.078 E.01721
G1 X124.084 Y70.857 E.01654
G1 X123.702 Y70.497 E.01646
G1 X123.46 Y70.058 E.01572
G1 X123.363 Y69.543 E.01643
G1 X123.441 Y68.999 E.01723
G1 X123.681 Y68.53 E.01652
G1 X124.036 Y68.176 E.01572
G1 X124.258 Y68.066 E.00777
M204 S1000
G1 X124.258 Y68.066 F10800
G1 X124.487 Y67.418
M204 S800
;TYPE:Perimeter
;WIDTH:0.680952
G1 F1200
G1 X124.741 Y67.403 E.0135
;WIDTH:0.651624
G1 X124.995 Y67.388 E.01288
;WIDTH:0.648402
G1 X125.361 Y67.401 E.01844
M204 S1000
;WIPE_START
G1 F8640
G1 X124.487 Y67.418 E-.20185
G1 X124.741 Y67.403 E-.05875
G1 X124.995 Y67.388 E-.05875
G1 X125.361 Y67.401 E-.08456
;WIPE_END
G1 E-.59609 F2100
G1 Z.4 F720
G1 X128.193 Y73.11 F10800
M73 Q1 S31
G1 Z.2 F720
M73 P1 R31
G1 E1 F2100
M204 S800
;WIDTH:0.419999
G1 F1200
G1 X128.309 Y73.219 E.00499
G1 X128.579 Y73.287 E.00873
G1 X137.013 Y73.287 E.26444
G1 X137.013 Y81.721 E.26444
G1 X137.013 Y142.713 E1.91236
G1 X112.987 Y142.713 E.75332
G1 X112.987 Y73.287 E2.1768
G1 X121.421 Y73.287 E.26444
G1 X121.548 Y73.273 E.00401
G1 X121.784 Y73.155 E.00827
G1 X121.942 Y72.942 E.00832
G1 X121.987 Y72.721 E.00707
G1 X121.987 Y67.287 E.17038
G1 X123.526 Y67.287 E.04825
;WIDTH:0.464974
G1 X123.783 Y67.31 E.00906
;WIDTH:0.509949
G1 X124.04 Y67.332 E.01002
;WIDTH:0.554924
G1 X124.296 Y67.355 E.01094
;WIDTH:0.596934
G1 X124.36 Y67.376 E.0031
;WIDTH:0.638943
G1 X124.424 Y67.397 E.00334
;WIDTH:0.680952
G1 X124.487 Y67.418 E.00352
G1 X124.437 Y67.455 E.0033
;WIDTH:0.638943
G1 X124.386 Y67.493 E.00315
;WIDTH:0.596934
G1 X124.336 Y67.531 E.00289
;WIDTH:0.554924
G1 X124.149 Y67.656 E.00958
;WIDTH:0.509949
G1 X123.962 Y67.78 E.00871
;WIDTH:0.464974
G1 X123.775 Y67.905 E.00789
;WIDTH:0.419999
G1 X123.348 Y68.352 E.01938
G1 X123.069 Y68.939 E.02038
G1 X122.992 Y69.607 E.02108
G1 X123.127 Y70.233 E.02008
G1 X123.438 Y70.767 E.01938
G1 X123.92 Y71.197 E.02025
G1 X124.517 Y71.452 E.02035
G1 X125.187 Y71.503 E.02107
G1 X125.812 Y71.34 E.02025
G1 X126.353 Y70.988 E.02024
G1 X126.753 Y70.488 E.02008
G1 X126.97 Y69.904 E.01953
G1 X126.994 Y69.236 E.02096
G1 X126.82 Y68.643 E.01938
G1 X126.451 Y68.108 E.02038
G1 X125.912 Y67.707 E.02106
;WIDTH:0.46568
G1 X125.802 Y67.646 E.00442
;WIDTH:0.511361
G1 X125.692 Y67.585 E.0049
;WIDTH:0.557041
G1 X125.581 Y67.524 E.00541
;WIDTH:0.602722
G1 X125.471 Y67.462 E.00588
;WIDTH:0.648402
G1 X125.361 Y67.401 E.00633
G1 X125.486 Y67.378 E.0064
;WIDTH:0.602722
G1 X125.611 Y67.356 E.00591
;WIDTH:0.557041
G1 X125.737 Y67.333 E.00548
;WIDTH:0.511361
G1 X125.862 Y67.31 E.00495
;WIDTH:0.46568
G1 X125.987 Y67.287 E.00447
;WIDTH:0.419999
G1 X128.013 Y67.287 E.06352
G1 X128.019 Y72.804 E.17298
G1 X128.099 Y73.021 E.00725
G1 X128.15 Y73.069 E.0022
M204 S1000
G1 X128.15 Y73.069 F10800
G1 X128.477 Y72.868
M204 S800
;TYPE:External perimeter
G1 F1200
G1 X128.579 Y72.91 E.00346
G1 X137.39 Y72.91 E.27626
G1 X137.39 Y81.721 E.27626
G1 X137.39 Y143.09 E1.92418
G1 X112.61 Y143.09 E.77696
G1 X112.61 Y72.91 E2.20044
G1 X121.421 Y72.91 E.27626
M73 P2 R30
M73 Q2 S31
G1 X121.542 Y72.866 E.00404
G1 X121.61 Y72.721 E.00502
G1 X121.61 Y66.91 E.1822
G1 X128.39 Y66.91 E.21258
G1 X128.39 Y72.721 E.1822
G1 X128.435 Y72.832 E.00376
M204 S1000
;WIPE_START
G1 F8640
G1 X128.477 Y72.868 E-.01277
G1 X128.579 Y72.91 E-.02547
G1 X132.744 Y72.91 E-.96176
;WIPE_END
G1 Z.4 F720
G1 X136.843 Y74.22 F10800
G1 Z.2 F720
G1 E1 F2100
M204 S800
;TYPE:Solid infill
;WIDTH:0.42024
G1 F1200
G1 X136.25 Y73.626 E.02633
G1 X135.717 Y73.626 E.01672
G1 X136.674 Y74.583 E.04246
G1 X136.674 Y75.117 E.01675
G1 X135.183 Y73.626 E.06616
G1 X134.649 Y73.626 E.01675
G1 X136.674 Y75.651 E.08985
G1 X136.674 Y76.184 E.01672
G1 X134.116 Y73.626 E.1135
G1 X133.582 Y73.626 E.01675
G1 X136.674 Y76.718 E.13719
G1 X136.674 Y77.252 E.01675
G1 X133.048 Y73.626 E.16089
G1 X132.515 Y73.626 E.01672
G1 X136.674 Y77.785 E.18453
G1 X136.674 Y78.319 E.01675
G1 X131.981 Y73.626 E.20823
G1 X131.448 Y73.626 E.01672
G1 X136.674 Y78.852 E.23188
G1 X136.674 Y79.386 E.01675
G1 X130.914 Y73.626 E.25557
G1 X130.38 Y73.626 E.01675
G1 X136.674 Y79.92 E.27926
G1 X136.674 Y80.453 E.01672
G1 X129.847 Y73.626 E.30291
G1 X129.313 Y73.626 E.01675
G1 X136.674 Y80.987 E.32661
G1 X136.674 Y81.52 E.01672
G1 X128.61 Y73.457 E.35778
M204 S1000
;WIPE_START
G1 F8640
M73 Q2 S30
G1 X131.672 Y76.519 E-1
;WIPE_END
G1 Z.4 F720
G1 X127.843 Y67.888 F10800
G1 Z.2 F720
G1 E1 F2100
M204 S800
G1 F1200
G1 X127.582 Y67.626 E.0116
G1 X127.048 Y67.626 E.01675
G1 X127.674 Y68.252 E.02778
G1 X127.674 Y68.785 E.01672
G1 X126.515 Y67.626 E.05142
G1 X126.398 Y67.626 E.00367
G1 X126.676 Y67.853 E.01126
G1 X126.856 Y68.058 E.00856
G1 X127.114 Y68.474 E.01536
G1 X127.215 Y68.714 E.00817
G1 X127.263 Y68.908 E.00627
G1 X127.674 Y69.319 E.01824
G1 X127.674 Y69.852 E.01672
G1 X127.34 Y69.518 E.01482
G1 X127.292 Y70.004 E.01532
G1 X127.674 Y70.386 E.01695
G1 X127.674 Y70.92 E.01675
G1 X127.157 Y70.403 E.02294
G1 X127.06 Y70.631 E.00777
G1 X126.98 Y70.76 E.00476
G1 X127.674 Y71.453 E.03077
G1 X127.674 Y71.987 E.01675
G1 X126.743 Y71.057 E.04129
G1 X126.601 Y71.221 E.00681
G1 X126.477 Y71.323 E.00504
G1 X127.843 Y72.69 E.06063
M204 S1000
;WIPE_START
G1 F8640
G1 X126.477 Y71.323 E-.44622
G1 X126.601 Y71.221 E-.03707
G1 X126.743 Y71.057 E-.05009
G1 X127.674 Y71.987 E-.30385
G1 X127.674 Y71.453 E-.1233
G1 X127.553 Y71.332 E-.03947
;WIPE_END
G1 Z.4 F720
G1 X126.028 Y71.409 F10800
G1 Z.2 F720
G1 E1 F2100
M204 S800
G1 F1200
G1 X136.674 Y82.054 E.47234
G1 X136.674 Y82.588 E.01675
G1 X125.796 Y71.71 E.48266
G1 X125.364 Y71.812 E.01393
G1 X136.674 Y83.121 E.5018
G1 X136.674 Y83.655 E.01675
G1 X124.657 Y71.639 E.53317
M204 S1000
;WIPE_START
G1 F8640
G1 X127.719 Y74.701 E-1
;WIPE_END
G1 Z.4 F720
G1 X123.561 Y67.874 F10800
G1 Z.2 F720
G1 E1 F2100
M204 S800
G1 F1200
G1 X123.313 Y67.626 E.011
G1 X122.78 Y67.626 E.01672
G1 X123.175 Y68.022 E.01755
G1 X123.055 Y68.182 E.00627
G1 X122.966 Y68.347 E.00588
G1 X122.326 Y67.707 E.0284
G1 X122.326 Y68.24 E.01672
G1 X122.792 Y68.706 E.02068
G1 X122.736 Y68.873 E.00553
G1 X122.696 Y69.144 E.00859
G1 X122.326 Y68.774 E.01642
G1 X122.326 Y69.307 E.01672
G1 X122.865 Y69.846 E.02392
M204 S1000
G1 X122.865 Y69.846 F10800
G1 X122.156 Y69.671
M204 S800
G1 F1200
G1 X122.797 Y70.312 E.02844
G1 X123.037 Y70.794 E.01689
G1 X123.193 Y71.002 E.00816
G1 X123.543 Y71.344 E.01535
G1 X123.761 Y71.497 E.00836
G1 X124.189 Y71.704 E.01492
G1 X136.674 Y84.188 E.55394
G1 X136.674 Y84.722 E.01675
G1 X122.325 Y70.374 E.63664
G1 X122.325 Y70.907 E.01672
G1 X136.674 Y85.256 E.63666
G1 X136.674 Y85.789 E.01672
G1 X122.325 Y71.441 E.63664
G1 X122.325 Y71.974 E.01672
G1 X136.674 Y86.323 E.63666
G1 X136.674 Y86.857 E.01675
G1 X122.325 Y72.508 E.63666
G1 X122.325 Y72.787 E.00875
M73 P3 R30
M73 Q3 S30
G1 X122.28 Y72.996 E.00671
G1 X136.674 Y87.39 E.63866
G1 X136.674 Y87.924 E.01675
G1 X122.085 Y73.335 E.64731
G1 X121.854 Y73.518 E.00925
G1 X121.767 Y73.551 E.00292
G1 X136.674 Y88.457 E.6614
G1 X136.674 Y88.991 E.01675
G1 X121.309 Y73.626 E.68174
G1 X120.775 Y73.626 E.01675
G1 X136.674 Y89.525 E.70544
G1 X136.674 Y90.058 E.01672
G1 X120.242 Y73.626 E.72909
G1 X119.708 Y73.626 E.01675
G1 X136.674 Y90.592 E.75278
G1 X136.674 Y91.125 E.01672
G1 X119.175 Y73.626 E.77643
G1 X118.641 Y73.626 E.01675
G1 X136.674 Y91.659 E.80012
G1 X136.674 Y92.193 E.01675
G1 X118.107 Y73.626 E.82382
G1 X117.574 Y73.626 E.01672
G1 X136.674 Y92.726 E.84747
G1 X136.674 Y93.26 E.01675
G1 X117.04 Y73.626 E.87116
G1 X116.507 Y73.626 E.01672
G1 X136.674 Y93.793 E.89481
G1 X136.674 Y94.327 E.01675
G1 X115.973 Y73.626 E.9185
G1 X115.439 Y73.626 E.01675
G1 X136.674 Y94.861 E.9422
G1 X136.674 Y95.394 E.01672
M73 P4 R30
M73 Q4 S30
G1 X114.906 Y73.626 E.96584
G1 X114.372 Y73.626 E.01675
G1 X136.674 Y95.928 E.98954
G1 X136.674 Y96.462 E.01675
G1 X113.838 Y73.626 E1.01323
G1 X113.326 Y73.626 E.01606
G1 X113.326 Y73.648 E.00069
G1 X136.674 Y96.995 E1.03593
G1 X136.674 Y97.529 E.01675
G1 X113.326 Y74.182 E1.03593
G1 X113.326 Y74.715 E.01672
G1 X136.674 Y98.062 E1.03593
G1 X136.674 Y98.596 E.01675
G1 X113.326 Y75.249 E1.03593
G1 X113.326 Y75.782 E.01672
G1 X136.674 Y99.13 E1.03595
G1 X136.674 Y99.663 E.01672
G1 X113.326 Y76.316 E1.03593
G1 X113.326 Y76.85 E.01675
G1 X136.674 Y100.197 E1.03593
G1 X136.674 Y100.73 E.01672
G1 X113.326 Y77.383 E1.03593
G1 X113.326 Y77.917 E.01675
M73 P5 R30
M73 Q5 S30
G1 X136.674 Y101.264 E1.03593
G1 X136.674 Y101.798 E.01675
M73 P5 R29
G1 X113.326 Y78.451 E1.03593
G1 X113.326 Y78.984 E.01672
G1 X136.674 Y102.331 E1.03593
G1 X136.674 Y102.865 E.01675
G1 X113.326 Y79.518 E1.03593
G1 X113.326 Y80.051 E.01672
G1 X136.674 Y103.398 E1.03593
G1 X136.674 Y103.932 E.01675
G1 X113.326 Y80.585 E1.03593
G1 X113.326 Y81.119 E.01675
M73 Q5 S29
G1 X136.674 Y104.466 E1.03593
G1 X136.674 Y104.999 E.01672
G1 X113.326 Y81.652 E1.03593
G1 X113.326 Y82.186 E.01675
G1 X136.674 Y105.533 E1.03593
G1 X136.674 Y106.067 E.01675
G1 X113.326 Y82.719 E1.03595
G1 X113.326 Y83.253 E.01675
G1 X136.674 Y106.6 E1.03593
G1 X136.674 Y107.134 E.01675
G1 X113.326 Y83.787 E1.03593
G1 X113.326 Y84.32 E.01672
M73 P6 R29
M73 Q6 S29
G1 X136.674 Y107.667 E1.03593
G1 X136.674 Y108.201 E.01675
G1 X113.326 Y84.854 E1.03593
G1 X113.326 Y85.387 E.01672
G1 X136.674 Y108.735 E1.03595
G1 X136.674 Y109.268 E.01672
G1 X113.326 Y85.921 E1.03593
G1 X113.326 Y86.455 E.01675
G1 X136.674 Y109.802 E1.03593
G1 X136.674 Y110.335 E.01672
G1 X113.326 Y86.988 E1.03593
G1 X113.326 Y87.522 E.01675
G1 X136.674 Y110.869 E1.03593
G1 X136.674 Y111.403 E.01675
G1 X113.326 Y88.056 E1.03593
G1 X113.326 Y88.589 E.01672
G1 X136.674 Y111.936 E1.03593
G1 X136.674 Y112.47 E.01675
G1 X113.326 Y89.123 E1.03593
G1 X113.326 Y89.656 E.01672
G1 X136.674 Y113.003 E1.03593
G1 X136.674 Y113.537 E.01675
M73 P7 R29
M73 Q7 S29
G1 X113.326 Y90.19 E1.03593
G1 X113.326 Y90.724 E.01675
G1 X136.674 Y114.071 E1.03593
G1 X136.674 Y114.604 E.01672
G1 X113.326 Y91.257 E1.03593
G1 X113.326 Y91.791 E.01675
G1 X136.674 Y115.138 E1.03593
G1 X136.674 Y115.672 E.01675
G1 X113.326 Y92.324 E1.03595
G1 X113.326 Y92.858 E.01675
G1 X136.674 Y116.205 E1.03593
G1 X136.674 Y116.739 E.01675
G1 X113.326 Y93.392 E1.03593
G1 X113.326 Y93.925 E.01672
G1 X136.674 Y117.272 E1.03593
G1 X136.674 Y117.806 E.01675
G1 X113.326 Y94.459 E1.03593
G1 X113.326 Y94.992 E.01672
G1 X136.674 Y118.34 E1.03595
G1 X136.674 Y118.873 E.01672
G1 X113.326 Y95.526 E1.03593
G1 X113.326 Y96.06 E.01675
M73 P8 R29
M73 Q8 S29
G1 X136.674 Y119.407 E1.03593
G1 X136.674 Y119.94 E.01672
G1 X113.326 Y96.593 E1.03593
G1 X113.326 Y97.127 E.01675
M73 P8 R28
G1 X136.674 Y120.474 E1.03593
G1 X136.674 Y121.008 E.01675
G1 X113.326 Y97.661 E1.03593
G1 X113.326 Y98.194 E.01672
G1 X136.674 Y121.541 E1.03593
G1 X136.674 Y122.075 E.01675
G1 X113.326 Y98.728 E1.03593
G1 X113.326 Y99.261 E.01672
G1 X136.674 Y122.608 E1.03593
G1 X136.674 Y123.142 E.01675
G1 X113.326 Y99.795 E1.03593
G1 X113.326 Y100.329 E.01675
M73 Q8 S28
G1 X136.674 Y123.676 E1.03593
G1 X136.674 Y124.209 E.01672
G1 X113.326 Y100.862 E1.03593
G1 X113.326 Y101.396 E.01675
G1 X136.674 Y124.743 E1.03593
G1 X136.674 Y125.277 E.01675
M73 P9 R28
G1 X113.326 Y101.929 E1.03595
G1 X113.326 Y102.463 E.01675
M73 Q9 S28
G1 X136.674 Y125.81 E1.03593
G1 X136.674 Y126.344 E.01675
G1 X113.326 Y102.997 E1.03593
G1 X113.326 Y103.53 E.01672
G1 X136.674 Y126.877 E1.03593
G1 X136.674 Y127.411 E.01675
G1 X113.326 Y104.064 E1.03593
G1 X113.326 Y104.597 E.01672
G1 X136.674 Y127.945 E1.03595
G1 X136.674 Y128.478 E.01672
G1 X113.326 Y105.131 E1.03593
G1 X113.326 Y105.665 E.01675
G1 X136.674 Y129.012 E1.03593
G1 X136.674 Y129.545 E.01672
G1 X113.326 Y106.198 E1.03593
G1 X113.326 Y106.732 E.01675
G1 X136.674 Y130.079 E1.03593
G1 X136.674 Y130.613 E.01675
G1 X113.326 Y107.266 E1.03593
G1 X113.326 Y107.799 E.01672
M73 P10 R28
G1 X136.674 Y131.146 E1.03593
G1 X136.674 Y131.68 E.01675
M73 Q10 S28
G1 X113.326 Y108.333 E1.03593
G1 X113.326 Y108.866 E.01672
G1 X136.674 Y132.213 E1.03593
G1 X136.674 Y132.747 E.01675
G1 X113.326 Y109.4 E1.03593
G1 X113.326 Y109.934 E.01675
G1 X136.674 Y133.281 E1.03593
G1 X136.674 Y133.814 E.01672
G1 X113.326 Y110.467 E1.03593
G1 X113.326 Y111.001 E.01675
G1 X136.674 Y134.348 E1.03593
G1 X136.674 Y134.882 E.01675
G1 X113.326 Y111.534 E1.03595
G1 X113.326 Y112.068 E.01675
G1 X136.674 Y135.415 E1.03593
G1 X136.674 Y135.949 E.01675
G1 X113.326 Y112.602 E1.03593
G1 X113.326 Y113.135 E.01672
G1 X136.674 Y136.482 E1.03593
G1 X136.674 Y137.016 E.01675
G1 X113.326 Y113.669 E1.03593
G1 X113.326 Y114.202 E.01672
M73 P11 R28
M73 Q11 S28
G1 X136.674 Y137.55 E1.03595
G1 X136.674 Y138.083 E.01672
G1 X113.326 Y114.736 E1.03593
G1 X113.326 Y115.27 E.01675
G1 X136.674 Y138.617 E1.03593
G1 X136.674 Y139.15 E.01672
G1 X113.326 Y115.803 E1.03593
G1 X113.326 Y116.337 E.01675
M73 P11 R27
G1 X136.674 Y139.684 E1.03593
G1 X136.674 Y140.218 E.01675
G1 X113.326 Y116.871 E1.03593
G1 X113.326 Y117.404 E.01672
G1 X136.674 Y140.751 E1.03593
G1 X136.674 Y141.285 E.01675
G1 X113.326 Y117.938 E1.03593
G1 X113.326 Y118.471 E.01672
G1 X136.674 Y141.818 E1.03593
G1 X136.674 Y142.352 E.01675
M73 Q11 S27
G1 X113.326 Y119.005 E1.03593
G1 X113.326 Y119.539 E.01675
G1 X136.161 Y142.374 E1.01319
G1 X135.628 Y142.374 E.01672
M73 P12 R27
