; generated by PrusaSlicer 2.8.1+win64 on 2025-01-21 at 13:24:58 UTC


;
;
; 

; external perimeters extrusion width = 0.60mm
; perimeters extrusion width = 0.50mm
; infill extrusion width = 0.50mm
; solid infill extrusion width = 0.50mm
; top infill extrusion width = 0.45mm
; first layer extrusion width = 0.42mm

M73 P0 R12
M73 Q0 S12
M201 X1000 Y1000 Z200 E5000 ; sets maximum accelerations, mm/sec^2
M203 X200 Y200 Z12 E120 ; sets maximum feedrates, mm / sec
M204 S1250 T1250 ; sets acceleration (S) and retract acceleration (R), mm/sec^2
M205 X8.00 Y8.00 Z0.40 E4.50 ; sets the jerk limits, mm/sec
M205 S0 T0 ; sets the minimum extruding and travel feed rate, mm/sec

; printing object SchubstangeAPressB.stl id:0 copy 0
; stop printing object SchubstangeAPressB.stl id:0 copy 0

;TYPE:Custom
M862.3 P "MK3S" ; printer model check
M862.1 P0.4 ; nozzle diameter check
M115 U3.14.0 ; tell printer latest fw version
G90 ; use absolute coordinates
M83 ; extruder relative mode
M104 S235 ; set extruder temp
M140 S80 ; set bed temp
M190 S80 ; wait for bed temp
M109 S235 ; wait for extruder temp
G28 W ; home all without mesh bed level
G80 X109.446 Y86.7458 W31.1083 H32.5083 ; mesh bed levelling

G1 Z0.2 F720
G1 Y-3 F1000 ; go outside print area
G92 E0
G1 X60 E9 F1000 ; intro line
G1 X100 E12.5 F1000 ; intro line

G92 E0
M221 S95

; Don't change E values below. Excessive value can damage the printer.

M907 E538 ; set extruder motor current
G21 ; set units to millimeters
G90 ; use absolute coordinates
M83 ; use relative distances for extrusion

M900 K0.08 ; Filament gcode LA 1.5
M900 K45 ; Filament gcode LA 1.0




M107
;LAYER_CHANGE
;Z:0.2
;HEIGHT:0.2
G1 E-1 F2100
G1 Z.4 F720
G1 X113.51 Y87.57 F10800
G1 Z.2 F720
G1 E1 F2100
M204 S800
;TYPE:Skirt/Brim
;WIDTH:0.42
G1 F1200
M73 Q1 S12
G1 X115.2 Y86.934 E.05662
G1 X134.8 Y86.934 E.61454
G1 X136.163 Y87.327 E.04448
M73 P1 R12
G1 X137.257 Y88.763 E.0566
G1 X140.257 Y98.763 E.32735
G1 X140.366 Y99.5 E.02336
G1 X140.366 Y116.5 E.53302
G1 X139.973 Y117.863 E.04448
G1 X138.917 Y118.81 E.04447
G1 X137.8 Y119.066 E.03593
G1 X112.2 Y119.066 E.80267
G1 X110.837 Y118.673 E.04448
G1 X109.89 Y117.617 E.04447
G1 X109.634 Y116.5 E.03593
G1 X109.634 Y99.5 E.53302
G1 X109.743 Y98.763 E.02336
G1 X112.743 Y88.763 E.32735
G1 X113.478 Y87.62 E.04261
M204 S1000
G1 X113.478 Y87.62 F10800
G1 X113.802 Y87.84
M204 S800
G1 F1200
G1 X113.837 Y87.788 E.00197
G1 X115.2 Y87.311 E.04528
G1 X134.8 Y87.311 E.61454
G1 X136.048 Y87.702 E.04101
G1 X136.896 Y88.871 E.04528
G1 X139.896 Y98.871 E.32735
G1 X139.989 Y99.5 E.01994
M73 Q2 S12
G1 X139.989 Y116.5 E.53302
G1 X139.598 Y117.748 E.04101
M73 P2 R12
G1 X138.565 Y118.551 E.04102
G1 X137.8 Y118.689 E.02437
G1 X112.2 Y118.689 E.80267
G1 X110.952 Y118.298 E.04101
G1 X110.149 Y117.265 E.04102
G1 X110.011 Y116.5 E.02437
G1 X110.011 Y99.5 E.53302
G1 X110.104 Y98.871 E.01994
G1 X113.104 Y88.871 E.32735
G1 X113.768 Y87.889 E.03717
M204 S1000
;WIPE_START
G1 F8640
G1 X113.802 Y87.84 E-.01377
G1 X113.837 Y87.788 E-.01447
G1 X115.2 Y87.311 E-.33344
G1 X117.964 Y87.311 E-.63832
;WIPE_END
G1 Z.4 F720
; printing object SchubstangeAPressB.stl id:0 copy 0
G1 X134.196 Y100.118 F10800
G1 Z.2 F720
G1 E1 F2100
M204 S800
;TYPE:Perimeter
;WIDTH:0.419999
G1 F1200
G1 X134.352 Y100.24 E.00621
G1 X134.579 Y100.287 E.00727
G1 X137.013 Y100.287 E.07632
G1 X137.013 Y102.721 E.07632
G1 X137.013 Y115.713 E.40735
G1 X112.987 Y115.713 E.75332
G1 X112.987 Y100.287 E.48367
M73 P2 R11
G1 X115.421 Y100.287 E.07632
M73 Q3 S12
G1 X115.552 Y100.272 E.00413
M73 P3 R11
G1 X115.771 Y100.166 E.00763
G1 X115.927 Y99.976 E.00771
G1 X115.987 Y99.721 E.00821
G1 X115.987 Y90.287 E.2958
G1 X134.013 Y90.287 E.56519
M73 Q3 S11
G1 X134.019 Y99.802 E.29834
G1 X134.133 Y100.069 E.0091
G1 X134.148 Y100.082 E.00062
M204 S1000
G1 X134.148 Y100.082 F10800
G1 X134.476 Y99.86
M204 S800
;TYPE:External perimeter
G1 F1200
G1 X134.579 Y99.91 E.00359
G1 X137.39 Y99.91 E.08814
G1 X137.39 Y102.721 E.08814
G1 X137.39 Y116.09 E.41917
G1 X112.61 Y116.09 E.77696
G1 X112.61 Y99.91 E.50731
G1 X115.421 Y99.91 E.08814
G1 X115.551 Y99.858 E.00439
G1 X115.61 Y99.721 E.00468
G1 X115.61 Y89.91 E.30762
G1 X134.39 Y89.91 E.58883
G1 X134.39 Y99.721 E.30762
G1 X134.427 Y99.829 E.00358
M204 S1000
;WIPE_START
G1 F8640
G1 X134.476 Y99.86 E-.01339
G1 X134.579 Y99.91 E-.02644
G1 X137.39 Y99.91 E-.64907
G1 X137.39 Y101.258 E-.3111
M73 Q4 S11
;WIPE_END
G1 Z.4 F720
G1 X133.843 Y91.228 F10800
G1 Z.2 F720
M73 P4 R11
G1 E1 F2100
M204 S800
;TYPE:Solid infill
;WIDTH:0.424328
G1 F1200
G1 X133.241 Y90.626 E.027
G1 X132.702 Y90.626 E.01709
G1 X133.674 Y91.598 E.04359
G1 X133.674 Y92.137 E.01709
G1 X132.163 Y90.626 E.06777
G1 X131.623 Y90.626 E.01713
G1 X133.674 Y92.677 E.09199
G1 X133.674 Y93.216 E.01709
G1 X131.084 Y90.626 E.11616
G1 X130.545 Y90.626 E.01709
G1 X133.674 Y93.755 E.14034
G1 X133.674 Y94.295 E.01713
G1 X130.005 Y90.626 E.16456
G1 X129.466 Y90.626 E.01709
G1 X133.674 Y94.834 E.18873
G1 X133.674 Y95.374 E.01713
G1 X128.926 Y90.626 E.21295
G1 X128.387 Y90.626 E.01709
G1 X133.674 Y95.913 E.23713
G1 X133.674 Y96.452 E.01709
G1 X127.848 Y90.626 E.2613
G1 X127.308 Y90.626 E.01713
G1 X133.674 Y96.992 E.28552
G1 X133.674 Y97.531 E.01709
G1 X126.769 Y90.626 E.30969
G1 X126.229 Y90.626 E.01713
G1 X133.674 Y98.071 E.33391
G1 X133.674 Y98.61 E.01709
G1 X125.69 Y90.626 E.35809
G1 X125.151 Y90.626 E.01709
G1 X133.843 Y99.319 E.38986
M204 S1000
;WIPE_START
G1 F8640
G1 X130.781 Y96.257 E-1
;WIPE_END
G1 Z.4 F720
G1 X136.06 Y100.457 F10800
G1 Z.2 F720
G1 E1 F2100
M204 S800
G1 F1200
G1 X136.674 Y101.071 E.02754
G1 X136.674 Y101.61 E.01709
G1 X135.69 Y100.626 E.04413
G1 X135.151 Y100.626 E.01709
G1 X136.674 Y102.149 E.06831
G1 X136.674 Y102.689 E.01713
G1 X134.611 Y100.626 E.09253
G1 X134.366 Y100.603 E.0078
G1 X134.101 Y100.493 E.0091
G1 X133.864 Y100.28 E.01011
G1 X133.725 Y100.027 E.00915
G1 X133.674 Y99.689 E.01084
G1 X124.611 Y90.626 E.40648
G1 X124.072 Y90.626 E.01709
M73 P5 R11
M73 Q5 S11
G1 X136.674 Y103.228 E.56521
G1 X136.674 Y103.768 E.01713
G1 X123.532 Y90.626 E.58943
G1 X122.993 Y90.626 E.01709
G1 X136.674 Y104.307 E.6136
G1 X136.674 Y104.846 E.01709
G1 X122.454 Y90.626 E.63778
G1 X121.914 Y90.626 E.01713
G1 X136.674 Y105.386 E.662
G1 X136.674 Y105.925 E.01709
G1 X121.375 Y90.626 E.68617
G1 X120.835 Y90.626 E.01713
G1 X136.674 Y106.465 E.71039
G1 X136.674 Y107.004 E.01709
M73 P6 R11
M73 Q6 S11
G1 X120.296 Y90.626 E.73456
G1 X119.757 Y90.626 E.01709
G1 X136.674 Y107.543 E.75874
G1 X136.674 Y108.083 E.01713
G1 X119.217 Y90.626 E.78296
G1 X118.678 Y90.626 E.01709
G1 X136.674 Y108.622 E.80713
G1 X136.674 Y109.162 E.01713
G1 X118.138 Y90.626 E.83135
G1 X117.599 Y90.626 E.01709
G1 X136.674 Y109.701 E.85553
G1 X136.674 Y110.24 E.01709
M73 P7 R11
M73 Q7 S11
G1 X117.06 Y90.626 E.8797
G1 X116.52 Y90.626 E.01713
G1 X136.674 Y110.78 E.90392
G1 X136.674 Y111.319 E.01709
G1 X116.326 Y90.972 E.9126
G1 X116.326 Y91.511 E.01709
G1 X136.674 Y111.858 E.9126
G1 X136.674 Y112.398 E.01713
G1 X116.326 Y92.051 E.9126
G1 X116.326 Y92.59 E.01709
M73 P8 R11
M73 Q8 S11
G1 X136.674 Y112.937 E.9126
G1 X136.674 Y113.477 E.01713
G1 X116.326 Y93.13 E.9126
G1 X116.326 Y93.669 E.01709
G1 X136.674 Y114.016 E.9126
G1 X136.674 Y114.555 E.01709
G1 X116.326 Y94.208 E.9126
G1 X116.326 Y94.748 E.01713
G1 X136.674 Y115.095 E.9126
G1 X136.674 Y115.374 E.00885
M73 P9 R11
M73 Q9 S11
G1 X136.413 Y115.374 E.00828
G1 X116.326 Y95.287 E.90092
G1 X116.326 Y95.827 E.01713
G1 X135.873 Y115.374 E.8767
G1 X135.334 Y115.374 E.01709
G1 X116.326 Y96.366 E.85252
G1 X116.326 Y96.905 E.01709
G1 X134.795 Y115.374 E.82835
G1 X134.255 Y115.374 E.01713
G1 X116.326 Y97.445 E.80413
G1 X116.326 Y97.984 E.01709
M73 Q10 S11
G1 X133.716 Y115.374 E.77995
G1 X133.177 Y115.374 E.01709
M73 P10 R11
G1 X116.326 Y98.523 E.75578
G1 X116.326 Y99.063 E.01713
G1 X132.637 Y115.374 E.73156
G1 X132.098 Y115.374 E.01709
G1 X116.326 Y99.602 E.70738
G1 X116.293 Y99.97 E.01172
G1 X116.252 Y100.067 E.00334
G1 X131.558 Y115.374 E.68651
G1 X131.019 Y115.374 E.01709
G1 X116.033 Y100.388 E.67213
G1 X115.894 Y100.495 E.00556
M73 P10 R10
G1 X115.687 Y100.581 E.00711
G1 X130.48 Y115.374 E.66348
G1 X129.94 Y115.374 E.01713
M73 P11 R10
M73 Q11 S11
G1 X115.193 Y100.626 E.66144
G1 X114.654 Y100.626 E.01709
M73 Q11 S10
G1 X129.401 Y115.374 E.66144
G1 X128.861 Y115.374 E.01713
G1 X114.114 Y100.626 E.66144
G1 X113.575 Y100.626 E.01709
G1 X128.322 Y115.374 E.66144
G1 X127.783 Y115.374 E.01709
G1 X113.326 Y100.917 E.64841
G1 X113.326 Y101.457 E.01713
G1 X127.243 Y115.374 E.62419
G1 X126.704 Y115.374 E.01709
G1 X113.326 Y101.996 E.60001
G1 X113.326 Y102.536 E.01713
M73 P12 R10
M73 Q12 S10
G1 X126.164 Y115.374 E.57579
G1 X125.625 Y115.374 E.01709
G1 X113.326 Y103.075 E.55162
G1 X113.326 Y103.614 E.01709
G1 X125.086 Y115.374 E.52744
G1 X124.546 Y115.374 E.01713
G1 X113.326 Y104.154 E.50322
G1 X113.326 Y104.693 E.01709
G1 X124.007 Y115.374 E.47905
G1 X123.467 Y115.374 E.01713
G1 X113.326 Y105.233 E.45483
G1 X113.326 Y105.772 E.01709
G1 X122.928 Y115.374 E.43066
G1 X122.389 Y115.374 E.01709
G1 X113.326 Y106.311 E.40648
G1 X113.326 Y106.851 E.01713
G1 X121.849 Y115.374 E.38226
G1 X121.31 Y115.374 E.01709
M73 P13 R10
M73 Q13 S10
G1 X113.326 Y107.39 E.35809
G1 X113.326 Y107.93 E.01713
G1 X120.771 Y115.374 E.33389
G1 X120.231 Y115.374 E.01713
G1 X113.326 Y108.469 E.30969
G1 X113.326 Y109.008 E.01709
G1 X119.692 Y115.374 E.28552
G1 X119.152 Y115.374 E.01713
G1 X113.326 Y109.548 E.2613
G1 X113.326 Y110.087 E.01709
G1 X118.613 Y115.374 E.23713
G1 X118.074 Y115.374 E.01709
G1 X113.326 Y110.626 E.21295
G1 X113.326 Y111.166 E.01713
G1 X117.534 Y115.374 E.18873
G1 X116.995 Y115.374 E.01709
G1 X113.326 Y111.705 E.16456
G1 X113.326 Y112.245 E.01713
G1 X116.455 Y115.374 E.14034
G1 X115.916 Y115.374 E.01709
G1 X113.326 Y112.784 E.11616
G1 X113.326 Y113.323 E.01709
G1 X115.377 Y115.374 E.09199
G1 X114.837 Y115.374 E.01713
G1 X113.326 Y113.863 E.06777
G1 X113.326 Y114.402 E.01709
G1 X114.298 Y115.374 E.04359
G1 X113.758 Y115.374 E.01713
G1 X113.157 Y114.772 E.02698
M204 S1000
;LAYER_CHANGE
;Z:0.5
;HEIGHT:0.3
;BEFORE_LAYER_CHANGE
G92 E0.0
;0.5


;WIPE_START
G1 F8640
G1 X113.758 Y115.374 E-.19642
G1 X114.298 Y115.374 E-.12469
G1 X113.326 Y114.402 E-.3174
G1 X113.326 Y113.863 E-.12446
G1 X114.052 Y114.589 E-.23703
;WIPE_END
G1 Z.5 F720
;AFTER_LAYER_CHANGE
;0.5
; stop printing object SchubstangeAPressB.stl id:0 copy 0
G1 Z.7
G1 X109.634 Y114.772 F10800
G1 Z.5 F720
G1 E1 F2100
;TYPE:Skirt/Brim
;WIDTH:0.42
G1 F2700
G1 X109.634 Y99.5 E.67739
G1 X109.743 Y98.763 E.03305
G1 X112.743 Y88.763 E.46308
G1 X113.51 Y87.57 E.06291
G1 X115.2 Y86.934 E.08009
G1 X134.8 Y86.934 E.86935
G1 X136.163 Y87.327 E.06292
G1 X137.257 Y88.763 E.08007
G1 X140.257 Y98.763 E.46308
G1 X140.366 Y99.5 E.03305
M73 P14 R10
M73 Q14 S10
G1 X140.366 Y116.5 E.75403
G1 X139.973 Y117.863 E.06292
G1 X138.917 Y118.81 E.06291
G1 X137.8 Y119.066 E.05083
G1 X112.2 Y119.066 E1.13548
G1 X110.837 Y118.673 E.06292
G1 X109.89 Y117.617 E.06291
G1 X109.634 Y116.5 E.05083
G1 X109.634 Y114.832 E.07398
G1 X109.634 Y114.832 F10800
G1 X110.011 Y114.832
G1 F2700
G1 X110.011 Y99.5 E.68005
G1 X110.104 Y98.871 E.0282
G1 X113.104 Y88.871 E.46308
G1 X113.837 Y87.788 E.058
G1 X115.2 Y87.311 E.06405
G1 X134.8 Y87.311 E.86935
G1 X136.048 Y87.702 E.05801
G1 X136.896 Y88.871 E.06406
G1 X139.896 Y98.871 E.46308
G1 X139.989 Y99.5 E.0282
G1 X139.989 Y116.5 E.75403
G1 X139.598 Y117.748 E.05801
G1 X138.565 Y118.551 E.05803
G1 X137.8 Y118.689 E.03448
G1 X112.2 Y118.689 E1.13548
G1 X110.952 Y118.298 E.05801
G1 X110.149 Y117.265 E.05803
G1 X110.011 Y116.5 E.03448
G1 X110.011 Y114.892 E.07132
;WIPE_START
G1 F8640
G1 X110.011 Y114.832 E-.01385
G1 X110.011 Y110.561 E-.98615
;WIPE_END
G1 Z.7 F720
; printing object SchubstangeAPressB.stl id:0 copy 0
G1 X134.243 Y100.061 F10800
G1 Z.5 F720
G1 E1 F2100
M204 S800
;TYPE:Perimeter
;WIDTH:0.5
G1 F3000
G1 X134.46 Y100.22 E.01462
G1 X134.768 Y100.286 E.01711
G1 X137.014 Y100.286 E.12203
G1 X137.014 Y115.714 E.83825
G1 X112.986 Y115.714 E1.30551
G1 X112.986 Y100.286 E.83825
G1 X115.232 Y100.286 E.12203
G1 X115.54 Y100.22 E.01711
G1 X115.756 Y100.073 E.0142
G1 X115.923 Y99.832 E.01593
G1 X115.986 Y99.532 E.01666
G1 X115.986 Y90.286 E.50236
G1 X134.014 Y90.286 E.97951
G1 X134.014 Y99.3 E.48976
G1 X134.044 Y99.742 E.02407
G1 X134.199 Y100.022 E.01739
M204 S1000
G1 X134.199 Y100.022 F10800
G1 X134.576 Y99.714
M204 S800
;TYPE:External perimeter
;WIDTH:0.6
G1 F2100
G1 X134.582 Y99.725 E.00084
G1 X134.768 Y99.8 E.0134
G1 F2099.997
G1 X137.5 Y99.8 E.18251
G1 X137.5 Y116.2 E1.09561
G1 X112.5 Y116.2 E1.67013
M73 P15 R10
M73 Q15 S10
G1 X112.5 Y99.8 E1.09561
G1 X115.232 Y99.8 E.18251
G1 F2100
G1 X115.295 Y99.792 E.00424
G1 X115.432 Y99.711 E.01063
G1 X115.5 Y99.532 E.01279
G1 X115.5 Y89.8 E.65015
G1 X134.5 Y89.8 E1.2693
G1 X134.501 Y99.552 E.65149
G1 X134.551 Y99.659 E.00789
M204 S1000
;WIPE_START
G1 F8640
G1 X134.576 Y99.714 E-.01395
G1 X134.582 Y99.725 E-.00289
G1 X134.768 Y99.8 E-.04631
G1 X137.5 Y99.8 E-.63083
G1 X137.5 Y101.125 E-.30602
;WIPE_END
G1 Z.7 F720
G1 X116.496 Y90.713 F10800
G1 Z.5 F720
G1 E1 F2100
;TYPE:Solid infill
;WIDTH:0.605691
G1 F2955.792
G1 X116.448 Y90.665 E.00458
G1 X116.383 Y90.683 E.00455
G1 X116.365 Y90.748 E.00455
G1 X116.413 Y90.796 E.00458
G1 X116.478 Y90.778 E.00455
;WIDTH:0.5
G1 F3672.934
G1 X117.174 Y90.678 E.0382
G1 X116.378 Y91.474 E.06116
G1 X116.378 Y92.09 E.03347
G1 X117.79 Y90.678 E.1085
G1 X118.406 Y90.678 E.03347
G1 X116.378 Y92.706 E.15583
G1 X116.378 Y93.322 E.03347
G1 X119.022 Y90.678 E.20316
G1 X119.638 Y90.678 E.03347
G1 X116.378 Y93.938 E.25049
G1 X116.378 Y94.554 E.03347
G1 X120.254 Y90.678 E.29782
G1 X120.871 Y90.678 E.03352
G1 X116.378 Y95.171 E.34523
G1 X116.378 Y95.787 E.03347
G1 X121.487 Y90.678 E.39257
G1 X122.103 Y90.678 E.03347
G1 X116.378 Y96.403 E.4399
G1 X116.378 Y97.019 E.03347
G1 X122.719 Y90.678 E.48723
G1 X123.335 Y90.678 E.03347
G1 X116.378 Y97.635 E.53456
G1 X116.378 Y98.251 E.03347
G1 X123.951 Y90.678 E.5819
G1 X124.567 Y90.678 E.03347
G1 X116.378 Y98.867 E.62923
G1 X116.378 Y98.867 F10800
G1 X116.27 Y99.78
;WIDTH:0.404381
G1 F4705.882
G1 X116.199 Y99.761 E.00312
G1 X116.218 Y99.832 E.00312
G1 X116.259 Y99.821 E.0018
;WIDTH:0.45219
G1 F4125.737
G1 X116.318 Y99.652 E.00866
;WIDTH:0.5
G1 F3672.934
G1 X116.378 Y99.483 E.00974
G1 X125.183 Y90.678 E.67656
;WIPE_START
G1 F8640
G1 X122.121 Y93.74 E-1
;WIPE_END
G1 Z.7 F720
G1 X113.951 Y100.678 F10800
G1 Z.5 F720
G1 E1 F2100
G1 F3672.934
G1 X113.378 Y101.251 E.04403
G1 X113.378 Y101.867 E.03347
G1 X114.567 Y100.678 E.09136
G1 X115.183 Y100.678 E.03347
G1 X113.378 Y102.483 E.13869
G1 X113.334 Y102.631 E.00839
;WIDTH:0.45219
G1 F4125.737
G1 X113.291 Y102.78 E.0075
;WIDTH:0.404381
G1 F4705.882
G1 X113.22 Y102.761 E.00312
G1 X113.239 Y102.832 E.00312
G1 X113.28 Y102.821 E.0018
;WIDTH:0.5
G1 F3672.934
G1 X113.378 Y103.099 E.01602
G1 X125.799 Y90.678 E.95441
G1 X126.415 Y90.678 E.03347
G1 X113.378 Y103.715 E1.00174
G1 X113.378 Y104.331 E.03347
M73 P16 R10
M73 Q16 S10
G1 X127.031 Y90.678 E1.04907
G1 X127.647 Y90.678 E.03347
G1 X113.378 Y104.947 E1.0964
G1 X113.378 Y105.563 E.03347
G1 X128.263 Y90.678 E1.14374
G1 X128.879 Y90.678 E.03347
G1 X113.378 Y106.179 E1.19107
G1 X113.378 Y106.795 E.03347
G1 X129.495 Y90.678 E1.2384
G1 X130.111 Y90.678 E.03347
G1 X113.378 Y107.411 E1.28573
G1 X113.378 Y108.027 E.03347
G1 X130.727 Y90.678 E1.33307
G1 X131.344 Y90.678 E.03352
G1 X113.378 Y108.644 E1.38047
G1 X113.378 Y109.26 E.03347
G1 X131.96 Y90.678 E1.42781
G1 X132.576 Y90.678 E.03347
G1 X113.378 Y109.876 E1.47514
G1 X113.378 Y110.492 E.03347
G1 X133.192 Y90.678 E1.52247
G1 X133.771 Y90.559 E.03212
;WIDTH:0.404381
G1 F4705.882
G1 X133.7 Y90.54 E.00312
G1 X133.719 Y90.611 E.00312
G1 X133.76 Y90.6 E.0018
;WIDTH:0.45219
G1 F4125.737
G1 X133.691 Y90.731 E.00716
;WIDTH:0.5
G1 F3672.934
G1 X133.622 Y90.863 E.00809
G1 X113.378 Y111.108 E1.55555
G1 X113.378 Y111.724 E.03347
G1 X133.622 Y91.479 E1.55555
G1 X133.622 Y92.095 E.03347
G1 X113.378 Y112.34 E1.55555
G1 X113.378 Y112.956 E.03347
G1 X133.622 Y92.711 E1.55555
