; generated by PrusaSlicer 2.8.1+win64 on 2025-01-21 at 13:46:08 UTC


;
;
; 

; external perimeters extrusion width = 0.45mm
; perimeters extrusion width = 0.45mm
; infill extrusion width = 0.45mm
; solid infill extrusion width = 0.45mm
; top infill extrusion width = 0.40mm
; first layer extrusion width = 0.42mm

M73 P0 R7
M73 Q0 S7
M201 X1000 Y1000 Z200 E5000 ; sets maximum accelerations, mm/sec^2
M203 X200 Y200 Z12 E120 ; sets maximum feedrates, mm / sec
M204 S1250 T1250 ; sets acceleration (S) and retract acceleration (R), mm/sec^2
M205 X8.00 Y8.00 Z0.40 E4.50 ; sets the jerk limits, mm/sec
M205 S0 T0 ; sets the minimum extruding and travel feed rate, mm/sec

; printing object Sliderhalterpress.stl id:0 copy 0
; stop printing object Sliderhalterpress.stl id:0 copy 0

;TYPE:Custom
M862.3 P "MK3S" ; printer model check
M862.1 P0.4 ; nozzle diameter check
M115 U3.14.0 ; tell printer latest fw version
G90 ; use absolute coordinates
M83 ; extruder relative mode
M104 S235 ; set extruder temp
M140 S80 ; set bed temp
M190 S80 ; wait for bed temp
M109 S235 ; wait for extruder temp
G28 W ; home all without mesh bed level
G80 X105.246 Y100.246 W39.5083 H9.50832 ; mesh bed levelling

G1 Z0.2 F720
G1 Y-3 F1000 ; go outside print area
G92 E0
G1 X60 E9 F1000 ; intro line
G1 X100 E12.5 F1000 ; intro line

G92 E0
M221 S95

; Don't change E values below. Excessive value can damage the printer.

M907 E538 ; set extruder motor current
G21 ; set units to millimeters
G90 ; use absolute coordinates
M83 ; use relative distances for extrusion

M900 K0.08 ; Filament gcode LA 1.5
M900 K45 ; Filament gcode LA 1.0




M107
;LAYER_CHANGE
;Z:0.2
;HEIGHT:0.2
G1 E-1 F2100
M73 P1 R6
M73 Q1 S7
G1 Z.4 F720
G1 X105.827 Y101.637 F10800
G1 Z.2 F720
G1 E1 F2100
M204 S800
;TYPE:Skirt/Brim
;WIDTH:0.42
G1 F1200
G1 X106.883 Y100.69 E.04447
G1 X108 Y100.434 E.03593
G1 X142 Y100.434 E1.06605
G1 X143.363 Y100.827 E.04448
M73 P2 R6
M73 Q2 S7
G1 X144.31 Y101.883 E.04447
G1 X144.566 Y103 E.03593
G1 X144.566 Y107 E.12542
G1 X144.173 Y108.363 E.04448
G1 X143.117 Y109.31 E.04447
G1 X142 Y109.566 E.03593
G1 X108 Y109.566 E1.06605
G1 X106.637 Y109.173 E.04448
G1 X105.69 Y108.117 E.04447
G1 X105.434 Y107 E.03593
G1 X105.434 Y103 E.12542
M73 Q2 S6
G1 X105.81 Y101.694 E.04261
M204 S1000
G1 X105.81 Y101.694 F10800
G1 X106.184 Y101.811
M204 S800
G1 F1200
G1 X106.202 Y101.752 E.00193
G1 X107.235 Y100.949 E.04102
G1 X108 Y100.811 E.02437
G1 X142 Y100.811 E1.06605
G1 X143.248 Y101.202 E.04101
M73 P3 R6
M73 Q3 S6
G1 X144.051 Y102.235 E.04102
G1 X144.189 Y103 E.02437
G1 X144.189 Y107 E.12542
G1 X143.798 Y108.248 E.04101
G1 X142.765 Y109.051 E.04102
G1 X142 Y109.189 E.02437
G1 X108 Y109.189 E1.06605
G1 X106.752 Y108.798 E.04101
G1 X105.949 Y107.765 E.04102
G1 X105.811 Y107 E.02437
G1 X105.811 Y103 E.12542
G1 X106.166 Y101.869 E.03717
M204 S1000
;WIPE_START
G1 F8640
G1 X106.184 Y101.811 E-.01402
G1 X106.202 Y101.752 E-.01424
G1 X107.235 Y100.949 E-.30211
G1 X108 Y100.811 E-.17949
G1 X110.123 Y100.811 E-.49014
;WIPE_END
G1 Z.4 F720
; printing object Sliderhalterpress.stl id:0 copy 0
G1 X108.199 Y106.786 F10800
G1 Z.2 F720
G1 E1 F2100
M204 S800
;TYPE:External perimeter
;WIDTH:0.38292
G1 F1200
G1 X108.135 Y106.823 E.00209
G1 X108.199 Y106.859 E.00208
G1 X108.22 Y106.823 E.00118
M204 S1000
;WIPE_START
G1 F8640
G1 X108.199 Y106.786 E-.00982
G1 X108.135 Y106.823 E-.01707
G1 X108.199 Y106.859 E-.01696
G1 X108.22 Y106.823 E-.00962
;WIPE_END
G1 E-.94653 F2100
G1 Z.4 F720
G1 X108.199 Y103.141 F10800
M73 Q4 S6
G1 Z.2 F720
M73 P4 R6
G1 E1 F2100
M204 S800
G1 F1200
G1 X108.135 Y103.177 E.00208
G1 X108.199 Y103.214 E.00209
G1 X108.22 Y103.177 E.0012
M204 S1000
;WIPE_START
G1 F8640
G1 X108.199 Y103.141 E-.00962
G1 X108.135 Y103.177 E-.01696
G1 X108.199 Y103.214 E-.01707
G1 X108.22 Y103.177 E-.00982
;WIPE_END
G1 E-.94653 F2100
G1 Z.4 F720
G1 X112.784 Y103.71 F10800
G1 Z.2 F720
G1 E1 F2100
M204 S800
;TYPE:Perimeter
;WIDTH:0.419999
G1 F1200
G1 X112.772 Y103.692 E.00068
G1 X113.121 Y103.739 E.01104
G1 X114.309 Y103.787 E.03728
G1 X135.706 Y103.787 E.67089
G1 X136.702 Y103.76 E.03124
G1 X137.203 Y103.696 E.01584
G1 X137.05 Y103.951 E.00932
G1 X136.875 Y104.462 E.01694
G1 X136.824 Y105.027 E.01779
G1 X136.875 Y105.55 E.01648
G1 X137.049 Y106.046 E.01648
G1 X137.229 Y106.308 E.00997
G1 X136.697 Y106.24 E.01682
G1 X135.193 Y106.213 E.04716
G1 X114.294 Y106.213 E.65527
G1 X113.298 Y106.24 E.03124
G1 X112.797 Y106.304 E.01584
G1 X112.95 Y106.049 E.00932
G1 X113.125 Y105.538 E.01694
G1 X113.176 Y104.973 E.01779
G1 X113.125 Y104.45 E.01648
G1 X112.951 Y103.954 E.01648
G1 X112.818 Y103.76 E.00737
M204 S1000
;WIPE_START
G1 F8640
G1 X112.784 Y103.71 E-.01396
G1 X112.772 Y103.692 E-.005
G1 X113.121 Y103.739 E-.08131
G1 X114.309 Y103.787 E-.27454
G1 X117.017 Y103.787 E-.62519
;WIPE_END
G1 Z.4 F720
G1 X111.919 Y103.24 F10800
G1 Z.2 F720
G1 E1 F2100
M204 S800
;TYPE:External perimeter
G1 F1200
G1 X111.911 Y103.231 E.00038
G1 X112.43 Y103.238 E.01627
G1 X113.172 Y103.366 E.02361
G1 X114.309 Y103.41 E.03568
G1 X135.696 Y103.41 E.67057
G1 X136.519 Y103.388 E.02581
M73 P5 R6
M73 Q5 S6
G1 X137.171 Y103.319 E.02056
G1 X137.674 Y103.216 E.0161
G1 X138.089 Y103.231 E.01302
G1 X137.848 Y103.504 E.01142
G1 X137.419 Y104.053 E.02185
G1 X137.251 Y104.496 E.01486
G1 X137.203 Y105.017 E.0164
G1 X137.248 Y105.498 E.01515
G1 X137.401 Y105.911 E.01381
G1 X138.089 Y106.769 E.03448
G1 X137.722 Y106.788 E.01152
G1 X137.211 Y106.686 E.01634
G1 X136.69 Y106.617 E.01648
G1 X135.197 Y106.59 E.04682
G1 X114.304 Y106.59 E.65508
G1 X113.481 Y106.612 E.02581
G1 X112.829 Y106.681 E.02056
G1 X112.326 Y106.784 E.0161
G1 X111.911 Y106.769 E.01302
G1 X112.152 Y106.496 E.01142
G1 X112.581 Y105.947 E.02185
G1 X112.749 Y105.504 E.01486
G1 X112.797 Y104.983 E.0164
G1 X112.752 Y104.502 E.01515
G1 X112.599 Y104.089 E.01381
G1 X111.956 Y103.287 E.03223
M204 S1000
;WIPE_START
G1 F8640
G1 X111.919 Y103.24 E-.01381
G1 X111.911 Y103.231 E-.00278
G1 X112.43 Y103.238 E-.11985
G1 X113.172 Y103.366 E-.17386
G1 X114.309 Y103.41 E-.26273
G1 X116.158 Y103.41 E-.42697
;WIPE_END
G1 Z.4 F720
G1 X136.702 Y104.497 F10800
G1 Z.2 F720
G1 E1 F2100
M204 S800
;TYPE:Solid infill
;WIDTH:0.426458
G1 F1200
G1 X136.308 Y104.104 E.01775
G1 X135.785 Y104.123 E.01669
G1 X136.5 Y104.839 E.03227
G1 X136.48 Y105.066 E.00727
G1 X136.516 Y105.397 E.01062
G1 X135.245 Y104.126 E.05732
G1 X134.703 Y104.126 E.01729
G1 X136.484 Y105.907 E.08033
G1 X135.927 Y105.892 E.01777
G1 X134.161 Y104.126 E.07965
G1 X133.618 Y104.126 E.01732
G1 X135.37 Y105.878 E.07902
G1 X134.823 Y105.874 E.01745
G1 X133.076 Y104.126 E.07881
G1 X132.533 Y104.126 E.01732
G1 X134.281 Y105.874 E.07884
G1 X133.738 Y105.874 E.01732
G1 X131.991 Y104.126 E.07881
G1 X131.449 Y104.126 E.01729
M73 P6 R6
M73 Q6 S6
G1 X133.196 Y105.874 E.07881
G1 X132.654 Y105.874 E.01729
G1 X130.906 Y104.126 E.07884
G1 X130.364 Y104.126 E.01729
G1 X132.111 Y105.874 E.07881
G1 X131.569 Y105.874 E.01729
G1 X129.821 Y104.126 E.07884
G1 X129.279 Y104.126 E.01729
G1 X131.026 Y105.874 E.07881
G1 X130.484 Y105.874 E.01729
G1 X128.737 Y104.126 E.07881
G1 X128.194 Y104.126 E.01732
G1 X129.942 Y105.874 E.07884
G1 X129.399 Y105.874 E.01732
G1 X127.652 Y104.126 E.07881
G1 X127.109 Y104.126 E.01732
G1 X128.857 Y105.874 E.07884
G1 X128.314 Y105.874 E.01732
G1 X126.567 Y104.126 E.07881
G1 X126.025 Y104.126 E.01729
G1 X127.772 Y105.874 E.07881
G1 X127.23 Y105.874 E.01729
G1 X125.482 Y104.126 E.07884
G1 X124.94 Y104.126 E.01729
G1 X126.687 Y105.874 E.07881
G1 X126.145 Y105.874 E.01729
G1 X124.397 Y104.126 E.07884
G1 X123.855 Y104.126 E.01729
G1 X125.602 Y105.874 E.07881
G1 X125.06 Y105.874 E.01729
G1 X123.313 Y104.126 E.07881
G1 X122.77 Y104.126 E.01732
G1 X124.518 Y105.874 E.07884
G1 X123.975 Y105.874 E.01732
G1 X122.228 Y104.126 E.07881
G1 X121.685 Y104.126 E.01732
G1 X123.433 Y105.874 E.07884
G1 X122.89 Y105.874 E.01732
G1 X121.143 Y104.126 E.07881
G1 X120.601 Y104.126 E.01729
G1 X122.348 Y105.874 E.07881
G1 X121.806 Y105.874 E.01729
G1 X120.058 Y104.126 E.07884
G1 X119.516 Y104.126 E.01729
G1 X121.263 Y105.874 E.07881
G1 X120.721 Y105.874 E.01729
G1 X118.973 Y104.126 E.07884
G1 X118.431 Y104.126 E.01729
G1 X120.178 Y105.874 E.07881
G1 X119.636 Y105.874 E.01729
G1 X117.889 Y104.126 E.07881
G1 X117.346 Y104.126 E.01732
M73 P7 R6
M73 Q7 S6
G1 X119.094 Y105.874 E.07884
G1 X118.551 Y105.874 E.01732
G1 X116.804 Y104.126 E.07881
G1 X116.261 Y104.126 E.01732
G1 X118.009 Y105.874 E.07884
G1 X117.466 Y105.874 E.01732
G1 X115.719 Y104.126 E.07881
G1 X115.176 Y104.126 E.01732
G1 X116.924 Y105.874 E.07884
G1 X116.382 Y105.874 E.01729
G1 X114.634 Y104.126 E.07884
G1 X114.085 Y104.119 E.01751
G1 X115.839 Y105.874 E.07913
G1 X115.297 Y105.874 E.01729
G1 X113.525 Y104.102 E.07992
G1 X113.369 Y104.098 E.00498
G1 X113.461 Y104.396 E.00995
G1 X113.486 Y104.605 E.00671
G1 X114.754 Y105.874 E.05721
G1 X114.215 Y105.877 E.01719
G1 X113.499 Y105.16 E.03231
G1 X113.445 Y105.65 E.01572
G1 X113.856 Y106.06 E.01851
M204 S1000
;WIPE_START
G1 F8640
G1 X113.445 Y105.65 E-.13405
G1 X113.499 Y105.16 E-.11383
G1 X114.215 Y105.877 E-.23397
G1 X114.754 Y105.874 E-.12446
G1 X113.549 Y104.668 E-.39369
;WIPE_END
G1 Z.4 F720
G1 X141.844 Y103.141 F10800
G1 Z.2 F720
G1 E1 F2100
M204 S800
;TYPE:External perimeter
;WIDTH:0.38292
G1 F1200
G1 X141.78 Y103.177 E.00208
G1 X141.844 Y103.214 E.00209
G1 X141.865 Y103.177 E.0012
M204 S1000
;WIPE_START
G1 F8640
G1 X141.844 Y103.141 E-.00962
G1 X141.78 Y103.177 E-.01696
G1 X141.844 Y103.214 E-.01707
G1 X141.865 Y103.177 E-.00982
;WIPE_END
G1 E-.94653 F2100
G1 Z.4 F720
G1 X141.844 Y106.786 F10800
G1 Z.2 F720
G1 E1 F2100
M204 S800
G1 F1200
G1 X141.78 Y106.823 E.00209
G1 X141.844 Y106.859 E.00208
G1 X141.865 Y106.823 E.00118
M204 S1000
;LAYER_CHANGE
;Z:0.35
;HEIGHT:0.15
;BEFORE_LAYER_CHANGE
G92 E0.0
;0.35


;WIPE_START
G1 F8640
G1 X141.844 Y106.786 E-.00982
G1 X141.78 Y106.823 E-.01707
G1 X141.844 Y106.859 E-.01696
G1 X141.865 Y106.823 E-.00962
;WIPE_END
G1 E-.94653 F2100
G1 Z.35 F720
;AFTER_LAYER_CHANGE
;0.35
; stop printing object Sliderhalterpress.stl id:0 copy 0
G1 Z.55
G1 X144.406 Y107.554 F10800
G1 Z.35 F720
G1 E1 F2100
;TYPE:Skirt/Brim
;WIDTH:0.42
G1 F2026
G1 X144.173 Y108.363 E.02036
G1 X143.117 Y109.31 E.0343
G1 X142 Y109.566 E.02771
G1 X108 Y109.566 E.82229
G1 X106.637 Y109.173 E.03431
M73 P8 R6
G1 X105.69 Y108.117 E.0343
G1 X105.434 Y107 E.02771
G1 X105.434 Y103 E.09674
M73 Q8 S6
G1 X105.827 Y101.637 E.03431
G1 X106.883 Y100.69 E.0343
G1 X108 Y100.434 E.02771
G1 X142 Y100.434 E.82229
G1 X143.363 Y100.827 E.03431
G1 X144.31 Y101.883 E.0343
G1 X144.566 Y103 E.02771
G1 X144.566 Y107 E.09674
G1 X144.423 Y107.496 E.01248
G1 X144.068 Y107.385 F10800
G1 F2026
G1 X143.798 Y108.248 E.02187
G1 X142.765 Y109.051 E.03164
G1 X142 Y109.189 E.0188
G1 X108 Y109.189 E.82229
G1 X106.752 Y108.798 E.03163
G1 X105.949 Y107.765 E.03164
G1 X105.811 Y107 E.0188
G1 X105.811 Y103 E.09674
G1 X106.202 Y101.752 E.03163
G1 X107.235 Y100.949 E.03164
G1 X108 Y100.811 E.0188
G1 X142 Y100.811 E.82229
G1 X143.248 Y101.202 E.03163
G1 X144.051 Y102.235 E.03164
M73 P9 R6
G1 X144.189 Y103 E.0188
G1 X144.189 Y107 E.09674
G1 X144.086 Y107.328 E.00831
M73 Q9 S6
;WIPE_START
G1 F8640
G1 X144.068 Y107.385 E-.0138
G1 X143.798 Y108.248 E-.20879
G1 X142.765 Y109.051 E-.30211
G1 X142 Y109.189 E-.17949
G1 X140.719 Y109.189 E-.29581
;WIPE_END
G1 Z.55 F720
; printing object Sliderhalterpress.stl id:0 copy 0
G1 X108.308 Y106.75 F10800
G1 Z.35 F720
G1 E1 F2100
M204 S800
;TYPE:External perimeter
;WIDTH:0.499852
G1 F1284.23
G1 X108.279 Y106.801 E.00171
G1 F1420.99
G1 X108.221 Y106.801 E.00169
G1 F1482.571
G1 X108.191 Y106.75 E.00173
G1 F1348.388
G1 X108.221 Y106.699 E.00173
G1 F1245.699
G1 X108.279 Y106.699 E.00169
M204 S1000
;WIPE_START
G1 F8640
G1 X108.308 Y106.75 E-.01355
G1 X108.279 Y106.801 E-.01355
G1 X108.221 Y106.801 E-.01339
G1 X108.191 Y106.75 E-.01366
G1 X108.221 Y106.699 E-.01366
G1 X108.279 Y106.699 E-.01339
;WIPE_END
G1 E-.9188 F2100
G1 Z.55 F720
G1 X108.308 Y103.25 F10800
G1 Z.35 F720
G1 E1 F2100
M204 S800
G1 F1245.7
G1 X108.279 Y103.301 E.00171
G1 X108.221 Y103.301 E.00169
G1 F1348.392
G1 X108.191 Y103.25 E.00173
G1 F1482.573
G1 X108.221 Y103.199 E.00173
G1 F1420.991
G1 X108.279 Y103.199 E.00169
M204 S1000
;WIPE_START
G1 F8640
G1 X108.308 Y103.25 E-.01355
G1 X108.279 Y103.301 E-.01355
G1 X108.221 Y103.301 E-.01339
G1 X108.191 Y103.25 E-.01366
G1 X108.221 Y103.199 E-.01366
G1 X108.279 Y103.199 E-.01339
;WIPE_END
G1 E-.9188 F2100
G1 Z.55 F720
G1 X112.505 Y103.643 F10800
G1 Z.35 F720
G1 E1 F2100
M204 S800
;TYPE:Perimeter
;WIDTH:0.449999
G1 F2026
G1 X137.476 Y103.643 E.65064
G1 F2021.959
G1 X137.426 Y103.742 E.00289
G1 F1790.115
G1 X137.209 Y104.363 E.01714
G1 F1736.461
G1 X137.141 Y105.169 E.02108
G1 X137.264 Y105.842 E.01783
G1 F1825.032
G1 X137.489 Y106.357 E.01464
G1 F2026
G1 X112.511 Y106.357 E.65082
G1 F1833.124
G1 X112.781 Y105.686 E.01885
G1 F1766.698
G1 X112.863 Y105.005 E.01787
G1 F1751.189
G1 X112.791 Y104.362 E.01686
G1 F1772.947
G1 X112.646 Y103.897 E.01269
G1 F1972.069
G1 X112.534 Y103.695 E.00602
M204 S1000
G1 X112.534 Y103.695 F10800
G1 X111.66 Y103.225
M204 S800
;TYPE:External perimeter
G1 F1285.181
G1 X112.528 Y103.225 E.02262
G1 F1817.625
G1 X137.466 Y103.225 E.64978
G1 F1317.543
M73 P10 R6
G1 X138.322 Y103.225 E.0223
G1 X138.037 Y103.536 E.01099
G1 F1332.32
G1 X137.816 Y103.892 E.01092
G1 F1330.52
G1 X137.624 Y104.409 E.01437
G1 X137.554 Y105.107 E.01828
G1 X137.647 Y105.675 E.015
M73 Q10 S6
G1 X137.938 Y106.319 E.01841
G1 F1315.098
G1 X138.324 Y106.775 E.01557
G1 X137.467 Y106.775 E.02233
G1 F1817.836
G1 X112.533 Y106.775 E.64967
G1 F1315.1
G1 X111.676 Y106.775 E.02233
G1 X112.094 Y106.268 E.01712
G1 F1328.748
G1 X112.368 Y105.623 E.01826
G1 X112.447 Y105.052 E.01502
G1 F1330.547
G1 X112.375 Y104.409 E.01686
G1 X112.231 Y103.992 E.01149
G1 X111.889 Y103.443 E.01685
G1 F1285.181
G1 X111.704 Y103.266 E.00667
M204 S1000
;WIPE_START
G1 F8640
G1 X111.66 Y103.225 E-.01389
G1 X112.528 Y103.225 E-.20042
G1 X115.931 Y103.225 E-.78569
;WIPE_END
G1 Z.55 F720
G1 X136.71 Y104.019 F10800
G1 Z.35 F720
G1 E1 F2100
;TYPE:Solid infill
G1 F2026
G1 X113.075 Y104.019 E.61583
G1 X113.165 Y104.324 E.00829
G1 X113.24 Y105.02 E.01824
G1 X113.153 Y105.736 E.01879
G1 X113.068 Y105.981 E.00676
G1 X136.917 Y105.981 E.6214
G1 X136.847 Y105.736 E.00664
G1 X136.76 Y105.07 E.0175
G1 X136.835 Y104.324 E.01954
G1 X136.919 Y104.019 E.00824
G1 X136.403 Y104.437 E.0173
G1 X136.341 Y105.02 E.01528
G1 X136.403 Y105.563 E.01424
G1 X113.597 Y105.563 E.59423
G1 X113.656 Y104.975 E.0154
M73 P11 R6
G1 X113.597 Y104.437 E.0141
G1 X136.194 Y104.437 E.58878
G1 X135.972 Y104.823 E.0116
M73 Q11 S6
;WIDTH:0.38664
G1 X135.96 Y105.174 E.00776
G1 X135.778 Y105.177 E.00402
G1 X114.222 Y105.177 E.47648
G1 X114.04 Y105.174 E.00402
G1 X114.028 Y104.823 E.00776
G1 X135.764 Y104.823 E.48046
;WIPE_START
G1 F8640
G1 X131.433 Y104.823 E-1
;WIPE_END
G1 Z.55 F720
G1 X141.81 Y103.253 F10800
G1 Z.35 F720
G1 E1 F2100
M204 S800
;TYPE:External perimeter
;WIDTH:0.497108
G1 F1346.347
G1 X141.781 Y103.304 E.0017
G1 F1243.694
G1 X141.722 Y103.304 E.00171
G1 X141.693 Y103.253 E.0017
G1 F1281.639
G1 X141.722 Y103.203 E.00168
G1 F1418.346
G1 X141.781 Y103.203 E.00171
M204 S1000
;WIPE_START
G1 F8640
G1 X141.81 Y103.253 E-.01335
G1 X141.781 Y103.304 E-.01355
G1 X141.722 Y103.304 E-.01362
G1 X141.693 Y103.253 E-.01355
G1 X141.722 Y103.203 E-.01335
G1 X141.781 Y103.203 E-.01362
;WIPE_END
G1 E-.91896 F2100
G1 Z.55 F720
G1 X141.805 Y106.751 F10800
G1 Z.35 F720
G1 E1 F2100
M204 S800
;WIDTH:0.497104
G1 F1479.907
G1 X141.776 Y106.802 E.0017
G1 F1418.915
G1 X141.718 Y106.802 E.00168
G1 F1282.207
G1 X141.689 Y106.751 E.0017
G1 F1243.121
G1 X141.718 Y106.701 E.00168
G1 X141.776 Y106.701 E.00168
M204 S1000
;LAYER_CHANGE
;Z:0.5
;HEIGHT:0.15
;BEFORE_LAYER_CHANGE
G92 E0.0
;0.5


;WIPE_START
G1 F8640
G1 X141.805 Y106.751 E-.01335
G1 X141.776 Y106.802 E-.01355
G1 X141.718 Y106.802 E-.01339
G1 X141.689 Y106.751 E-.01355
G1 X141.718 Y106.701 E-.01335
G1 X141.776 Y106.701 E-.01339
;WIPE_END
G1 E-.91942 F2100
G1 Z.5 F720
;AFTER_LAYER_CHANGE
;0.5
