; generated by PrusaSlicer 2.8.1+win64 on 2025-01-21 at 13:35:55 UTC


;
;
; 

; external perimeters extrusion width = 0.60mm
; perimeters extrusion width = 0.50mm
; infill extrusion width = 0.50mm
; solid infill extrusion width = 0.50mm
; top infill extrusion width = 0.45mm
; first layer extrusion width = 0.42mm

M73 P0 R13
M73 Q0 S13
M201 X1000 Y1000 Z200 E5000 ; sets maximum accelerations, mm/sec^2
M203 X200 Y200 Z12 E120 ; sets maximum feedrates, mm / sec
M204 S1250 T1250 ; sets acceleration (S) and retract acceleration (R), mm/sec^2
M205 X8.00 Y8.00 Z0.40 E4.50 ; sets the jerk limits, mm/sec
M205 S0 T0 ; sets the minimum extruding and travel feed rate, mm/sec

; printing object SliderhalterpressB.stl id:0 copy 0
; stop printing object SliderhalterpressB.stl id:0 copy 0

;TYPE:Custom
M862.3 P "MK3S" ; printer model check
M862.1 P0.4 ; nozzle diameter check
M115 U3.14.0 ; tell printer latest fw version
G90 ; use absolute coordinates
M83 ; extruder relative mode
M104 S235 ; set extruder temp
M140 S80 ; set bed temp
M190 S80 ; wait for bed temp
M109 S235 ; wait for extruder temp
G28 W ; home all without mesh bed level
G80 X105.623 Y77.1229 W38.7542 H55.7542 ; mesh bed levelling

G1 Z0.2 F720
G1 Y-3 F1000 ; go outside print area
G92 E0
G1 X60 E9 F1000 ; intro line
G1 X100 E12.5 F1000 ; intro line

G92 E0
M221 S95

; Don't change E values below. Excessive value can damage the printer.

M907 E538 ; set extruder motor current
G21 ; set units to millimeters
G90 ; use absolute coordinates
M83 ; use relative distances for extrusion

M900 K0.08 ; Filament gcode LA 1.5
M900 K45 ; Filament gcode LA 1.0




M107
;LAYER_CHANGE
;Z:0.2
;HEIGHT:0.2
G1 E-1 F2100
M73 P0 R12
G1 Z.4 F720
G1 X106.202 Y78.252 F10800
G1 Z.2 F720
G1 E1 F2100
M204 S800
;TYPE:Skirt/Brim
;WIDTH:0.42
G1 F1200
G1 X107.235 Y77.449 E.04102
G1 X108 Y77.311 E.02437
G1 X142 Y77.311 E1.06605
G1 X143.248 Y77.702 E.04101
M73 P1 R12
M73 Q1 S13
G1 X144.051 Y78.735 E.04102
G1 X144.189 Y79.5 E.02437
G1 X144.189 Y130.5 E1.59907
G1 X143.798 Y131.748 E.04101
G1 X142.765 Y132.551 E.04102
G1 X142 Y132.689 E.02437
G1 X108 Y132.689 E1.06605
G1 X106.752 Y132.298 E.04101
G1 X105.949 Y131.265 E.04102
G1 X105.811 Y130.5 E.02437
G1 X105.811 Y79.5 E1.59907
G1 X106.184 Y78.309 E.03913
M73 P2 R12
M73 Q2 S12
M204 S1000
;WIPE_START
G1 F8640
G1 X106.202 Y78.252 E-.0138
G1 X107.235 Y77.449 E-.30211
G1 X108 Y77.311 E-.17949
G1 X110.185 Y77.311 E-.5046
;WIPE_END
G1 Z.4 F720
; printing object SliderhalterpressB.stl id:0 copy 0
G1 X141.838 Y130.284 F10800
G1 Z.2 F720
G1 E1 F2100
M204 S800
;TYPE:External perimeter
;WIDTH:0.38292
G1 F1200
G1 X141.774 Y130.321 E.00209
G1 X141.838 Y130.358 E.00209
G1 X141.859 Y130.321 E.0012
M204 S1000
;WIPE_START
G1 F8640
G1 X141.838 Y130.284 E-.00982
G1 X141.774 Y130.321 E-.01707
G1 X141.838 Y130.358 E-.01707
G1 X141.859 Y130.321 E-.00982
;WIPE_END
G1 E-.94622 F2100
G1 Z.4 F720
G1 X108.201 Y130.283 F10800
G1 Z.2 F720
G1 E1 F2100
M204 S800
G1 F1200
G1 X108.137 Y130.32 E.00209
G1 X108.201 Y130.357 E.00209
G1 X108.222 Y130.32 E.0012
M204 S1000
;WIPE_START
G1 F8640
G1 X108.201 Y130.283 E-.00982
G1 X108.137 Y130.32 E-.01707
G1 X108.201 Y130.357 E-.01707
G1 X108.222 Y130.32 E-.00982
;WIPE_END
G1 E-.94622 F2100
G1 Z.4 F720
G1 X136.857 Y127.846 F10800
G1 Z.2 F720
G1 E1 F2100
M204 S800
;WIDTH:0.425756
G1 F1200
G1 X136.831 Y127.877 E.00129
;WIDTH:0.422542
G1 X136.524 Y127.91 E.00975
;WIDTH:0.419999
G1 X113.279 Y127.91 E.72883
;WIDTH:0.420276
G1 X113.152 Y127.861 E.00427
G1 X113.091 Y127.721 E.00479
;WIDTH:0.419999
G1 X113.09 Y102.385 E.79439
G1 X113.09 Y100.279 E.06603
G1 X113.108 Y100.199 E.00257
G1 X113.279 Y100.09 E.00636
G1 X136.785 Y100.101 E.73701
G1 X136.906 Y100.238 E.00573
G1 X136.91 Y101.019 E.02449
G1 X136.91 Y126.921 E.81214
;WIDTH:0.422304
G1 X136.911 Y127.429 E.01603
M73 Q3 S12
;WIDTH:0.425756
G1 X136.896 Y127.8 E.01182
M204 S1000
G1 X136.896 Y127.8 F10800
G1 X136.836 Y128.251
M204 S800
;TYPE:Perimeter
;WIDTH:0.419999
G1 F1200
G1 X136.829 Y128.733 E.01511
G1 X136.964 Y129.35 E.0198
G1 X137.214 Y129.806 E.01631
G1 X136.501 Y129.735 E.02247
G1 X135.691 Y129.713 E.02541
G1 X114.309 Y129.713 E.67042
M73 P3 R12
G1 X113.298 Y129.74 E.03171
G1 X112.788 Y129.805 E.01612
G1 X113.07 Y129.239 E.01983
G1 X113.171 Y128.725 E.01642
G1 X113.165 Y128.253 E.0148
G1 X113.279 Y128.287 E.00373
G1 X136.524 Y128.287 E.72883
G1 X136.776 Y128.258 E.00795
M204 S1000
;WIPE_START
G1 F8640
G1 X136.836 Y128.251 E-.01395
G1 X136.829 Y128.733 E-.11131
G1 X136.964 Y129.35 E-.14584
G1 X137.214 Y129.806 E-.12008
G1 X136.501 Y129.735 E-.16545
G1 X135.691 Y129.713 E-.1871
G1 X134.581 Y129.713 E-.25627
;WIPE_END
G1 Z.4 F720
G1 X137.287 Y126.832 F10800
G1 Z.2 F720
G1 E1 F2100
M204 S800
G1 F1200
G1 X137.287 Y101.019 E.80935
G1 X137.269 Y100.159 E.02697
G1 X137.474 Y100.44 E.01091
G1 X137.814 Y100.817 E.01592
G1 X138.144 Y101.088 E.01339
G1 X138.678 Y101.398 E.01936
G1 X139.258 Y101.597 E.01923
G1 X139.898 Y101.682 E.02024
G1 X140.405 Y101.652 E.01592
G1 X140.936 Y101.487 E.01743
G1 X141.304 Y101.297 E.01299
G1 X141.232 Y102.107 E.0255
G1 X141.213 Y102.809 E.02202
G1 X141.213 Y123.665 E.65392
G1 X141.24 Y125.202 E.0482
G1 X141.306 Y125.715 E.01622
G1 X140.735 Y125.428 E.02004
G1 X140.241 Y125.33 E.01579
G1 X139.783 Y125.323 E.01436
G1 X139.178 Y125.423 E.01923
G1 X138.583 Y125.648 E.01995
G1 X138.059 Y125.974 E.01935
G1 X137.611 Y126.394 E.01925
G1 X137.323 Y126.784 E.0152
M204 S1000
;WIPE_START
G1 F8640
G1 X137.287 Y126.832 E-.01385
G1 X137.287 Y122.561 E-.98615
;WIPE_END
G1 Z.4 F720
G1 X141.308 Y95.713 F10800
G1 Z.2 F720
G1 E1 F2100
M204 S800
G1 F1200
G1 X140.733 Y95.427 E.02014
G1 X140.103 Y95.32 E.02004
G1 X139.465 Y95.36 E.02004
G1 X138.973 Y95.485 E.01592
G1 X138.579 Y95.65 E.01339
G1 X138.144 Y95.912 E.01592
G1 X137.814 Y96.183 E.01339
G1 X137.474 Y96.56 E.01592
G1 X137.283 Y96.847 E.01081
G1 X137.287 Y80.287 E.51923
G1 X141.213 Y80.287 E.1231
G1 X141.22 Y94.773 E.4542
M73 Q4 S12
G1 X141.303 Y95.653 E.02771
M73 P4 R12
M204 S1000
;WIPE_START
G1 F8640
G1 X141.308 Y95.713 E-.0139
G1 X140.733 Y95.427 E-.14829
G1 X140.103 Y95.32 E-.14755
G1 X139.465 Y95.36 E-.14761
G1 X138.973 Y95.485 E-.11721
G1 X138.579 Y95.65 E-.09863
G1 X138.144 Y95.912 E-.11725
G1 X137.814 Y96.183 E-.0986
G1 X137.492 Y96.54 E-.11096
;WIPE_END
G1 Z.4 F720
G1 X137.225 Y100.041 F10800
G1 Z.2 F720
G1 E1 F2100
M204 S800
G1 F1200
G1 X136.911 Y99.746 E.01351
G1 X136.721 Y99.713 E.00605
G1 X113.683 Y99.713 E.72234
G1 X113.098 Y99.743 E.01837
G1 X112.774 Y100.042 E.01382
G1 X113.02 Y99.512 E.01832
G1 X113.142 Y99.021 E.01586
G1 X113.184 Y98.593 E.01348
G1 X113.159 Y98.089 E.01582
G1 X113.053 Y97.608 E.01544
G1 X112.866 Y97.117 E.01647
;WIDTH:0.412769
G1 X112.936 Y97.167 E.00265
;WIDTH:0.419999
G1 X113.279 Y97.287 E.01139
G1 X136.33 Y97.287 E.72275
G1 X136.91 Y97.254 E.01821
;WIDTH:0.419562
G1 X137.18 Y97.045 E.01069
;WIDTH:0.419999
G1 X136.956 Y97.587 E.01839
G1 X136.844 Y98.076 E.01573
G1 X136.822 Y98.714 E.02002
G1 X136.896 Y99.216 E.01591
G1 X136.99 Y99.547 E.01079
G1 X137.2 Y99.987 E.01529
M204 S1000
;WIPE_START
G1 F8640
G1 X137.225 Y100.041 E-.01374
G1 X136.911 Y99.746 E-.09948
G1 X136.721 Y99.713 E-.04453
G1 X133.073 Y99.713 E-.84225
;WIPE_END
G1 Z.4 F720
G1 X137.18 Y97.045 F10800
G1 Z.2 F720
G1 E1 F2100
M204 S800
;WIDTH:0.411788
G1 F1200
G1 X137.244 Y96.919 E.00433
M204 S1000
;WIPE_START
G1 F8640
G1 X137.18 Y97.045 E-.03263
G1 X137.244 Y96.919 E-.03263
;WIPE_END
G1 E-.93474 F2100
G1 Z.4 F720
G1 X112.742 Y96.885 F10800
G1 Z.2 F720
G1 E1 F2100
M204 S800
;WIDTH:0.41294
G1 F1200
G1 X112.699 Y96.815 E.00253
;WIDTH:0.419999
G1 X112.4 Y96.406 E.01589
G1 X112.097 Y96.103 E.01344
G1 X111.597 Y95.744 E.0193
G1 X111.141 Y95.526 E.01585
G1 X110.729 Y95.399 E.01352
G1 X110.112 Y95.318 E.01951
G1 X109.43 Y95.381 E.02147
G1 X108.954 Y95.552 E.01586
G1 X108.692 Y95.706 E.00953
G1 X108.783 Y94.72 E.03105
G1 X108.787 Y80.287 E.45254
G1 X112.713 Y80.287 E.1231
G1 X112.713 Y96.303 E.50217
G1 X112.739 Y96.825 E.01639
M204 S1000
G1 X112.739 Y96.825 F10800
G1 X112.742 Y96.885
M204 S800
;WIDTH:0.411062
G1 F1200
G1 X112.838 Y97.067 E.0063
M204 S1000
;WIPE_START
G1 F8640
G1 X112.742 Y96.885 E-.04751
G1 X112.838 Y97.067 E-.04751
;WIPE_END
G1 E-.90498 F2100
G1 Z.4 F720
G1 X112.713 Y126.85 F10800
G1 Z.2 F720
G1 E1 F2100
M204 S800
;WIDTH:0.419999
G1 F1200
G1 X112.529 Y126.564 E.01066
G1 X112.094 Y126.1 E.01994
G1 X111.593 Y125.742 E.01931
G1 X111.033 Y125.487 E.01929
M73 Q5 S12
G1 X110.321 Y125.338 E.02281
G1 X109.768 Y125.329 E.01734
G1 X109.149 Y125.463 E.01986
G1 X108.695 Y125.712 E.01624
G1 X108.76 Y125.197 E.01628
G1 X108.787 Y123.693 E.04716
G1 X108.787 Y102.795 E.65524
M73 P5 R12
G1 X108.76 Y101.798 E.03127
G1 X108.695 Y101.288 E.01612
G1 X109.256 Y101.569 E.01967
G1 X109.771 Y101.671 E.01646
G1 X110.23 Y101.676 E.01439
G1 X110.836 Y101.573 E.01927
G1 X111.313 Y101.402 E.01589
G1 X111.691 Y101.199 E.01345
G1 X112.179 Y100.823 E.01932
G1 X112.517 Y100.451 E.01576
G1 X112.749 Y100.099 E.01322
G1 X112.713 Y100.526 E.01344
G1 X112.713 Y126.79 E.82349
M204 S1000
;WIPE_START
G1 F8640
G1 X112.713 Y126.85 E-.01385
G1 X112.529 Y126.564 E-.07852
G1 X112.094 Y126.1 E-.14686
G1 X111.593 Y125.742 E-.14218
G1 X111.033 Y125.487 E-.14208
G1 X110.321 Y125.338 E-.16796
G1 X109.768 Y125.329 E-.12771
G1 X109.149 Y125.463 E-.14624
G1 X109.017 Y125.535 E-.0346
;WIPE_END
G1 Z.4 F720
G1 X136.824 Y96.857 F10800
G1 Z.2 F720
G1 E1 F2100
M204 S800
;TYPE:External perimeter
G1 F1200
G1 X136.876 Y96.83 E.00184
G1 X136.91 Y96.721 E.00358
G1 X136.91 Y79.91 E.5271
G1 X141.59 Y79.91 E.14674
G1 X141.595 Y94.738 E.46492
G1 X141.688 Y95.723 E.03102
G1 X141.788 Y96.234 E.01633
G1 X141.769 Y96.608 E.01174
G1 X141.158 Y96.06 E.02573
G1 X140.66 Y95.797 E.01766
G1 X140.12 Y95.697 E.01722
G1 X139.557 Y95.726 E.01768
G1 X139.066 Y95.85 E.01588
G1 X138.773 Y95.973 E.00996
G1 X138.338 Y96.235 E.01592
G1 X138.094 Y96.436 E.00991
G1 X137.753 Y96.813 E.01594
G1 X137.559 Y97.117 E.01131
G1 X137.349 Y97.571 E.01568
G1 X137.22 Y98.096 E.01695
G1 X137.195 Y98.658 E.01764
G1 X137.309 Y99.298 E.02038
G1 X137.559 Y99.883 E.01995
G1 X137.753 Y100.187 E.01131
G1 X138.094 Y100.564 E.01594
G1 X138.338 Y100.765 E.00991
G1 X138.807 Y101.044 E.01711
G1 X139.315 Y101.224 E.0169
G1 X139.875 Y101.306 E.01775
G1 X140.383 Y101.276 E.01596
G1 X140.81 Y101.132 E.01413
G1 X141.142 Y100.952 E.01184
G1 X141.371 Y100.716 E.01031
G1 X141.769 Y100.393 E.01607
G1 X141.788 Y100.777 E.01205
G1 X141.658 Y101.495 E.02288
G1 X141.609 Y102.117 E.01956
G1 X141.59 Y102.809 E.02171
G1 X141.59 Y123.991 E.66415
G1 X141.619 Y125.212 E.03829
G1 X141.784 Y126.172 E.03054
G1 X141.769 Y126.607 E.01365
G1 X141.164 Y126.067 E.02543
G1 X140.662 Y125.798 E.01786
G1 X140.167 Y125.7 E.01582
G1 X139.838 Y125.696 E.01032
G1 X139.305 Y125.778 E.01691
G1 X138.777 Y125.971 E.01763
G1 X138.312 Y126.254 E.01707
G1 X137.914 Y126.619 E.01693
G1 X137.58 Y127.072 E.01765
;WIDTH:0.424121
G1 X137.348 Y127.565 E.01727
G1 X137.22 Y128.091 E.01716
;WIDTH:0.422542
G1 X137.199 Y128.661 E.018
M73 Q6 S12
;WIDTH:0.419999
G1 X137.317 Y129.214 E.01773
G1 X137.567 Y129.665 E.01617
G1 X137.783 Y129.87 E.00934
G1 X138.107 Y130.269 E.01612
G1 X137.723 Y130.288 E.01205
G1 X137.211 Y130.186 E.01637
G1 X136.491 Y130.112 E.02269
M73 P6 R12
G1 X135.691 Y130.09 E.02509
G1 X114.309 Y130.09 E.67042
G1 X113.288 Y130.119 E.03203
G1 X112.328 Y130.284 E.03054
G1 X111.892 Y130.269 E.01368
G1 X112.437 Y129.662 E.02558
G1 X112.7 Y129.166 E.0176
G1 X112.804 Y128.607 E.01783
;WIDTH:0.420185
G1 X112.781 Y128.102 E.01586
G1 X112.716 Y127.787 E.01009
;WIDTH:0.419999
G1 X112.531 Y127.28 E.01692
G1 X112.249 Y126.817 E.017
G1 X111.869 Y126.403 E.01762
G1 X111.431 Y126.082 E.01703
G1 X110.941 Y125.853 E.01696
G1 X110.344 Y125.716 E.01921
G1 X109.842 Y125.699 E.01575
G1 X109.273 Y125.822 E.01825
G1 X108.835 Y126.066 E.01572
G1 X108.632 Y126.282 E.00929
G1 X108.231 Y126.609 E.01622
G1 X108.212 Y126.223 E.01212
G1 X108.314 Y125.711 E.01637
G1 X108.383 Y125.19 E.01648
G1 X108.41 Y123.697 E.04682
G1 X108.41 Y103.033 E.6479
G1 X108.381 Y101.788 E.03905
G1 X108.216 Y100.828 E.03054
G1 X108.231 Y100.391 E.01371
G1 X108.836 Y100.935 E.02551
G1 X109.329 Y101.199 E.01753
G1 X109.844 Y101.301 E.01646
G1 X110.174 Y101.303 E.01035
G1 X110.709 Y101.219 E.01698
G1 X111.185 Y101.047 E.01587
G1 X111.466 Y100.897 E.00999
G1 X111.9 Y100.57 E.01704
G1 X112.238 Y100.197 E.01578
G1 X112.44 Y99.886 E.01163
G1 X112.654 Y99.421 E.01605
G1 X112.776 Y98.93 E.01586
G1 X112.807 Y98.612 E.01002
G1 X112.782 Y98.107 E.01585
G1 X112.719 Y97.794 E.01001
G1 X112.549 Y97.318 E.01585
G1 X112.398 Y97.037 E.01
G1 X112.097 Y96.631 E.01585
G1 X111.872 Y96.405 E.01
G1 X111.434 Y96.084 E.01703
G1 X110.978 Y95.867 E.01583
G1 X110.673 Y95.772 E.01002
G1 X110.134 Y95.695 E.01707
G1 X109.557 Y95.737 E.01814
G1 X109.081 Y95.907 E.01585
G1 X108.859 Y96.048 E.00825
G1 X108.633 Y96.282 E.0102
G1 X108.231 Y96.609 E.01625
G1 X108.212 Y96.234 E.01177
G1 X108.285 Y95.859 E.01198
G1 X108.406 Y94.72 E.03591
G1 X108.41 Y79.91 E.46436
G1 X113.09 Y79.91 E.14674
G1 X113.09 Y96.721 E.5271
G1 X113.13 Y96.838 E.00388
G1 X113.279 Y96.91 E.00519
G1 X136.721 Y96.91 E.73501
G1 X136.771 Y96.884 E.00177
M204 S1000
G1 X136.771 Y96.884 F10800
G1 X136.05 Y97.452
M204 S800
;TYPE:Solid infill
;WIDTH:0.423133
G1 F1200
G1 X136.531 Y97.933 E.02151
G1 X136.505 Y98.046 E.00367
G1 X136.486 Y98.425 E.012
G1 X135.682 Y97.622 E.03592
G1 X135.145 Y97.622 E.01698
G1 X136.528 Y99.005 E.06183
G1 X136.591 Y99.38 E.01202
G1 X136.365 Y99.38 E.00714
G1 X134.607 Y97.622 E.0786
G1 X134.07 Y97.622 E.01698
G1 X135.828 Y99.38 E.0786
G1 X135.29 Y99.38 E.01701
G1 X133.532 Y97.622 E.0786
G1 X132.994 Y97.622 E.01701
G1 X134.752 Y99.38 E.0786
G1 X134.214 Y99.38 E.01701
M73 Q7 S12
G1 X132.457 Y97.622 E.07858
G1 X131.919 Y97.622 E.01701
M73 P7 R12
G1 X133.677 Y99.38 E.0786
G1 X133.139 Y99.38 E.01701
G1 X131.382 Y97.623 E.07856
G1 X130.844 Y97.623 E.01701
G1 X132.601 Y99.38 E.07856
G1 X132.063 Y99.38 E.01701
G1 X130.306 Y97.623 E.07856
G1 X129.769 Y97.623 E.01698
G1 X131.526 Y99.38 E.07856
G1 X130.988 Y99.38 E.01701
G1 X129.231 Y97.623 E.07856
G1 X128.694 Y97.623 E.01698
G1 X130.45 Y99.38 E.07853
G1 X129.912 Y99.379 E.01701
G1 X128.156 Y97.623 E.07851
G1 X127.618 Y97.623 E.01701
G1 X129.375 Y99.379 E.07853
G1 X128.837 Y99.379 E.01701
G1 X127.081 Y97.623 E.07851
G1 X126.543 Y97.624 E.01701
G1 X128.299 Y99.379 E.07849
G1 X127.761 Y99.379 E.01701
G1 X126.006 Y97.624 E.07847
G1 X125.468 Y97.624 E.01701
G1 X127.224 Y99.379 E.07849
G1 X126.686 Y99.379 E.01701
G1 X124.931 Y97.624 E.07847
G1 X124.393 Y97.624 E.01701
G1 X126.148 Y99.379 E.07847
G1 X125.61 Y99.379 E.01701
G1 X123.855 Y97.624 E.07847
G1 X123.318 Y97.624 E.01698
G1 X125.073 Y99.379 E.07847
G1 X124.535 Y99.379 E.01701
G1 X122.78 Y97.624 E.07847
G1 X122.243 Y97.625 E.01698
G1 X123.997 Y99.379 E.07842
G1 X123.459 Y99.379 E.01701
G1 X121.705 Y97.625 E.07842
G1 X121.167 Y97.625 E.01701
G1 X122.922 Y99.379 E.07844
G1 X122.384 Y99.379 E.01701
G1 X120.63 Y97.625 E.07842
G1 X120.092 Y97.625 E.01701
G1 X121.846 Y99.379 E.07842
G1 X121.308 Y99.379 E.01701
G1 X119.555 Y97.625 E.0784
G1 X119.017 Y97.625 E.01701
G1 X120.771 Y99.379 E.07842
G1 X120.233 Y99.379 E.01701
G1 X118.48 Y97.625 E.0784
G1 X117.942 Y97.625 E.01701
G1 X119.695 Y99.379 E.0784
G1 X119.157 Y99.379 E.01701
G1 X117.404 Y97.626 E.07838
G1 X116.867 Y97.626 E.01698
G1 X118.62 Y99.379 E.07838
G1 X118.082 Y99.378 E.01701
G1 X116.329 Y97.626 E.07835
G1 X115.792 Y97.626 E.01698
G1 X117.544 Y99.378 E.07833
G1 X117.006 Y99.378 E.01701
G1 X115.254 Y97.626 E.07833
G1 X114.716 Y97.626 E.01701
G1 X116.469 Y99.378 E.07835
G1 X115.931 Y99.378 E.01701
G1 X114.179 Y97.626 E.07833
G1 X113.641 Y97.626 E.01701
G1 X115.393 Y99.378 E.07833
G1 X114.855 Y99.378 E.01701
G1 X113.486 Y98.009 E.06121
G1 X113.514 Y98.575 E.01792
G1 X114.318 Y99.378 E.03592
G1 X113.78 Y99.378 E.01701
G1 X113.323 Y98.922 E.02041
M204 S1000
;WIPE_START
G1 F8640
G1 X113.78 Y99.378 E-.14907
G1 X114.318 Y99.378 E-.12423
G1 X113.514 Y98.575 E-.26238
G1 X113.486 Y98.009 E-.13085
G1 X114.507 Y99.03 E-.33347
;WIPE_END
